; HEADER_BLOCK_START
; generated by OrcaSlicer 1.9.0 on 2024-01-23 at 14:30:03
; total layer number: 101
; filament_density: 1.24
; filament_diameter: 1.75
; max_z_height: 20.00
; HEADER_BLOCK_END

; THUMBNAIL_BLOCK_START

;
; THUMBNAIL_BLOCK_END

; THUMBNAIL_BLOCK_START

;
; THUMBNAIL_BLOCK_END

; external perimeters extrusion width = 0.48mm
; perimeters extrusion width = 0.48mm
; infill extrusion width = 0.48mm
; solid infill extrusion width = 0.48mm
; top infill extrusion width = 0.48mm
; first layer extrusion width = 0.48mm

; EXECUTABLE_BLOCK_START
EXCLUDE_OBJECT_DEFINE NAME=flow_rate_cube.stl_id_0_copy_0 CENTER=210,210 POLYGON=[[200,204],[200.004,203.834],[200.012,203.686],[200.014,203.668],[200.031,203.504],[200.049,203.374],[200.055,203.341],[200.085,203.179],[200.111,203.066],[200.122,203.018],[200.166,202.858],[200.196,202.764],[200.217,202.701],[200.274,202.546],[200.304,202.469],[200.337,202.393],[200.407,202.243],[200.436,202.184],[200.482,202.096],[200.564,201.953],[200.589,201.91],[200.651,201.812],[200.745,201.676],[200.764,201.649],[200.844,201.543],[200.948,201.415],[200.958,201.402],[201.057,201.291],[201.172,201.172],[201.291,201.057],[201.402,200.958],[201.415,200.948],[201.543,200.844],[201.649,200.764],[201.676,200.745],[201.812,200.651],[201.91,200.589],[201.953,200.564],[202.096,200.482],[202.184,200.436],[202.243,200.407],[202.393,200.337],[202.469,200.304],[202.546,200.274],[202.701,200.217],[202.764,200.196],[202.858,200.166],[203.018,200.122],[203.066,200.111],[203.179,200.085],[203.341,200.055],[203.374,200.049],[203.504,200.031],[203.668,200.014],[203.686,200.012],[203.834,200.004],[204,200],[216,200],[216.166,200.004],[216.314,200.012],[216.332,200.014],[216.496,200.031],[216.626,200.049],[216.659,200.055],[216.821,200.085],[216.934,200.111],[216.982,200.122],[217.142,200.166],[217.236,200.196],[217.299,200.217],[217.454,200.274],[217.531,200.304],[217.607,200.337],[217.757,200.407],[217.816,200.436],[217.904,200.482],[218.047,200.564],[218.09,200.589],[218.188,200.651],[218.324,200.745],[218.351,200.764],[218.457,200.844],[218.585,200.948],[218.598,200.958],[218.709,201.057],[218.828,201.172],[218.943,201.291],[219.042,201.402],[219.052,201.415],[219.156,201.543],[219.236,201.649],[219.255,201.676],[219.349,201.812],[219.411,201.91],[219.436,201.953],[219.518,202.096],[219.564,202.184],[219.593,202.243],[219.663,202.393],[219.696,202.469],[219.726,202.546],[219.783,202.701],[219.804,202.764],[219.834,202.858],[219.878,203.018],[219.889,203.066],[219.915,203.179],[219.945,203.341],[219.951,203.374],[219.969,203.504],[219.986,203.668],[219.988,203.686],[219.996,203.834],[220,204],[220,216],[219.996,216.166],[219.988,216.314],[219.986,216.332],[219.969,216.496],[219.951,216.626],[219.945,216.659],[219.915,216.821],[219.889,216.934],[219.878,216.982],[219.834,217.142],[219.804,217.236],[219.783,217.299],[219.726,217.454],[219.696,217.531],[219.663,217.607],[219.593,217.757],[219.564,217.816],[219.518,217.904],[219.436,218.047],[219.411,218.09],[219.349,218.188],[219.255,218.324],[219.236,218.351],[219.156,218.457],[219.052,218.585],[219.042,218.598],[218.943,218.709],[218.828,218.828],[218.709,218.943],[218.598,219.042],[218.585,219.052],[218.457,219.156],[218.351,219.236],[218.324,219.255],[218.188,219.349],[218.09,219.411],[218.047,219.436],[217.904,219.518],[217.816,219.564],[217.757,219.593],[217.607,219.663],[217.531,219.696],[217.454,219.726],[217.299,219.783],[217.236,219.804],[217.142,219.834],[216.982,219.878],[216.934,219.889],[216.821,219.915],[216.659,219.945],[216.626,219.951],[216.496,219.969],[216.332,219.986],[216.314,219.988],[216.166,219.996],[216,220],[204,220],[203.834,219.996],[203.686,219.988],[203.668,219.986],[203.504,219.969],[203.374,219.951],[203.341,219.945],[203.179,219.915],[203.066,219.889],[203.018,219.878],[202.858,219.834],[202.764,219.804],[202.701,219.783],[202.546,219.726],[202.469,219.696],[202.393,219.663],[202.243,219.593],[202.184,219.564],[202.096,219.518],[201.953,219.436],[201.91,219.411],[201.812,219.349],[201.676,219.255],[201.649,219.236],[201.543,219.156],[201.415,219.052],[201.402,219.042],[201.291,218.943],[201.172,218.828],[201.057,218.709],[200.958,218.598],[200.948,218.585],[200.844,218.457],[200.764,218.351],[200.745,218.324],[200.651,218.188],[200.589,218.09],[200.564,218.047],[200.482,217.904],[200.436,217.816],[200.407,217.757],[200.337,217.607],[200.304,217.531],[200.274,217.454],[200.217,217.299],[200.196,217.236],[200.166,217.142],[200.122,216.982],[200.111,216.934],[200.085,216.821],[200.055,216.659],[200.049,216.626],[200.031,216.496],[200.014,216.332],[200.012,216.314],[200.004,216.166],[200,216],[200,204]]
M73 P0 R12
M106 S0
M106 P2 S0
;TYPE:Custom
;ELEGOO NEPTUNE 4 MAX
M220 S100 ;Set the feed speed to 100%
M221 S100 ;Set the flow rate to 100%
M104 S140
M190 S60
G90
G28 ;home
G1 Z10 F300
G1 X165 Y0.5 F6000
G1 Z0 F300
M109 S220
G92 E0 ;Reset Extruder
G1 X165 Y0.5 Z0.4 F300 ;Move to start position
G1 X265 E30 F400 ;Draw the first line
G1 Z0.6 F120.0 ;Move to side a little
M73 P2 R12
G1 X260 F3000
G92 E0 ;Reset Extruder
G90
G21
M83 ; use relative distances for extrusion
; filament start gcode
SET_PRESSURE_ADVANCE ADVANCE=0.08; Override pressure advance value
M106 S0
M106 P2 S0
;LAYER_CHANGE
;Z:0.2
;HEIGHT:0.2
;BEFORE_LAYER_CHANGE
G92 E0
;0.2


G1 Z.2 F18000
;AFTER_LAYER_CHANGE
;0.2
;_SET_FAN_SPEED_CHANGING_LAYER
SET_VELOCITY_LIMIT ACCEL=1000 ACCEL_TO_DECEL=500
SET_VELOCITY_LIMIT SQUARE_CORNER_VELOCITY=7
G1 E-.7 F3600
G1 X200.694 Y200.609 F18000
G1 E.7 F2700
;TYPE:Skirt
;WIDTH:0.48
G1 F3000
G1 X201.532 Y199.958 E.03856
G1 X202.479 Y199.515 E.03801
G1 X203.541 Y199.286 E.03947
G1 X216.092 Y199.265 E.45616
G1 X217.015 Y199.373 E.03376
G1 X217.756 Y199.601 E.02818
G1 X218.468 Y199.958 E.02894
G1 X219.077 Y200.399 E.02732
G1 X219.601 Y200.923 E.02695
G1 X220.042 Y201.532 E.02731
G1 X220.399 Y202.244 E.02894
G1 X220.663 Y203.167 E.0349
G1 X220.737 Y204 E.03039
G1 X220.731 Y216.231 E.44451
G1 X220.476 Y217.551 E.04885
M73 P3 R12
G1 X219.85 Y218.759 E.04946
G1 X219.102 Y219.579 E.04034
G1 X218.228 Y220.18 E.03854
G1 X217.22 Y220.577 E.03938
G1 X216.281 Y220.728 E.03457
G1 X203.769 Y220.731 E.45471
G1 X202.449 Y220.476 E.04885
G1 X201.241 Y219.85 E.04946
G1 X200.421 Y219.102 E.04034
G1 X199.82 Y218.228 E.03854
G1 X199.423 Y217.22 E.03938
G1 X199.272 Y216.281 E.03457
G1 X199.269 Y203.769 E.45471
G1 X199.524 Y202.449 E.04885
G1 X200.15 Y201.241 E.04946
G1 X200.668 Y200.639 E.02885
; printing object flow_rate_cube.stl id:0 copy 0
G1 E-.595 F3600
;WIPE_START
G1 F3000
G1 X201.453 Y200.02 E-.105
;WIPE_END
EXCLUDE_OBJECT_START NAME=flow_rate_cube.stl_id_0_copy_0
G1 X202.049 Y202.05 F18000
G1 E.7 F2700
;TYPE:Outer wall
;WIDTH:0.479999
G1 F3000
G1 X202.526 Y201.668 E.02218
G1 X202.942 Y201.452 E.01704
G1 X203.255 Y201.361 E.01184
G1 X203.757 Y201.251 E.01868
G1 X216.099 Y201.243 E.44857
G1 X216.603 Y201.308 E.01847
G1 X217.056 Y201.451 E.01724
G1 X217.477 Y201.669 E.01724
G1 X217.854 Y201.957 E.01725
G1 X218.195 Y202.328 E.01829
G1 X218.449 Y202.729 E.01725
G1 X218.63 Y203.167 E.01724
G1 X218.735 Y203.632 E.01732
G1 X218.76 Y204.106 E.01726
G1 X218.756 Y215.83 E.42607
G1 X218.731 Y216.315 E.01768
G1 X218.619 Y216.836 E.01936
G1 X218.407 Y217.329 E.0195
G1 X218.114 Y217.772 E.01929
G1 X217.671 Y218.195 E.02224
G1 X217.178 Y218.494 E.021
G1 X216.603 Y218.692 E.02209
G1 X215.986 Y218.76 E.02254
G1 X204.17 Y218.756 E.42943
G1 X203.685 Y218.731 E.01768
G1 X203.164 Y218.619 E.01936
G1 X202.671 Y218.407 E.0195
G1 X202.228 Y218.114 E.01929
G1 X201.805 Y217.671 E.02224
G1 X201.506 Y217.178 E.021
G1 X201.308 Y216.603 E.02209
G1 X201.24 Y215.986 E.02254
G1 X201.244 Y204.059 E.43348
G1 X201.308 Y203.397 E.02418
G1 X201.451 Y202.944 E.01725
G1 X201.668 Y202.525 E.01716
G1 X202.024 Y202.081 E.0207
G1 E-.595 F3600
;WIPE_START
G1 F3000
G1 X202.526 Y201.668 E-.06817
G1 X202.837 Y201.507 E-.03683
;WIPE_END
G1 X216.997 Y201.57 F18000
G1 E.7 F2700
;TYPE:Bottom surface
;WIDTH:0.488031
G1 F4800
G1 X217.933 Y202.528 E.04958
G1 X218.157 Y202.88 E.01544
G1 X218.317 Y203.266 E.01546
G1 X218.39 Y203.592 E.01235
G1 X216.411 Y201.613 E.10355
G1 X216.078 Y201.57 E.01242
G1 X215.739 Y201.571 E.01257
G1 X218.432 Y204.264 E.14096
G1 X218.432 Y204.893 E.02329
G1 X215.11 Y201.571 E.17388
G1 X214.481 Y201.572 E.02328
G1 X218.432 Y205.522 E.20679
G1 X218.432 Y206.152 E.02329
G1 X213.852 Y201.572 E.23971
G1 X213.223 Y201.572 E.02328
G1 X218.431 Y206.781 E.27262
G1 X218.431 Y207.41 E.02329
G1 X212.594 Y201.573 E.30554
G1 X211.965 Y201.573 E.02328
G1 X218.431 Y208.04 E.33845
G1 X218.431 Y208.669 E.02329
G1 X211.336 Y201.574 E.37137
G1 X210.707 Y201.574 E.02328
G1 X218.431 Y209.298 E.40428
G1 X218.43 Y209.927 E.02329
G1 X210.078 Y201.575 E.4372
G1 X209.449 Y201.575 E.02328
G1 X218.43 Y210.557 E.47011
G1 X218.43 Y211.186 E.02329
G1 X208.819 Y201.576 E.50303
G1 X208.19 Y201.576 E.02328
G1 X218.43 Y211.815 E.53594
G1 X218.43 Y212.445 E.02329
G1 X207.561 Y201.576 E.56886
G1 X206.932 Y201.577 E.02328
G1 X218.429 Y213.074 E.60177
G1 X218.429 Y213.703 E.02329
G1 X206.303 Y201.577 E.63468
G1 X205.674 Y201.578 E.02328
G1 X218.429 Y214.332 E.6676
G1 X218.429 Y214.962 E.02329
G1 X205.045 Y201.578 E.70051
G1 X204.416 Y201.579 E.02328
G1 X218.429 Y215.591 E.73343
G1 X218.415 Y216.207 E.0228
M73 P4 R12
G1 X203.787 Y201.579 E.76564
G1 X203.602 Y201.602 E.00692
G1 X203.275 Y201.697 E.01258
G1 X218.308 Y216.73 E.78686
G1 X218.245 Y216.93 E.00776
G1 X218.12 Y217.171 E.01005
G1 X202.829 Y201.88 E.80035
G1 X202.705 Y201.944 E.00516
G1 X202.46 Y202.141 E.01162
G1 X217.867 Y217.555 E.80663
G1 X217.549 Y217.859 E.01628
G1 X202.145 Y202.455 E.80627
G1 X201.944 Y202.705 E.01187
G1 X201.883 Y202.823 E.00491
G1 X217.174 Y218.113 E.80033
G1 X217.038 Y218.196 E.0059
G1 X216.732 Y218.301 E.01196
G1 X201.694 Y203.263 E.78712
G1 X201.629 Y203.469 E.00799
G1 X201.586 Y203.785 E.0118
G1 X216.207 Y218.406 E.7653
G1 X215.968 Y218.432 E.00891
G1 X215.604 Y218.432 E.01347
G1 X201.571 Y204.399 E.7345
G1 X201.571 Y205.028 E.02329
G1 X214.975 Y218.432 E.70155
G1 X214.345 Y218.432 E.02331
G1 X201.571 Y205.658 E.66861
G1 X201.571 Y206.287 E.02329
G1 X213.715 Y218.431 E.63566
G1 X213.086 Y218.431 E.02331
G1 X201.571 Y206.916 E.60271
G1 X201.57 Y207.546 E.02329
G1 X212.456 Y218.431 E.56976
G1 X211.826 Y218.431 E.02331
G1 X201.57 Y208.175 E.53681
G1 X201.57 Y208.804 E.02329
G1 X211.197 Y218.431 E.50387
G1 X210.567 Y218.43 E.02331
G1 X201.57 Y209.433 E.47092
G1 X201.57 Y210.063 E.02329
G1 X209.937 Y218.43 E.43797
G1 X209.308 Y218.43 E.02331
G1 X201.569 Y210.692 E.40502
G1 X201.569 Y211.321 E.02329
G1 X208.678 Y218.43 E.37207
G1 X208.048 Y218.43 E.02331
G1 X201.569 Y211.951 E.33913
G1 X201.569 Y212.58 E.02329
G1 X207.418 Y218.429 E.30618
G1 X206.789 Y218.429 E.02331
G1 X201.569 Y213.209 E.27323
G1 X201.568 Y213.838 E.02329
G1 X206.159 Y218.429 E.24028
G1 X205.529 Y218.429 E.02331
G1 X201.568 Y214.468 E.20733
G1 X201.568 Y215.097 E.02329
G1 X204.9 Y218.429 E.17438
G1 X204.27 Y218.428 E.02331
M73 P5 R12
G1 X201.568 Y215.726 E.14144
G1 X201.568 Y215.968 E.00895
G1 X201.616 Y216.404 E.01622
G1 X203.601 Y218.389 E.10391
G1 X203.469 Y218.371 E.00495
G1 X203.07 Y218.245 E.01547
G1 X202.695 Y218.05 E.01567
G1 X202.464 Y217.881 E.01058
G1 X201.584 Y217.001 E.04607
; stop printing object flow_rate_cube.stl id:0 copy 0
;LAYER_CHANGE
;Z:0.4
;HEIGHT:0.2
;BEFORE_LAYER_CHANGE
G92 E0
;0.4


EXCLUDE_OBJECT_END NAME=flow_rate_cube.stl_id_0_copy_0
G1 Z.4 F18000
;AFTER_LAYER_CHANGE
;0.4
;_SET_FAN_SPEED_CHANGING_LAYER
SET_VELOCITY_LIMIT ACCEL=3000 ACCEL_TO_DECEL=1500
G1 E-.595 F3600
;WIPE_START
G1 F4800
G1 X202.291 Y217.708 E-.105
;WIPE_END
G1 X199.639 Y217.767 F18000
G1 E.7 F2700
;TYPE:Skirt
;WIDTH:0.48
G1 F3000
G1 X199.423 Y217.22 E.02139
G1 X199.272 Y216.281 E.03457
G1 X199.269 Y203.769 E.45471
G1 X199.524 Y202.449 E.04885
G1 X200.15 Y201.241 E.04946
G1 X200.694 Y200.609 E.03031
G1 X201.532 Y199.958 E.03856
G1 X202.479 Y199.515 E.03801
G1 X203.541 Y199.286 E.03947
G1 X216.092 Y199.265 E.45616
G1 X217.015 Y199.373 E.03376
G1 X217.756 Y199.601 E.02818
G1 X218.468 Y199.958 E.02894
G1 X219.077 Y200.399 E.02732
G1 X219.601 Y200.923 E.02695
G1 X220.042 Y201.532 E.02731
G1 X220.399 Y202.244 E.02894
G1 X220.663 Y203.167 E.0349
G1 X220.737 Y204 E.03039
G1 X220.731 Y216.231 E.44451
G1 X220.476 Y217.551 E.04885
G1 X219.85 Y218.759 E.04946
G1 X219.102 Y219.579 E.04034
G1 X218.228 Y220.18 E.03854
G1 X217.22 Y220.577 E.03938
G1 X216.281 Y220.728 E.03457
G1 X203.769 Y220.731 E.45471
G1 X202.449 Y220.476 E.04885
G1 X201.241 Y219.85 E.04946
G1 X200.421 Y219.102 E.04034
G1 X199.82 Y218.228 E.03854
G1 X199.654 Y217.804 E.01654
; printing object flow_rate_cube.stl id:0 copy 0
G1 E-.595 F3600
;WIPE_START
G1 F3000
G1 X199.423 Y217.22 E-.06599
G1 X199.364 Y216.853 E-.03901
;WIPE_END
EXCLUDE_OBJECT_START NAME=flow_rate_cube.stl_id_0_copy_0
G1 X201.209 Y217.211 F18000
G1 E.7 F2700
SET_VELOCITY_LIMIT ACCEL=2000 ACCEL_TO_DECEL=1000 SQUARE_CORNER_VELOCITY=6
;TYPE:Outer wall
;WIDTH:0.479999
G1 F4411.964
G1 X201.038 Y216.762 E.01746
G1 X200.946 Y216.168 E.02185
G1 F4420.172
G1 X200.946 Y215.249 E.0334
G1 F4602.375
G1 X200.946 Y204.747 E.38168
G1 F4409.44
G1 X200.946 Y203.827 E.03344
G1 X201.06 Y203.193 E.02341
G1 F4419.848
G1 X201.281 Y202.597 E.0231
G1 X201.554 Y202.163 E.01863
G1 F4431.047
M73 P5 R11
G1 X202.026 Y201.663 E.02499
G1 F4438.403
G1 X202.597 Y201.282 E.02495
G1 X203.152 Y201.062 E.0217
G1 F4427.759
G1 X203.744 Y200.952 E.02188
G1 X204.663 Y200.951 E.0334
G1 F4498.567
G1 X215.158 Y200.943 E.38142
G1 F4411.462
G1 X216.078 Y200.942 E.03344
G1 X216.682 Y201.018 E.02212
G1 F4426.466
G1 X217.171 Y201.174 E.01865
G1 F4423.982
G1 X217.627 Y201.41 E.01866
G1 X218.036 Y201.718 E.01861
G1 F4426.705
G1 X218.445 Y202.162 E.02194
G1 F4425.547
G1 X218.718 Y202.596 E.01863
G1 X218.915 Y203.071 E.01869
G1 F4419.859
G1 X219.029 Y203.573 E.01871
G1 F4401.997
G1 X219.06 Y204.122 E.01998
G1 X219.06 Y205.042 E.03344
G1 F4417.279
G1 X219.055 Y215.253 E.3711
G1 F4409.358
G1 X219.054 Y216.173 E.03344
G1 X218.94 Y216.807 E.02341
G1 F4419.848
G1 X218.719 Y217.403 E.0231
G1 X218.446 Y217.837 E.01863
G1 F4431.047
G1 X217.974 Y218.337 E.02499
G1 F4443.912
G1 X217.404 Y218.717 E.0249
G1 F4411.964
G1 X216.762 Y218.962 E.02497
G1 X216.168 Y219.054 E.02185
G1 F4420.206
G1 X215.249 Y219.054 E.0334
G1 F4602.375
G1 X204.747 Y219.054 E.38168
G1 F4409.404
G1 X203.827 Y219.054 E.03344
G1 X203.193 Y218.94 E.02341
G1 F4419.848
G1 X202.597 Y218.719 E.0231
G1 X202.163 Y218.446 E.01863
G1 F4431.047
G1 X201.663 Y217.974 E.02499
G1 F4443.912
G1 X201.283 Y217.404 E.0249
G1 F4445.273
G1 X201.224 Y217.249 E.00603
SET_VELOCITY_LIMIT ACCEL=3000 ACCEL_TO_DECEL=1500 SQUARE_CORNER_VELOCITY=7
G1 E-.595 F3600
;WIPE_START
G1 F4445.273
G1 X201.038 Y216.762 E-.0547
G1 X200.964 Y216.288 E-.0503
;WIPE_END
G1 X218.677 Y217.167 F18000
G1 E.7 F2700
;TYPE:Internal solid infill
;WIDTH:0.482284
G1 F8097
G1 X217.758 Y218.086 E.04747
G1 X217.253 Y218.424 E.02222
G1 X216.677 Y218.643 E.02249
G1 X216.562 Y218.661 E.00427
G1 X218.666 Y216.558 E.10869
G1 X218.726 Y216.155 E.01489
G1 X218.727 Y215.875 E.01021
G1 X215.875 Y218.726 E.14731
G1 X215.254 Y218.726 E.0227
G1 X218.727 Y215.254 E.17943
G1 X218.727 Y214.632 E.02271
G1 X214.633 Y218.726 E.21155
G1 X214.011 Y218.726 E.0227
G1 X218.727 Y214.01 E.24366
G1 X218.728 Y213.389 E.02271
G1 X213.39 Y218.726 E.27578
G1 X212.769 Y218.726 E.0227
G1 X218.728 Y212.767 E.3079
G1 X218.728 Y212.145 E.02271
G1 X212.147 Y218.726 E.34002
G1 X211.526 Y218.726 E.0227
G1 X218.729 Y211.524 E.37214
G1 X218.729 Y210.902 E.02271
G1 X210.905 Y218.726 E.40425
G1 X210.283 Y218.726 E.0227
G1 X218.729 Y210.28 E.43637
G1 X218.73 Y209.659 E.02271
G1 X209.662 Y218.726 E.46849
G1 X209.04 Y218.726 E.0227
G1 X218.73 Y209.037 E.50061
G1 X218.73 Y208.415 E.02271
G1 X208.419 Y218.726 E.53273
G1 X207.798 Y218.726 E.0227
G1 X218.73 Y207.794 E.56484
G1 X218.731 Y207.172 E.02271
G1 X207.176 Y218.726 E.59696
G1 X206.555 Y218.726 E.0227
G1 X218.731 Y206.55 E.62908
G1 X218.731 Y205.929 E.02271
