
; ### Ellis' Pressure Advance / Linear Advance Calibration Tool ###
;
; Original Marlin linear advance calibration tool by Sineos [https://github.com/Sineos]
; Heavily modified/rewritten by Andrew Ellis [https://github.com/AndrewEllis93]
;
; -------------------------------------------
; Generated: Sat Dec 02 2023 11:18:44 GMT+0100 (heure normale d’Europe centrale)
; -------------------------------------------
;
; Advanced Mode: false
;
; Printer:
;  - Firmware: klipper
;  - Bed Shape: Rect
;  - Bed Size X: 420 mm
;  - Bed Size Y: 420 mm
;  - Origin Bed Center: false
;  - Travel Speed: 300 mm/s
;  - Nozzle Diameter: 0.4 mm
;  - Filament Diameter: 1.75 mm
;  - Extrusion Multiplier: 0.96
;
; Retraction / Z Hop:
;  - Retraction Distance: 0.5 mm
;  - Retract Speed: 55 mm/s
;  - Unretract Speed: 25 mm/s
;  - Z Hop Enable: true
;  - Z Hop Height: 0.1mm
;
; First Layer Settings:
;  - First Layer Height: 0.25 mm
;  - First Layer Printing Speed: 30 mm/s
;  - First Layer Fan Speed: 0%
;  - Anchor Option: anchor_frame
;
; Print Settings:
;  - Layer Height: 0.2 mm
;  - Print Speed: 150 mm/s
;  - Acceleration: Disabled
;  - Fan Speed: 100%
;
; Pressure Advance Stepping:
;  - PA Start Value: 0
;  - PA End Value: 0.08
;  - PA Increment: 0.005
;
; Start / End G-code:
;  - Hotend Temp: 220C
;  - Bed Temp: 60C
;  - Don't Add G28: false
;  - Don't Add Heating G-Codes: false
;
; Calculated Values:
;  - Print Size X: 84.72 mm
;  - Print Size Y: 53.99 mm
;  - Number of Patterns to Print: 17
;  - PA Values: 0, 0.005, 0.01, 0.015, 0.02, 0.025, 0.03, 0.035, 0.04, 0.045, 0.05, 0.055, 0.06, 0.065, 0.07, 0.075, 0.08
;
; Prepare printing
;
M220 S100 ;Set the feed speed to 100%
M221 S100 ;Set the flow rate to 100%
M104 S220
M190 S60
G90
G28 ;home
M190 S60 ; Set & wait for bed temp
M109 S220 ; Set & wait for hotend temp
G1 Z10 F300
G1 X115 Y0 F6000
G1 Z0 F300
M109 S220
G92 E0 ;Reset Extruder
G1 X115 Y0 Z0.4 F300 ;Move to start position
G1 X215.0 E30 F400 ;Draw the first line
G1 Z0.6 F120.0 ;Move to side a little
G1 X210 F3000
G92 E0 ;Reset Extruder
G21 ; Millimeter units
G90 ; Absolute XYZ
M83 ; Relative E
G92 E0 ; Reset extruder distance
;
;  Begin printing
;
M106 S0 ; Set fan speed
G1 E-0.5 F3300 ; Retract
G0 Z5 F18000 ; Z raise
G0 X167.6417 Y183.0068 F18000 ; Move to start position
G0 Z0.25 F18000 ; Move to start layer height
G1 E0.5 F1500 ; Un-retract
SET_PRESSURE_ADVANCE ADVANCE=0 ; Set pressure advance to start value
M117 PA 0
G1 X167.6417 Y225.4332 E2.14354 F1800 ; Draw perimeter (up)
G1 X252.3583 Y225.4332 E4.2802 F1800 ; Draw perimeter (right)
G1 X252.3583 Y183.0068 E2.14354 F1800 ; Draw perimeter (down)
G1 X167.6417 Y183.0068 E4.2802 F1800 ; Draw perimeter (left)
G0 X168.148 Y183.5131 F18000 ; Step inwards to print next perimeter
G1 X168.148 Y224.9269 E2.09238 F1800 ; Draw perimeter (up)
G1 X251.852 Y224.9269 E4.22904 F1800 ; Draw perimeter (right)
G1 X251.852 Y183.5131 E2.09238 F1800 ; Draw perimeter (down)
G1 X168.148 Y183.5131 E4.22904 F1800 ; Draw perimeter (left)
G0 X168.6544 Y184.0195 F18000 ; Step inwards to print next perimeter
G1 X168.6544 Y224.4205 E2.04121 F1800 ; Draw perimeter (up)
G1 X251.3456 Y224.4205 E4.17787 F1800 ; Draw perimeter (right)
G1 X251.3456 Y184.0195 E2.04121 F1800 ; Draw perimeter (down)
G1 X168.6544 Y184.0195 E4.17787 F1800 ; Draw perimeter (left)
G0 X169.1607 Y184.5258 F18000 ; Step inwards to print next perimeter
G1 X169.1607 Y223.9142 E1.99005 F1800 ; Draw perimeter (up)
G1 X250.8393 Y223.9142 E4.12671 F1800 ; Draw perimeter (right)
G1 X250.8393 Y184.5258 E1.99005 F1800 ; Draw perimeter (down)
G1 X169.1607 Y184.5258 E4.12671 F1800 ; Draw perimeter (left)
G1 E-0.5 F3300 ; Retract
G1 Z0.35 F18000 ; Z hop
G0 X167.6417 Y225.9396 F18000 ; Move to box start
G1 Z0.25 F18000 ; Z hop return
G1 E0.5 F1500 ; Un-retract
G1 X167.6417 Y237.4459 E0.58134 F1800 ; Draw perimeter (up)
G1 X231.8962 Y237.4459 E3.24638 F1800 ; Draw perimeter (right)
G1 X231.8962 Y225.9396 E0.58134 F1800 ; Draw perimeter (down)
G1 X167.6417 Y225.9396 E3.24638 F1800 ; Draw perimeter (left)
G0 X168.148 Y226.4459 F18000 ; Step inwards to print next perimeter
G1 X168.148 Y236.9396 E0.53018 F1800 ; Draw perimeter (up)
G1 X231.3898 Y236.9396 E3.19521 F1800 ; Draw perimeter (right)
G1 X231.3898 Y226.4459 E0.53018 F1800 ; Draw perimeter (down)
G1 X168.148 Y226.4459 E3.19521 F1800 ; Draw perimeter (left)
G0 X168.6544 Y226.9523 F18000 ; Step inwards to print next perimeter
G1 X168.6544 Y236.4332 E0.47901 F1800 ; Draw perimeter (up)
G1 X230.8835 Y236.4332 E3.14405 F1800 ; Draw perimeter (right)
G1 X230.8835 Y226.9523 E0.47901 F1800 ; Draw perimeter (down)
G1 X168.6544 Y226.9523 E3.14405 F1800 ; Draw perimeter (left)
G0 X169.1607 Y227.4586 F18000 ; Step inwards to print next perimeter
G1 X169.1607 Y235.9269 E0.42785 F1800 ; Draw perimeter (up)
G1 X230.3771 Y235.9269 E3.09288 F1800 ; Draw perimeter (right)
G1 X230.3771 Y227.4586 E0.42785 F1800 ; Draw perimeter (down)
G1 X169.1607 Y227.4586 E3.09288 F1800 ; Draw perimeter (left)
G0 X169.5341 Y227.8319 F18000 ; Move to fill start
G0 X170.2502 Y227.8319 F18000 ; Move
G1 X169.5341 Y228.548 E0.05117 F1800 ; Fill
G0 X169.5341 Y229.2641 F18000 ; Move
G1 X170.9663 Y227.8319 E0.10233 F1800 ; Fill
G0 X171.6823 Y227.8319 F18000 ; Move
G1 X169.5341 Y229.9802 E0.1535 F1800 ; Fill
G0 X169.5341 Y230.6963 F18000 ; Move
G1 X172.3984 Y227.8319 E0.20466 F1800 ; Fill
G0 X173.1145 Y227.8319 F18000 ; Move
G1 X169.5341 Y231.4124 E0.25583 F1800 ; Fill
G0 X169.5341 Y232.1285 F18000 ; Move
G1 X173.8306 Y227.8319 E0.30699 F1800 ; Fill
G0 X174.5467 Y227.8319 F18000 ; Move
G1 X169.5341 Y232.8445 E0.35816 F1800 ; Fill
G0 X169.5341 Y233.5606 F18000 ; Move
G1 X175.2628 Y227.8319 E0.40932 F1800 ; Fill
G0 X175.9789 Y227.8319 F18000 ; Move
G1 X169.5341 Y234.2767 E0.46049 F1800 ; Fill
G0 X169.5341 Y234.9928 F18000 ; Move
G1 X176.6949 Y227.8319 E0.51165 F1800 ; Fill
G0 X177.411 Y227.8319 F18000 ; Move
G1 X169.6894 Y235.5535 E0.55172 F1800 ; Fill
G0 X170.4055 Y235.5535 F18000 ; Move
G1 X178.1271 Y227.8319 E0.55172 F1800 ; Fill
G0 X178.8432 Y227.8319 F18000 ; Move
G1 X171.1216 Y235.5535 E0.55172 F1800 ; Fill
G0 X171.8377 Y235.5535 F18000 ; Move
G1 X179.5593 Y227.8319 E0.55172 F1800 ; Fill
G0 X180.2754 Y227.8319 F18000 ; Move
G1 X172.5538 Y235.5535 E0.55172 F1800 ; Fill
G0 X173.2699 Y235.5535 F18000 ; Move
G1 X180.9915 Y227.8319 E0.55172 F1800 ; Fill
G0 X181.7076 Y227.8319 F18000 ; Move
G1 X173.986 Y235.5535 E0.55172 F1800 ; Fill
G0 X174.7021 Y235.5535 F18000 ; Move
G1 X182.4236 Y227.8319 E0.55172 F1800 ; Fill
G0 X183.1397 Y227.8319 F18000 ; Move
G1 X175.4181 Y235.5535 E0.55172 F1800 ; Fill
G0 X176.1342 Y235.5535 F18000 ; Move
G1 X183.8558 Y227.8319 E0.55172 F1800 ; Fill
G0 X184.5719 Y227.8319 F18000 ; Move
G1 X176.8503 Y235.5535 E0.55172 F1800 ; Fill
G0 X177.5664 Y235.5535 F18000 ; Move
G1 X185.288 Y227.8319 E0.55172 F1800 ; Fill
G0 X186.0041 Y227.8319 F18000 ; Move
G1 X178.2825 Y235.5535 E0.55172 F1800 ; Fill
G0 X178.9986 Y235.5535 F18000 ; Move
G1 X186.7202 Y227.8319 E0.55172 F1800 ; Fill
G0 X187.4362 Y227.8319 F18000 ; Move
G1 X179.7147 Y235.5535 E0.55172 F1800 ; Fill
G0 X180.4307 Y235.5535 F18000 ; Move
G1 X188.1523 Y227.8319 E0.55172 F1800 ; Fill
G0 X188.8684 Y227.8319 F18000 ; Move
G1 X181.1468 Y235.5535 E0.55172 F1800 ; Fill
G0 X181.8629 Y235.5535 F18000 ; Move
G1 X189.5845 Y227.8319 E0.55172 F1800 ; Fill
G0 X190.3006 Y227.8319 F18000 ; Move
G1 X182.579 Y235.5535 E0.55172 F1800 ; Fill
G0 X183.2951 Y235.5535 F18000 ; Move
G1 X191.0167 Y227.8319 E0.55172 F1800 ; Fill
G0 X191.7328 Y227.8319 F18000 ; Move
G1 X184.0112 Y235.5535 E0.55172 F1800 ; Fill
G0 X184.7273 Y235.5535 F18000 ; Move
G1 X192.4488 Y227.8319 E0.55172 F1800 ; Fill
G0 X193.1649 Y227.8319 F18000 ; Move
G1 X185.4433 Y235.5535 E0.55172 F1800 ; Fill
G0 X186.1594 Y235.5535 F18000 ; Move
G1 X193.881 Y227.8319 E0.55172 F1800 ; Fill
G0 X194.5971 Y227.8319 F18000 ; Move
G1 X186.8755 Y235.5535 E0.55172 F1800 ; Fill
G0 X187.5916 Y235.5535 F18000 ; Move
G1 X195.3132 Y227.8319 E0.55172 F1800 ; Fill
G0 X196.0293 Y227.8319 F18000 ; Move
G1 X188.3077 Y235.5535 E0.55172 F1800 ; Fill
G0 X189.0238 Y235.5535 F18000 ; Move
G1 X196.7454 Y227.8319 E0.55172 F1800 ; Fill
G0 X197.4615 Y227.8319 F18000 ; Move
G1 X189.7399 Y235.5535 E0.55172 F1800 ; Fill
G0 X190.456 Y235.5535 F18000 ; Move
G1 X198.1775 Y227.8319 E0.55172 F1800 ; Fill
G0 X198.8936 Y227.8319 F18000 ; Move
G1 X191.172 Y235.5535 E0.55172 F1800 ; Fill
G0 X191.8881 Y235.5535 F18000 ; Move
G1 X199.6097 Y227.8319 E0.55172 F1800 ; Fill
G0 X200.3258 Y227.8319 F18000 ; Move
G1 X192.6042 Y235.5535 E0.55172 F1800 ; Fill
G0 X193.3203 Y235.5535 F18000 ; Move
G1 X201.0419 Y227.8319 E0.55172 F1800 ; Fill
G0 X201.758 Y227.8319 F18000 ; Move
G1 X194.0364 Y235.5535 E0.55172 F1800 ; Fill
G0 X194.7525 Y235.5535 F18000 ; Move
G1 X202.4741 Y227.8319 E0.55172 F1800 ; Fill
G0 X203.1901 Y227.8319 F18000 ; Move
G1 X195.4686 Y235.5535 E0.55172 F1800 ; Fill
G0 X196.1846 Y235.5535 F18000 ; Move
G1 X203.9062 Y227.8319 E0.55172 F1800 ; Fill
G0 X204.6223 Y227.8319 F18000 ; Move
G1 X196.9007 Y235.5535 E0.55172 F1800 ; Fill
G0 X197.6168 Y235.5535 F18000 ; Move
G1 X205.3384 Y227.8319 E0.55172 F1800 ; Fill
G0 X206.0545 Y227.8319 F18000 ; Move
G1 X198.3329 Y235.5535 E0.55172 F1800 ; Fill
G0 X199.049 Y235.5535 F18000 ; Move
G1 X206.7706 Y227.8319 E0.55172 F1800 ; Fill
G0 X207.4867 Y227.8319 F18000 ; Move
G1 X199.7651 Y235.5535 E0.55172 F1800 ; Fill
G0 X200.4812 Y235.5535 F18000 ; Move
G1 X208.2027 Y227.8319 E0.55172 F1800 ; Fill
G0 X208.9188 Y227.8319 F18000 ; Move
G1 X201.1972 Y235.5535 E0.55172 F1800 ; Fill
G0 X201.9133 Y235.5535 F18000 ; Move
G1 X209.6349 Y227.8319 E0.55172 F1800 ; Fill
G0 X210.351 Y227.8319 F18000 ; Move
G1 X202.6294 Y235.5535 E0.55172 F1800 ; Fill
G0 X203.3455 Y235.5535 F18000 ; Move
G1 X211.0671 Y227.8319 E0.55172 F1800 ; Fill
G0 X211.7832 Y227.8319 F18000 ; Move
G1 X204.0616 Y235.5535 E0.55172 F1800 ; Fill
G0 X204.7777 Y235.5535 F18000 ; Move
G1 X212.4993 Y227.8319 E0.55172 F1800 ; Fill
G0 X213.2154 Y227.8319 F18000 ; Move
G1 X205.4938 Y235.5535 E0.55172 F1800 ; Fill
G0 X206.2099 Y235.5535 F18000 ; Move
G1 X213.9314 Y227.8319 E0.55172 F1800 ; Fill
G0 X214.6475 Y227.8319 F18000 ; Move
G1 X206.9259 Y235.5535 E0.55172 F1800 ; Fill
G0 X207.642 Y235.5535 F18000 ; Move
G1 X215.3636 Y227.8319 E0.55172 F1800 ; Fill
G0 X216.0797 Y227.8319 F18000 ; Move
G1 X208.3581 Y235.5535 E0.55172 F1800 ; Fill
G0 X209.0742 Y235.5535 F18000 ; Move
G1 X216.7958 Y227.8319 E0.55172 F1800 ; Fill
G0 X217.5119 Y227.8319 F18000 ; Move
G1 X209.7903 Y235.5535 E0.55172 F1800 ; Fill
G0 X210.5064 Y235.5535 F18000 ; Move
G1 X218.228 Y227.8319 E0.55172 F1800 ; Fill
G0 X218.944 Y227.8319 F18000 ; Move
G1 X211.2225 Y235.5535 E0.55172 F1800 ; Fill
G0 X211.9385 Y235.5535 F18000 ; Move
G1 X219.6601 Y227.8319 E0.55172 F1800 ; Fill
G0 X220.3762 Y227.8319 F18000 ; Move
G1 X212.6546 Y235.5535 E0.55172 F1800 ; Fill
G0 X213.3707 Y235.5535 F18000 ; Move
G1 X221.0923 Y227.8319 E0.55172 F1800 ; Fill
G0 X221.8084 Y227.8319 F18000 ; Move
G1 X214.0868 Y235.5535 E0.55172 F1800 ; Fill
G0 X214.8029 Y235.5535 F18000 ; Move
G1 X222.5245 Y227.8319 E0.55172 F1800 ; Fill
G0 X223.2406 Y227.8319 F18000 ; Move
G1 X215.519 Y235.5535 E0.55172 F1800 ; Fill
G0 X216.2351 Y235.5535 F18000 ; Move
G1 X223.9566 Y227.8319 E0.55172 F1800 ; Fill
G0 X224.6727 Y227.8319 F18000 ; Move
G1 X216.9511 Y235.5535 E0.55172 F1800 ; Fill
G0 X217.6672 Y235.5535 F18000 ; Move
G1 X225.3888 Y227.8319 E0.55172 F1800 ; Fill
G0 X226.1049 Y227.8319 F18000 ; Move
G1 X218.3833 Y235.5535 E0.55172 F1800 ; Fill
G0 X219.0994 Y235.5535 F18000 ; Move
G1 X226.821 Y227.8319 E0.55172 F1800 ; Fill
G0 X227.5371 Y227.8319 F18000 ; Move
G1 X219.8155 Y235.5535 E0.55172 F1800 ; Fill
G0 X220.5316 Y235.5535 F18000 ; Move
G1 X228.2532 Y227.8319 E0.55172 F1800 ; Fill
G0 X228.9693 Y227.8319 F18000 ; Move
G1 X221.2477 Y235.5535 E0.55172 F1800 ; Fill
G0 X221.9638 Y235.5535 F18000 ; Move
G1 X229.6853 Y227.8319 E0.55172 F1800 ; Fill
G0 X230.0038 Y228.2296 F18000 ; Move
G1 X222.6798 Y235.5535 E0.52331 F1800 ; Fill
G0 X223.3959 Y235.5535 F18000 ; Move
G1 X230.0038 Y228.9457 E0.47214 F1800 ; Fill
G0 X230.0038 Y229.6617 F18000 ; Move
G1 X224.112 Y235.5535 E0.42098 F1800 ; Fill
G0 X224.8281 Y235.5535 F18000 ; Move
G1 X230.0038 Y230.3778 E0.36981 F1800 ; Fill
G0 X230.0038 Y231.0939 F18000 ; Move
G1 X225.5442 Y235.5535 E0.31865 F1800 ; Fill
G0 X226.2603 Y235.5535 F18000 ; Move
G1 X230.0038 Y231.81 E0.26748 F1800 ; Fill
G0 X230.0038 Y232.5261 F18000 ; Move
G1 X226.9764 Y235.5535 E0.21631 F1800 ; Fill
G0 X227.6924 Y235.5535 F18000 ; Move
G1 X230.0038 Y233.2422 E0.16515 F1800 ; Fill
G0 X230.0038 Y233.9583 F18000 ; Move
G1 X228.4085 Y235.5535 E0.11398 F1800 ; Fill
G0 X229.1246 Y235.5535 F18000 ; Move
G1 X230.0038 Y234.6744 E0.06282 F1800 ; Fill
G0 X230.0038 Y235.3904 F18000 ; Move
G1 X229.8407 Y235.5535 E0.01165 F1800 ; Fill
G0 Z0.25 F18000 ; Move to layer height
G1 E-0.5 F3300 ; Retract
G1 Z0.35 F18000 ; Z hop
G0 X172.2384 Y184.8992 F18000 ; Move to pattern start

G1 Z0.25 F18000 ; Z hop return
G1 E0.5 F1500 ; Un-retract
SET_PRESSURE_ADVANCE ADVANCE=0 ; Set pressure advance
M117 PA 0
G1 X191.5592 Y204.22 E1.0806 F1800 ; Print pattern wall
G1 X172.2384 Y223.5408 E1.0806 F1800 ; Print pattern wall
G1 E-0.5 F3300 ; Retract
G1 Z0.35 F18000 ; Z hop
G0 X172.8141 Y184.8992 F18000 ; Move to start next pattern wall
G1 Z0.25 F18000 ; Z hop return
G1 E0.5 F1500 ; Un-retract
G1 X192.1349 Y204.22 E1.0806 F1800 ; Print pattern wall
G1 X172.8141 Y223.5408 E1.0806 F1800 ; Print pattern wall
G1 E-0.5 F3300 ; Retract
G1 Z0.35 F18000 ; Z hop
G0 X173.3898 Y184.8992 F18000 ; Move to start next pattern wall
G1 Z0.25 F18000 ; Z hop return
G1 E0.5 F1500 ; Un-retract
G1 X192.7106 Y204.22 E1.0806 F1800 ; Print pattern wall
G1 X173.3898 Y223.5408 E1.0806 F1800 ; Print pattern wall
G1 E-0.5 F3300 ; Retract
G1 Z0.35 F18000 ; Z hop
G0 X175.8398 Y184.8992 F18000 ; Move to next pattern
G1 Z0.25 F18000 ; Z hop return
G1 E0.5 F1500 ; Un-retract
SET_PRESSURE_ADVANCE ADVANCE=0.005 ; Set pressure advance
M117 PA 0.005
G1 X195.1606 Y204.22 E1.0806 F1800 ; Print pattern wall
G1 X175.8398 Y223.5408 E1.0806 F1800 ; Print pattern wall
G1 E-0.5 F3300 ; Retract
G1 Z0.35 F18000 ; Z hop
G0 X176.4155 Y184.8992 F18000 ; Move to start next pattern wall
G1 Z0.25 F18000 ; Z hop return
G1 E0.5 F1500 ; Un-retract
G1 X195.7363 Y204.22 E1.0806 F1800 ; Print pattern wall
G1 X176.4155 Y223.5408 E1.0806 F1800 ; Print pattern wall
G1 E-0.5 F3300 ; Retract
G1 Z0.35 F18000 ; Z hop
G0 X176.9912 Y184.8992 F18000 ; Move to start next pattern wall
G1 Z0.25 F18000 ; Z hop return
G1 E0.5 F1500 ; Un-retract
G1 X196.312 Y204.22 E1.0806 F1800 ; Print pattern wall
G1 X176.9912 Y223.5408 E1.0806 F1800 ; Print pattern wall
G1 E-0.5 F3300 ; Retract
G1 Z0.35 F18000 ; Z hop
G0 X179.4412 Y184.8992 F18000 ; Move to next pattern
G1 Z0.25 F18000 ; Z hop return
G1 E0.5 F1500 ; Un-retract
SET_PRESSURE_ADVANCE ADVANCE=0.01 ; Set pressure advance
M117 PA 0.01
G1 X198.762 Y204.22 E1.0806 F1800 ; Print pattern wall
G1 X179.4412 Y223.5408 E1.0806 F1800 ; Print pattern wall
G1 E-0.5 F3300 ; Retract
G1 Z0.35 F18000 ; Z hop
G0 X180.0169 Y184.8992 F18000 ; Move to start next pattern wall
G1 Z0.25 F18000 ; Z hop return
G1 E0.5 F1500 ; Un-retract
G1 X199.3377 Y204.22 E1.0806 F1800 ; Print pattern wall
G1 X180.0169 Y223.5408 E1.0806 F1800 ; Print pattern wall
G1 E-0.5 F3300 ; Retract
G1 Z0.35 F18000 ; Z hop
G0 X180.5926 Y184.8992 F18000 ; Move to start next pattern wall
G1 Z0.25 F18000 ; Z hop return
G1 E0.5 F1500 ; Un-retract
G1 X199.9134 Y204.22 E1.0806 F1800 ; Print pattern wall
G1 X180.5926 Y223.5408 E1.0806 F1800 ; Print pattern wall
G1 E-0.5 F3300 ; Retract
G1 Z0.35 F18000 ; Z hop
G0 X183.0426 Y184.8992 F18000 ; Move to next pattern
G1 Z0.25 F18000 ; Z hop return
G1 E0.5 F1500 ; Un-retract
SET_PRESSURE_ADVANCE ADVANCE=0.015 ; Set pressure advance
M117 PA 0.015
G1 X202.3634 Y204.22 E1.0806 F1800 ; Print pattern wall
G1 X183.0426 Y223.5408 E1.0806 F1800 ; Print pattern wall
G1 E-0.5 F3300 ; Retract
G1 Z0.35 F18000 ; Z hop
G0 X183.6183 Y184.8992 F18000 ; Move to start next pattern wall
G1 Z0.25 F18000 ; Z hop return
G1 E0.5 F1500 ; Un-retract
G1 X202.9391 Y204.22 E1.0806 F1800 ; Print pattern wall
G1 X183.6183 Y223.5408 E1.0806 F1800 ; Print pattern wall
G1 E-0.5 F3300 ; Retract
G1 Z0.35 F18000 ; Z hop
G0 X184.194 Y184.8992 F18000 ; Move to start next pattern wall
G1 Z0.25 F18000 ; Z hop return
G1 E0.5 F1500 ; Un-retract
G1 X203.5148 Y204.22 E1.0806 F1800 ; Print pattern wall
G1 X184.194 Y223.5408 E1.0806 F1800 ; Print pattern wall
G1 E-0.5 F3300 ; Retract
G1 Z0.35 F18000 ; Z hop
G0 X186.644 Y184.8992 F18000 ; Move to next pattern
G1 Z0.25 F18000 ; Z hop return
G1 E0.5 F1500 ; Un-retract
SET_PRESSURE_ADVANCE ADVANCE=0.02 ; Set pressure advance
M117 PA 0.02
G1 X205.9648 Y204.22 E1.0806 F1800 ; Print pattern wall
G1 X186.644 Y223.5408 E1.0806 F1800 ; Print pattern wall
G1 E-0.5 F3300 ; Retract
G1 Z0.35 F18000 ; Z hop
G0 X187.2197 Y184.8992 F18000 ; Move to start next pattern wall
G1 Z0.25 F18000 ; Z hop return
G1 E0.5 F1500 ; Un-retract
G1 X206.5405 Y204.22 E1.0806 F1800 ; Print pattern wall
G1 X187.2197 Y223.5408 E1.0806 F1800 ; Print pattern wall
G1 E-0.5 F3300 ; Retract
G1 Z0.35 F18000 ; Z hop
G0 X187.7954 Y184.8992 F18000 ; Move to start next pattern wall
G1 Z0.25 F18000 ; Z hop return
G1 E0.5 F1500 ; Un-retract
G1 X207.1162 Y204.22 E1.0806 F1800 ; Print pattern wall
G1 X187.7954 Y223.5408 E1.0806 F1800 ; Print pattern wall
G1 E-0.5 F3300 ; Retract
G1 Z0.35 F18000 ; Z hop
G0 X190.2454 Y184.8992 F18000 ; Move to next pattern
G1 Z0.25 F18000 ; Z hop return
G1 E0.5 F1500 ; Un-retract
SET_PRESSURE_ADVANCE ADVANCE=0.025 ; Set pressure advance
M117 PA 0.025
G1 X209.5662 Y204.22 E1.0806 F1800 ; Print pattern wall
G1 X190.2454 Y223.5408 E1.0806 F1800 ; Print pattern wall
G1 E-0.5 F3300 ; Retract
G1 Z0.35 F18000 ; Z hop
G0 X190.8211 Y184.8992 F18000 ; Move to start next pattern wall
G1 Z0.25 F18000 ; Z hop return
G1 E0.5 F1500 ; Un-retract
G1 X210.1419 Y204.22 E1.0806 F1800 ; Print pattern wall
G1 X190.8211 Y223.5408 E1.0806 F1800 ; Print pattern wall
G1 E-0.5 F3300 ; Retract
G1 Z0.35 F18000 ; Z hop
G0 X191.3968 Y184.8992 F18000 ; Move to start next pattern wall
G1 Z0.25 F18000 ; Z hop return
G1 E0.5 F1500 ; Un-retract
G1 X210.7176 Y204.22 E1.0806 F1800 ; Print pattern wall
G1 X191.3968 Y223.5408 E1.0806 F1800 ; Print pattern wall
G1 E-0.5 F3300 ; Retract
G1 Z0.35 F18000 ; Z hop
G0 X193.8468 Y184.8992 F18000 ; Move to next pattern
G1 Z0.25 F18000 ; Z hop return
G1 E0.5 F1500 ; Un-retract
SET_PRESSURE_ADVANCE ADVANCE=0.03 ; Set pressure advance
M117 PA 0.03
G1 X213.1676 Y204.22 E1.0806 F1800 ; Print pattern wall
G1 X193.8468 Y223.5408 E1.0806 F1800 ; Print pattern wall
G1 E-0.5 F3300 ; Retract
G1 Z0.35 F18000 ; Z hop
G0 X194.4225 Y184.8992 F18000 ; Move to start next pattern wall
G1 Z0.25 F18000 ; Z hop return
G1 E0.5 F1500 ; Un-retract
G1 X213.7433 Y204.22 E1.0806 F1800 ; Print pattern wall
G1 X194.4225 Y223.5408 E1.0806 F1800 ; Print pattern wall
G1 E-0.5 F3300 ; Retract
G1 Z0.35 F18000 ; Z hop
G0 X194.9981 Y184.8992 F18000 ; Move to start next pattern wall
G1 Z0.25 F18000 ; Z hop return
G1 E0.5 F1500 ; Un-retract
G1 X214.319 Y204.22 E1.0806 F1800 ; Print pattern wall
G1 X194.9981 Y223.5408 E1.0806 F1800 ; Print pattern wall
G1 E-0.5 F3300 ; Retract
G1 Z0.35 F18000 ; Z hop
G0 X197.4481 Y184.8992 F18000 ; Move to next pattern
G1 Z0.25 F18000 ; Z hop return
G1 E0.5 F1500 ; Un-retract
SET_PRESSURE_ADVANCE ADVANCE=0.035 ; Set pressure advance
M117 PA 0.035
G1 X216.769 Y204.22 E1.0806 F1800 ; Print pattern wall
G1 X197.4481 Y223.5408 E1.0806 F1800 ; Print pattern wall
G1 E-0.5 F3300 ; Retract
G1 Z0.35 F18000 ; Z hop
G0 X198.0238 Y184.8992 F18000 ; Move to start next pattern wall
G1 Z0.25 F18000 ; Z hop return
G1 E0.5 F1500 ; Un-retract
G1 X217.3447 Y204.22 E1.0806 F1800 ; Print pattern wall
G1 X198.0238 Y223.5408 E1.0806 F1800 ; Print pattern wall
G1 E-0.5 F3300 ; Retract
G1 Z0.35 F18000 ; Z hop
G0 X198.5995 Y184.8992 F18000 ; Move to start next pattern wall
G1 Z0.25 F18000 ; Z hop return
G1 E0.5 F1500 ; Un-retract
G1 X217.9204 Y204.22 E1.0806 F1800 ; Print pattern wall
G1 X198.5995 Y223.5408 E1.0806 F1800 ; Print pattern wall
G1 E-0.5 F3300 ; Retract
G1 Z0.35 F18000 ; Z hop
G0 X201.0495 Y184.8992 F18000 ; Move to next pattern
G1 Z0.25 F18000 ; Z hop return
G1 E0.5 F1500 ; Un-retract
SET_PRESSURE_ADVANCE ADVANCE=0.04 ; Set pressure advance
M117 PA 0.04
G1 X220.3704 Y204.22 E1.0806 F1800 ; Print pattern wall
G1 X201.0495 Y223.5408 E1.0806 F1800 ; Print pattern wall
G1 E-0.5 F3300 ; Retract
G1 Z0.35 F18000 ; Z hop
G0 X201.6252 Y184.8992 F18000 ; Move to start next pattern wall
G1 Z0.25 F18000 ; Z hop return
G1 E0.5 F1500 ; Un-retract
G1 X220.9461 Y204.22 E1.0806 F1800 ; Print pattern wall
G1 X201.6252 Y223.5408 E1.0806 F1800 ; Print pattern wall
G1 E-0.5 F3300 ; Retract
G1 Z0.35 F18000 ; Z hop
G0 X202.2009 Y184.8992 F18000 ; Move to start next pattern wall
G1 Z0.25 F18000 ; Z hop return
G1 E0.5 F1500 ; Un-retract
G1 X221.5218 Y204.22 E1.0806 F1800 ; Print pattern wall
G1 X202.2009 Y223.5408 E1.0806 F1800 ; Print pattern wall
G1 E-0.5 F3300 ; Retract
G1 Z0.35 F18000 ; Z hop
G0 X204.6509 Y184.8992 F18000 ; Move to next pattern
G1 Z0.25 F18000 ; Z hop return
G1 E0.5 F1500 ; Un-retract
SET_PRESSURE_ADVANCE ADVANCE=0.045 ; Set pressure advance
M117 PA 0.045
G1 X223.9718 Y204.22 E1.0806 F1800 ; Print pattern wall
G1 X204.6509 Y223.5408 E1.0806 F1800 ; Print pattern wall
G1 E-0.5 F3300 ; Retract
G1 Z0.35 F18000 ; Z hop
G0 X205.2266 Y184.8992 F18000 ; Move to start next pattern wall
G1 Z0.25 F18000 ; Z hop return
G1 E0.5 F1500 ; Un-retract
G1 X224.5475 Y204.22 E1.0806 F1800 ; Print pattern wall
G1 X205.2266 Y223.5408 E1.0806 F1800 ; Print pattern wall
G1 E-0.5 F3300 ; Retract
G1 Z0.35 F18000 ; Z hop
G0 X205.8023 Y184.8992 F18000 ; Move to start next pattern wall
G1 Z0.25 F18000 ; Z hop return
G1 E0.5 F1500 ; Un-retract
G1 X225.1232 Y204.22 E1.0806 F1800 ; Print pattern wall
G1 X205.8023 Y223.5408 E1.0806 F1800 ; Print pattern wall
G1 E-0.5 F3300 ; Retract
G1 Z0.35 F18000 ; Z hop
G0 X208.2523 Y184.8992 F18000 ; Move to next pattern
G1 Z0.25 F18000 ; Z hop return
G1 E0.5 F1500 ; Un-retract
SET_PRESSURE_ADVANCE ADVANCE=0.05 ; Set pressure advance
M117 PA 0.05
G1 X227.5732 Y204.22 E1.0806 F1800 ; Print pattern wall
G1 X208.2523 Y223.5408 E1.0806 F1800 ; Print pattern wall
G1 E-0.5 F3300 ; Retract
G1 Z0.35 F18000 ; Z hop
G0 X208.828 Y184.8992 F18000 ; Move to start next pattern wall
G1 Z0.25 F18000 ; Z hop return
G1 E0.5 F1500 ; Un-retract
G1 X228.1489 Y204.22 E1.0806 F1800 ; Print pattern wall
G1 X208.828 Y223.5408 E1.0806 F1800 ; Print pattern wall
G1 E-0.5 F3300 ; Retract
G1 Z0.35 F18000 ; Z hop
G0 X209.4037 Y184.8992 F18000 ; Move to start next pattern wall
G1 Z0.25 F18000 ; Z hop return
G1 E0.5 F1500 ; Un-retract
G1 X228.7246 Y204.22 E1.0806 F1800 ; Print pattern wall
G1 X209.4037 Y223.5408 E1.0806 F1800 ; Print pattern wall
G1 E-0.5 F3300 ; Retract
G1 Z0.35 F18000 ; Z hop
G0 X211.8537 Y184.8992 F18000 ; Move to next pattern
G1 Z0.25 F18000 ; Z hop return
G1 E0.5 F1500 ; Un-retract
SET_PRESSURE_ADVANCE ADVANCE=0.055 ; Set pressure advance
M117 PA 0.055
G1 X231.1746 Y204.22 E1.0806 F1800 ; Print pattern wall
G1 X211.8537 Y223.5408 E1.0806 F1800 ; Print pattern wall
G1 E-0.5 F3300 ; Retract
G1 Z0.35 F18000 ; Z hop
G0 X212.4294 Y184.8992 F18000 ; Move to start next pattern wall
G1 Z0.25 F18000 ; Z hop return
G1 E0.5 F1500 ; Un-retract
G1 X231.7502 Y204.22 E1.0806 F1800 ; Print pattern wall
G1 X212.4294 Y223.5408 E1.0806 F1800 ; Print pattern wall
G1 E-0.5 F3300 ; Retract
G1 Z0.35 F18000 ; Z hop
G0 X213.0051 Y184.8992 F18000 ; Move to start next pattern wall
G1 Z0.25 F18000 ; Z hop return
G1 E0.5 F1500 ; Un-retract
G1 X232.3259 Y204.22 E1.0806 F1800 ; Print pattern wall
G1 X213.0051 Y223.5408 E1.0806 F1800 ; Print pattern wall
G1 E-0.5 F3300 ; Retract
G1 Z0.35 F18000 ; Z hop
G0 X215.4551 Y184.8992 F18000 ; Move to next pattern
G1 Z0.25 F18000 ; Z hop return
G1 E0.5 F1500 ; Un-retract
SET_PRESSURE_ADVANCE ADVANCE=0.06 ; Set pressure advance
M117 PA 0.06
G1 X234.7759 Y204.22 E1.0806 F1800 ; Print pattern wall
G1 X215.4551 Y223.5408 E1.0806 F1800 ; Print pattern wall
G1 E-0.5 F3300 ; Retract
G1 Z0.35 F18000 ; Z hop
G0 X216.0308 Y184.8992 F18000 ; Move to start next pattern wall
G1 Z0.25 F18000 ; Z hop return
G1 E0.5 F1500 ; Un-retract
G1 X235.3516 Y204.22 E1.0806 F1800 ; Print pattern wall
G1 X216.0308 Y223.5408 E1.0806 F1800 ; Print pattern wall
G1 E-0.5 F3300 ; Retract
G1 Z0.35 F18000 ; Z hop
G0 X216.6065 Y184.8992 F18000 ; Move to start next pattern wall
G1 Z0.25 F18000 ; Z hop return
G1 E0.5 F1500 ; Un-retract
G1 X235.9273 Y204.22 E1.0806 F1800 ; Print pattern wall
G1 X216.6065 Y223.5408 E1.0806 F1800 ; Print pattern wall
G1 E-0.5 F3300 ; Retract
G1 Z0.35 F18000 ; Z hop
G0 X219.0565 Y184.8992 F18000 ; Move to next pattern
G1 Z0.25 F18000 ; Z hop return
G1 E0.5 F1500 ; Un-retract
SET_PRESSURE_ADVANCE ADVANCE=0.065 ; Set pressure advance
M117 PA 0.065
G1 X238.3773 Y204.22 E1.0806 F1800 ; Print pattern wall
G1 X219.0565 Y223.5408 E1.0806 F1800 ; Print pattern wall
G1 E-0.5 F3300 ; Retract
G1 Z0.35 F18000 ; Z hop
G0 X219.6322 Y184.8992 F18000 ; Move to start next pattern wall
G1 Z0.25 F18000 ; Z hop return
G1 E0.5 F1500 ; Un-retract
G1 X238.953 Y204.22 E1.0806 F1800 ; Print pattern wall
G1 X219.6322 Y223.5408 E1.0806 F1800 ; Print pattern wall
G1 E-0.5 F3300 ; Retract
G1 Z0.35 F18000 ; Z hop
G0 X220.2079 Y184.8992 F18000 ; Move to start next pattern wall
G1 Z0.25 F18000 ; Z hop return
G1 E0.5 F1500 ; Un-retract
G1 X239.5287 Y204.22 E1.0806 F1800 ; Print pattern wall
G1 X220.2079 Y223.5408 E1.0806 F1800 ; Print pattern wall
G1 E-0.5 F3300 ; Retract
G1 Z0.35 F18000 ; Z hop
G0 X222.6579 Y184.8992 F18000 ; Move to next pattern
G1 Z0.25 F18000 ; Z hop return
G1 E0.5 F1500 ; Un-retract
SET_PRESSURE_ADVANCE ADVANCE=0.07 ; Set pressure advance
M117 PA 0.07
G1 X241.9787 Y204.22 E1.0806 F1800 ; Print pattern wall
G1 X222.6579 Y223.5408 E1.0806 F1800 ; Print pattern wall
G1 E-0.5 F3300 ; Retract
G1 Z0.35 F18000 ; Z hop
G0 X223.2336 Y184.8992 F18000 ; Move to start next pattern wall
G1 Z0.25 F18000 ; Z hop return
G1 E0.5 F1500 ; Un-retract
G1 X242.5544 Y204.22 E1.0806 F1800 ; Print pattern wall
G1 X223.2336 Y223.5408 E1.0806 F1800 ; Print pattern wall
G1 E-0.5 F3300 ; Retract
G1 Z0.35 F18000 ; Z hop
G0 X223.8093 Y184.8992 F18000 ; Move to start next pattern wall
G1 Z0.25 F18000 ; Z hop return
G1 E0.5 F1500 ; Un-retract
G1 X243.1301 Y204.22 E1.0806 F1800 ; Print pattern wall
G1 X223.8093 Y223.5408 E1.0806 F1800 ; Print pattern wall
G1 E-0.5 F3300 ; Retract
G1 Z0.35 F18000 ; Z hop
G0 X226.2593 Y184.8992 F18000 ; Move to next pattern
G1 Z0.25 F18000 ; Z hop return
G1 E0.5 F1500 ; Un-retract
SET_PRESSURE_ADVANCE ADVANCE=0.075 ; Set pressure advance
M117 PA 0.075
G1 X245.5801 Y204.22 E1.0806 F1800 ; Print pattern wall
G1 X226.2593 Y223.5408 E1.0806 F1800 ; Print pattern wall
G1 E-0.5 F3300 ; Retract
G1 Z0.35 F18000 ; Z hop
G0 X226.835 Y184.8992 F18000 ; Move to start next pattern wall
G1 Z0.25 F18000 ; Z hop return
G1 E0.5 F1500 ; Un-retract
G1 X246.1558 Y204.22 E1.0806 F1800 ; Print pattern wall
G1 X226.835 Y223.5408 E1.0806 F1800 ; Print pattern wall
G1 E-0.5 F3300 ; Retract
G1 Z0.35 F18000 ; Z hop
G0 X227.4107 Y184.8992 F18000 ; Move to start next pattern wall
G1 Z0.25 F18000 ; Z hop return
G1 E0.5 F1500 ; Un-retract
G1 X246.7315 Y204.22 E1.0806 F1800 ; Print pattern wall
G1 X227.4107 Y223.5408 E1.0806 F1800 ; Print pattern wall
G1 E-0.5 F3300 ; Retract
G1 Z0.35 F18000 ; Z hop
G0 X229.8607 Y184.8992 F18000 ; Move to next pattern
G1 Z0.25 F18000 ; Z hop return
G1 E0.5 F1500 ; Un-retract
SET_PRESSURE_ADVANCE ADVANCE=0.08 ; Set pressure advance
M117 PA 0.08
G1 X249.1815 Y204.22 E1.0806 F1800 ; Print pattern wall
G1 X229.8607 Y223.5408 E1.0806 F1800 ; Print pattern wall
G1 E-0.5 F3300 ; Retract
G1 Z0.35 F18000 ; Z hop
G0 X230.4364 Y184.8992 F18000 ; Move to start next pattern wall
G1 Z0.25 F18000 ; Z hop return
G1 E0.5 F1500 ; Un-retract
G1 X249.7572 Y204.22 E1.0806 F1800 ; Print pattern wall
G1 X230.4364 Y223.5408 E1.0806 F1800 ; Print pattern wall
G1 E-0.5 F3300 ; Retract
G1 Z0.35 F18000 ; Z hop
G0 X231.0121 Y184.8992 F18000 ; Move to start next pattern wall
G1 Z0.25 F18000 ; Z hop return
G1 E0.5 F1500 ; Un-retract
G1 X250.3329 Y204.22 E1.0806 F1800 ; Print pattern wall
G1 X231.0121 Y223.5408 E1.0806 F1800 ; Print pattern wall
G1 E-0.5 F3300 ; Retract
G1 Z0.35 F18000 ; Z hop
G0 X172.2384 Y184.8992 F18000 ; Move back to start position
G1 Z0.25 F18000 ; Z hop return
G1 E0.5 F1500 ; Un-retract
M106 S255 ; Set fan speed
G0 Z0.45 F18000 ; Move to layer height
SET_PRESSURE_ADVANCE ADVANCE=0 ; Set pressure advance to start value for numbering
M117 PA 0
G1 E-0.5 F3300 ; Retract
G1 Z0.55 F18000 ; Z hop
G0 X168.9217 Y226.8832 F18000 ; Move
G1 Z0.45 F18000 ; Z hop return
G1 E0.5 F1500 ; Un-retract
G1 X170.9217 Y226.8832 E0.06499 F1800 ; Glyph: 0
G1 X172.9217 Y226.8832 E0.06499 F1800 ; Glyph: 0
G1 X172.9217 Y228.8832 E0.06499 F1800 ; Glyph: 0
G1 X170.9217 Y228.8832 E0.06499 F1800 ; Glyph: 0
G1 X168.9217 Y228.8832 E0.06499 F1800 ; Glyph: 0
G1 X168.9217 Y226.8832 E0.06499 F1800 ; Glyph: 0
G1 E-0.5 F3300 ; Retract
G1 Z0.55 F18000 ; Z hop
G0 X176.1245 Y226.8832 F18000 ; Move
G1 Z0.45 F18000 ; Z hop return
G1 E0.5 F1500 ; Un-retract
G1 X178.1245 Y226.8832 E0.06499 F1800 ; Glyph: 0
G1 X180.1245 Y226.8832 E0.06499 F1800 ; Glyph: 0
G1 X180.1245 Y228.8832 E0.06499 F1800 ; Glyph: 0
G1 X178.1245 Y228.8832 E0.06499 F1800 ; Glyph: 0
G1 X176.1245 Y228.8832 E0.06499 F1800 ; Glyph: 0
G1 X176.1245 Y226.8832 E0.06499 F1800 ; Glyph: 0
G1 E-0.5 F3300 ; Retract
G1 Z0.55 F18000 ; Z hop
G0 X180.1245 Y229.8832 F18000 ; Move
G1 Z0.45 F18000 ; Z hop return
G1 E0.5 F1500 ; Un-retract
G1 X179.3745 Y229.8832 E0.02437 F1800 ; Glyph: .
G1 E-0.5 F3300 ; Retract
G1 Z0.55 F18000 ; Z hop
G0 X176.1245 Y230.8832 F18000 ; Move
G1 Z0.45 F18000 ; Z hop return
G1 E0.5 F1500 ; Un-retract
G1 X178.1245 Y230.8832 E0.06499 F1800 ; Glyph: 0
G1 X180.1245 Y230.8832 E0.06499 F1800 ; Glyph: 0
G1 X180.1245 Y232.8832 E0.06499 F1800 ; Glyph: 0
G1 X178.1245 Y232.8832 E0.06499 F1800 ; Glyph: 0
G1 X176.1245 Y232.8832 E0.06499 F1800 ; Glyph: 0
G1 X176.1245 Y230.8832 E0.06499 F1800 ; Glyph: 0
G1 E-0.5 F3300 ; Retract
G1 Z0.55 F18000 ; Z hop
G0 X176.1245 Y233.8832 F18000 ; Move
G1 Z0.45 F18000 ; Z hop return
G1 E0.5 F1500 ; Un-retract
G1 X178.1245 Y233.8832 E0.06499 F1800 ; Glyph: 1
G1 X180.1245 Y233.8832 E0.06499 F1800 ; Glyph: 1
G1 E-0.5 F3300 ; Retract
G1 Z0.55 F18000 ; Z hop
G0 X183.3273 Y226.8832 F18000 ; Move
G1 Z0.45 F18000 ; Z hop return
G1 E0.5 F1500 ; Un-retract
G1 X185.3273 Y226.8832 E0.06499 F1800 ; Glyph: 0
G1 X187.3273 Y226.8832 E0.06499 F1800 ; Glyph: 0
G1 X187.3273 Y228.8832 E0.06499 F1800 ; Glyph: 0
G1 X185.3273 Y228.8832 E0.06499 F1800 ; Glyph: 0
G1 X183.3273 Y228.8832 E0.06499 F1800 ; Glyph: 0
G1 X183.3273 Y226.8832 E0.06499 F1800 ; Glyph: 0
G1 E-0.5 F3300 ; Retract
G1 Z0.55 F18000 ; Z hop
G0 X187.3273 Y229.8832 F18000 ; Move
G1 Z0.45 F18000 ; Z hop return
G1 E0.5 F1500 ; Un-retract
G1 X186.5773 Y229.8832 E0.02437 F1800 ; Glyph: .
G1 E-0.5 F3300 ; Retract
G1 Z0.55 F18000 ; Z hop
G0 X183.3273 Y230.8832 F18000 ; Move
G1 Z0.45 F18000 ; Z hop return
G1 E0.5 F1500 ; Un-retract
G1 X185.3273 Y230.8832 E0.06499 F1800 ; Glyph: 0
G1 X187.3273 Y230.8832 E0.06499 F1800 ; Glyph: 0
G1 X187.3273 Y232.8832 E0.06499 F1800 ; Glyph: 0
G1 X185.3273 Y232.8832 E0.06499 F1800 ; Glyph: 0
G1 X183.3273 Y232.8832 E0.06499 F1800 ; Glyph: 0
G1 X183.3273 Y230.8832 E0.06499 F1800 ; Glyph: 0
G1 E-0.5 F3300 ; Retract
G1 Z0.55 F18000 ; Z hop
G0 X183.3273 Y233.8832 F18000 ; Move
G1 Z0.45 F18000 ; Z hop return
G1 E0.5 F1500 ; Un-retract
G1 X183.3273 Y235.8832 E0.06499 F1800 ; Glyph: 2
G1 X185.3273 Y235.8832 E0.06499 F1800 ; Glyph: 2
G1 X185.3273 Y233.8832 E0.06499 F1800 ; Glyph: 2
G1 X187.3273 Y233.8832 E0.06499 F1800 ; Glyph: 2
G1 X187.3273 Y235.8832 E0.06499 F1800 ; Glyph: 2
G1 E-0.5 F3300 ; Retract
G1 Z0.55 F18000 ; Z hop
G0 X190.5301 Y226.8832 F18000 ; Move
G1 Z0.45 F18000 ; Z hop return
G1 E0.5 F1500 ; Un-retract
G1 X192.5301 Y226.8832 E0.06499 F1800 ; Glyph: 0
G1 X194.5301 Y226.8832 E0.06499 F1800 ; Glyph: 0
G1 X194.5301 Y228.8832 E0.06499 F1800 ; Glyph: 0
G1 X192.5301 Y228.8832 E0.06499 F1800 ; Glyph: 0
G1 X190.5301 Y228.8832 E0.06499 F1800 ; Glyph: 0
G1 X190.5301 Y226.8832 E0.06499 F1800 ; Glyph: 0
G1 E-0.5 F3300 ; Retract
G1 Z0.55 F18000 ; Z hop
G0 X194.5301 Y229.8832 F18000 ; Move
G1 Z0.45 F18000 ; Z hop return
G1 E0.5 F1500 ; Un-retract
G1 X193.7801 Y229.8832 E0.02437 F1800 ; Glyph: .
G1 E-0.5 F3300 ; Retract
G1 Z0.55 F18000 ; Z hop
G0 X190.5301 Y230.8832 F18000 ; Move
G1 Z0.45 F18000 ; Z hop return
G1 E0.5 F1500 ; Un-retract
G1 X192.5301 Y230.8832 E0.06499 F1800 ; Glyph: 0
G1 X194.5301 Y230.8832 E0.06499 F1800 ; Glyph: 0
G1 X194.5301 Y232.8832 E0.06499 F1800 ; Glyph: 0
G1 X192.5301 Y232.8832 E0.06499 F1800 ; Glyph: 0
G1 X190.5301 Y232.8832 E0.06499 F1800 ; Glyph: 0
G1 X190.5301 Y230.8832 E0.06499 F1800 ; Glyph: 0
G1 E-0.5 F3300 ; Retract
G1 Z0.55 F18000 ; Z hop
G0 X190.5301 Y233.8832 F18000 ; Move
G1 Z0.45 F18000 ; Z hop return
G1 E0.5 F1500 ; Un-retract
G1 X190.5301 Y235.8832 E0.06499 F1800 ; Glyph: 3
G1 X192.5301 Y235.8832 E0.06499 F1800 ; Glyph: 3
G1 X192.5301 Y233.8832 E0.06499 F1800 ; Glyph: 3
G0 X192.5301 Y235.8832 F18000 ; Move
G1 X194.5301 Y235.8832 E0.06499 F1800 ; Glyph: 3
G1 X194.5301 Y233.8832 E0.06499 F1800 ; Glyph: 3
G1 E-0.5 F3300 ; Retract
G1 Z0.55 F18000 ; Z hop
G0 X197.7329 Y226.8832 F18000 ; Move
G1 Z0.45 F18000 ; Z hop return
G1 E0.5 F1500 ; Un-retract
G1 X199.7329 Y226.8832 E0.06499 F1800 ; Glyph: 0
G1 X201.7329 Y226.8832 E0.06499 F1800 ; Glyph: 0
G1 X201.7329 Y228.8832 E0.06499 F1800 ; Glyph: 0
G1 X199.7329 Y228.8832 E0.06499 F1800 ; Glyph: 0
G1 X197.7329 Y228.8832 E0.06499 F1800 ; Glyph: 0
G1 X197.7329 Y226.8832 E0.06499 F1800 ; Glyph: 0
G1 E-0.5 F3300 ; Retract
G1 Z0.55 F18000 ; Z hop
G0 X201.7329 Y229.8832 F18000 ; Move
G1 Z0.45 F18000 ; Z hop return
G1 E0.5 F1500 ; Un-retract
G1 X200.9829 Y229.8832 E0.02437 F1800 ; Glyph: .
G1 E-0.5 F3300 ; Retract
G1 Z0.55 F18000 ; Z hop
G0 X197.7329 Y230.8832 F18000 ; Move
G1 Z0.45 F18000 ; Z hop return
G1 E0.5 F1500 ; Un-retract
G1 X199.7329 Y230.8832 E0.06499 F1800 ; Glyph: 0
G1 X201.7329 Y230.8832 E0.06499 F1800 ; Glyph: 0
G1 X201.7329 Y232.8832 E0.06499 F1800 ; Glyph: 0
G1 X199.7329 Y232.8832 E0.06499 F1800 ; Glyph: 0
G1 X197.7329 Y232.8832 E0.06499 F1800 ; Glyph: 0
G1 X197.7329 Y230.8832 E0.06499 F1800 ; Glyph: 0
G1 E-0.5 F3300 ; Retract
G1 Z0.55 F18000 ; Z hop
G0 X197.7329 Y235.8832 F18000 ; Move
G1 Z0.45 F18000 ; Z hop return
G1 E0.5 F1500 ; Un-retract
G1 X199.7329 Y235.8832 E0.06499 F1800 ; Glyph: 4
G1 X201.7329 Y235.8832 E0.06499 F1800 ; Glyph: 4
G0 X199.7329 Y235.8832 F18000 ; Move
G1 X199.7329 Y233.8832 E0.06499 F1800 ; Glyph: 4
G1 X197.7329 Y233.8832 E0.06499 F1800 ; Glyph: 4
G1 E-0.5 F3300 ; Retract
G1 Z0.55 F18000 ; Z hop
G0 X204.9357 Y226.8832 F18000 ; Move
G1 Z0.45 F18000 ; Z hop return
G1 E0.5 F1500 ; Un-retract
G1 X206.9357 Y226.8832 E0.06499 F1800 ; Glyph: 0
G1 X208.9357 Y226.8832 E0.06499 F1800 ; Glyph: 0
G1 X208.9357 Y228.8832 E0.06499 F1800 ; Glyph: 0
G1 X206.9357 Y228.8832 E0.06499 F1800 ; Glyph: 0
G1 X204.9357 Y228.8832 E0.06499 F1800 ; Glyph: 0
G1 X204.9357 Y226.8832 E0.06499 F1800 ; Glyph: 0
G1 E-0.5 F3300 ; Retract
G1 Z0.55 F18000 ; Z hop
G0 X208.9357 Y229.8832 F18000 ; Move
G1 Z0.45 F18000 ; Z hop return
G1 E0.5 F1500 ; Un-retract
G1 X208.1857 Y229.8832 E0.02437 F1800 ; Glyph: .
G1 E-0.5 F3300 ; Retract
G1 Z0.55 F18000 ; Z hop
G0 X204.9357 Y230.8832 F18000 ; Move
G1 Z0.45 F18000 ; Z hop return
G1 E0.5 F1500 ; Un-retract
G1 X206.9357 Y230.8832 E0.06499 F1800 ; Glyph: 0
G1 X208.9357 Y230.8832 E0.06499 F1800 ; Glyph: 0
G1 X208.9357 Y232.8832 E0.06499 F1800 ; Glyph: 0
G1 X206.9357 Y232.8832 E0.06499 F1800 ; Glyph: 0
G1 X204.9357 Y232.8832 E0.06499 F1800 ; Glyph: 0
G1 X204.9357 Y230.8832 E0.06499 F1800 ; Glyph: 0
G1 E-0.5 F3300 ; Retract
G1 Z0.55 F18000 ; Z hop
G0 X204.9357 Y235.8832 F18000 ; Move
G1 Z0.45 F18000 ; Z hop return
G1 E0.5 F1500 ; Un-retract
G1 X204.9357 Y233.8832 E0.06499 F1800 ; Glyph: 5
G1 X206.9357 Y233.8832 E0.06499 F1800 ; Glyph: 5
G1 X206.9357 Y235.8832 E0.06499 F1800 ; Glyph: 5
G1 X208.9357 Y235.8832 E0.06499 F1800 ; Glyph: 5
G1 X208.9357 Y233.8832 E0.06499 F1800 ; Glyph: 5
G1 E-0.5 F3300 ; Retract
G1 Z0.55 F18000 ; Z hop
G0 X212.1384 Y226.8832 F18000 ; Move
G1 Z0.45 F18000 ; Z hop return
G1 E0.5 F1500 ; Un-retract
G1 X214.1384 Y226.8832 E0.06499 F1800 ; Glyph: 0
G1 X216.1384 Y226.8832 E0.06499 F1800 ; Glyph: 0
G1 X216.1384 Y228.8832 E0.06499 F1800 ; Glyph: 0
G1 X214.1384 Y228.8832 E0.06499 F1800 ; Glyph: 0
G1 X212.1384 Y228.8832 E0.06499 F1800 ; Glyph: 0
G1 X212.1384 Y226.8832 E0.06499 F1800 ; Glyph: 0
G1 E-0.5 F3300 ; Retract
G1 Z0.55 F18000 ; Z hop
G0 X216.1384 Y229.8832 F18000 ; Move
G1 Z0.45 F18000 ; Z hop return
G1 E0.5 F1500 ; Un-retract
G1 X215.3884 Y229.8832 E0.02437 F1800 ; Glyph: .
G1 E-0.5 F3300 ; Retract
G1 Z0.55 F18000 ; Z hop
G0 X212.1384 Y230.8832 F18000 ; Move
G1 Z0.45 F18000 ; Z hop return
G1 E0.5 F1500 ; Un-retract
G1 X214.1384 Y230.8832 E0.06499 F1800 ; Glyph: 0
G1 X216.1384 Y230.8832 E0.06499 F1800 ; Glyph: 0
G1 X216.1384 Y232.8832 E0.06499 F1800 ; Glyph: 0
G1 X214.1384 Y232.8832 E0.06499 F1800 ; Glyph: 0
G1 X212.1384 Y232.8832 E0.06499 F1800 ; Glyph: 0
G1 X212.1384 Y230.8832 E0.06499 F1800 ; Glyph: 0
G1 E-0.5 F3300 ; Retract
G1 Z0.55 F18000 ; Z hop
G0 X212.1384 Y235.8832 F18000 ; Move
G1 Z0.45 F18000 ; Z hop return
G1 E0.5 F1500 ; Un-retract
G1 X212.1384 Y233.8832 E0.06499 F1800 ; Glyph: 6
G1 X214.1384 Y233.8832 E0.06499 F1800 ; Glyph: 6
G1 X216.1384 Y233.8832 E0.06499 F1800 ; Glyph: 6
G1 X216.1384 Y235.8832 E0.06499 F1800 ; Glyph: 6
G1 X214.1384 Y235.8832 E0.06499 F1800 ; Glyph: 6
G1 X214.1384 Y233.8832 E0.06499 F1800 ; Glyph: 6
G1 E-0.5 F3300 ; Retract
G1 Z0.55 F18000 ; Z hop
G0 X219.3412 Y226.8832 F18000 ; Move
G1 Z0.45 F18000 ; Z hop return
G1 E0.5 F1500 ; Un-retract
G1 X221.3412 Y226.8832 E0.06499 F1800 ; Glyph: 0
G1 X223.3412 Y226.8832 E0.06499 F1800 ; Glyph: 0
G1 X223.3412 Y228.8832 E0.06499 F1800 ; Glyph: 0
G1 X221.3412 Y228.8832 E0.06499 F1800 ; Glyph: 0
G1 X219.3412 Y228.8832 E0.06499 F1800 ; Glyph: 0
G1 X219.3412 Y226.8832 E0.06499 F1800 ; Glyph: 0
G1 E-0.5 F3300 ; Retract
G1 Z0.55 F18000 ; Z hop
G0 X223.3412 Y229.8832 F18000 ; Move
G1 Z0.45 F18000 ; Z hop return
G1 E0.5 F1500 ; Un-retract
G1 X222.5912 Y229.8832 E0.02437 F1800 ; Glyph: .
G1 E-0.5 F3300 ; Retract
G1 Z0.55 F18000 ; Z hop
G0 X219.3412 Y230.8832 F18000 ; Move
G1 Z0.45 F18000 ; Z hop return
G1 E0.5 F1500 ; Un-retract
G1 X221.3412 Y230.8832 E0.06499 F1800 ; Glyph: 0
G1 X223.3412 Y230.8832 E0.06499 F1800 ; Glyph: 0
G1 X223.3412 Y232.8832 E0.06499 F1800 ; Glyph: 0
G1 X221.3412 Y232.8832 E0.06499 F1800 ; Glyph: 0
G1 X219.3412 Y232.8832 E0.06499 F1800 ; Glyph: 0
G1 X219.3412 Y230.8832 E0.06499 F1800 ; Glyph: 0
G1 E-0.5 F3300 ; Retract
G1 Z0.55 F18000 ; Z hop
G0 X219.3412 Y233.8832 F18000 ; Move
G1 Z0.45 F18000 ; Z hop return
G1 E0.5 F1500 ; Un-retract
G1 X219.3412 Y235.8832 E0.06499 F1800 ; Glyph: 7
G1 X221.3412 Y235.8832 E0.06499 F1800 ; Glyph: 7
G1 X223.3412 Y235.8832 E0.06499 F1800 ; Glyph: 7
G1 E-0.5 F3300 ; Retract
G1 Z0.55 F18000 ; Z hop
G0 X226.544 Y226.8832 F18000 ; Move
G1 Z0.45 F18000 ; Z hop return
G1 E0.5 F1500 ; Un-retract
G1 X228.544 Y226.8832 E0.06499 F1800 ; Glyph: 0
G1 X230.544 Y226.8832 E0.06499 F1800 ; Glyph: 0
G1 X230.544 Y228.8832 E0.06499 F1800 ; Glyph: 0
G1 X228.544 Y228.8832 E0.06499 F1800 ; Glyph: 0
G1 X226.544 Y228.8832 E0.06499 F1800 ; Glyph: 0
G1 X226.544 Y226.8832 E0.06499 F1800 ; Glyph: 0
G1 E-0.5 F3300 ; Retract
G1 Z0.55 F18000 ; Z hop
G0 X230.544 Y229.8832 F18000 ; Move
G1 Z0.45 F18000 ; Z hop return
G1 E0.5 F1500 ; Un-retract
G1 X229.794 Y229.8832 E0.02437 F1800 ; Glyph: .
G1 E-0.5 F3300 ; Retract
G1 Z0.55 F18000 ; Z hop
G0 X226.544 Y230.8832 F18000 ; Move
G1 Z0.45 F18000 ; Z hop return
G1 E0.5 F1500 ; Un-retract
G1 X228.544 Y230.8832 E0.06499 F1800 ; Glyph: 0
G1 X230.544 Y230.8832 E0.06499 F1800 ; Glyph: 0
G1 X230.544 Y232.8832 E0.06499 F1800 ; Glyph: 0
G1 X228.544 Y232.8832 E0.06499 F1800 ; Glyph: 0
G1 X226.544 Y232.8832 E0.06499 F1800 ; Glyph: 0
G1 X226.544 Y230.8832 E0.06499 F1800 ; Glyph: 0
G1 E-0.5 F3300 ; Retract
G1 Z0.55 F18000 ; Z hop
G0 X226.544 Y233.8832 F18000 ; Move
G1 Z0.45 F18000 ; Z hop return
G1 E0.5 F1500 ; Un-retract
G1 X228.544 Y233.8832 E0.06499 F1800 ; Glyph: 8
G1 X230.544 Y233.8832 E0.06499 F1800 ; Glyph: 8
G1 X230.544 Y235.8832 E0.06499 F1800 ; Glyph: 8
G1 X228.544 Y235.8832 E0.06499 F1800 ; Glyph: 8
G1 X226.544 Y235.8832 E0.06499 F1800 ; Glyph: 8
G1 X226.544 Y233.8832 E0.06499 F1800 ; Glyph: 8
G0 X228.544 Y233.8832 F18000 ; Move
G1 X228.544 Y235.8832 E0.06499 F1800 ; Glyph: 8
G1 E-0.5 F3300 ; Retract
G1 Z0.55 F18000 ; Z hop
G0 X170.346 Y183.0068 F18000 ; Move to pattern start

G1 Z0.45 F18000 ; Z hop return
G1 E0.5 F1500 ; Un-retract
SET_PRESSURE_ADVANCE ADVANCE=0 ; Set pressure advance
M117 PA 0
G1 X191.5592 Y204.22 E0.97485 F9000 ; Print pattern wall
G1 X170.346 Y225.4332 E0.97485 F9000 ; Print pattern wall
G1 E-0.5 F3300 ; Retract
G1 Z0.55 F18000 ; Z hop
G0 X170.9217 Y183.0068 F18000 ; Move to start next pattern wall
G1 Z0.45 F18000 ; Z hop return
G1 E0.5 F1500 ; Un-retract
G1 X192.1349 Y204.22 E0.97485 F9000 ; Print pattern wall
G1 X170.9217 Y225.4332 E0.97485 F9000 ; Print pattern wall
G1 E-0.5 F3300 ; Retract
G1 Z0.55 F18000 ; Z hop
G0 X171.4974 Y183.0068 F18000 ; Move to start next pattern wall
G1 Z0.45 F18000 ; Z hop return
G1 E0.5 F1500 ; Un-retract
G1 X192.7106 Y204.22 E0.97485 F9000 ; Print pattern wall
G1 X171.4974 Y225.4332 E0.97485 F9000 ; Print pattern wall
G1 E-0.5 F3300 ; Retract
G1 Z0.55 F18000 ; Z hop
G0 X173.9474 Y183.0068 F18000 ; Move to next pattern
G1 Z0.45 F18000 ; Z hop return
G1 E0.5 F1500 ; Un-retract
SET_PRESSURE_ADVANCE ADVANCE=0.005 ; Set pressure advance
M117 PA 0.005
G1 X195.1606 Y204.22 E0.97485 F9000 ; Print pattern wall
G1 X173.9474 Y225.4332 E0.97485 F9000 ; Print pattern wall
G1 E-0.5 F3300 ; Retract
G1 Z0.55 F18000 ; Z hop
G0 X174.5231 Y183.0068 F18000 ; Move to start next pattern wall
G1 Z0.45 F18000 ; Z hop return
G1 E0.5 F1500 ; Un-retract
G1 X195.7363 Y204.22 E0.97485 F9000 ; Print pattern wall
G1 X174.5231 Y225.4332 E0.97485 F9000 ; Print pattern wall
G1 E-0.5 F3300 ; Retract
G1 Z0.55 F18000 ; Z hop
G0 X175.0988 Y183.0068 F18000 ; Move to start next pattern wall
G1 Z0.45 F18000 ; Z hop return
G1 E0.5 F1500 ; Un-retract
G1 X196.312 Y204.22 E0.97485 F9000 ; Print pattern wall
G1 X175.0988 Y225.4332 E0.97485 F9000 ; Print pattern wall
G1 E-0.5 F3300 ; Retract
G1 Z0.55 F18000 ; Z hop
G0 X177.5488 Y183.0068 F18000 ; Move to next pattern
G1 Z0.45 F18000 ; Z hop return
G1 E0.5 F1500 ; Un-retract
SET_PRESSURE_ADVANCE ADVANCE=0.01 ; Set pressure advance
M117 PA 0.01
G1 X198.762 Y204.22 E0.97485 F9000 ; Print pattern wall
G1 X177.5488 Y225.4332 E0.97485 F9000 ; Print pattern wall
G1 E-0.5 F3300 ; Retract
G1 Z0.55 F18000 ; Z hop
G0 X178.1245 Y183.0068 F18000 ; Move to start next pattern wall
G1 Z0.45 F18000 ; Z hop return
G1 E0.5 F1500 ; Un-retract
G1 X199.3377 Y204.22 E0.97485 F9000 ; Print pattern wall
G1 X178.1245 Y225.4332 E0.97485 F9000 ; Print pattern wall
G1 E-0.5 F3300 ; Retract
G1 Z0.55 F18000 ; Z hop
G0 X178.7002 Y183.0068 F18000 ; Move to start next pattern wall
G1 Z0.45 F18000 ; Z hop return
G1 E0.5 F1500 ; Un-retract
G1 X199.9134 Y204.22 E0.97485 F9000 ; Print pattern wall
G1 X178.7002 Y225.4332 E0.97485 F9000 ; Print pattern wall
G1 E-0.5 F3300 ; Retract
G1 Z0.55 F18000 ; Z hop
G0 X181.1502 Y183.0068 F18000 ; Move to next pattern
G1 Z0.45 F18000 ; Z hop return
G1 E0.5 F1500 ; Un-retract
SET_PRESSURE_ADVANCE ADVANCE=0.015 ; Set pressure advance
M117 PA 0.015
G1 X202.3634 Y204.22 E0.97485 F9000 ; Print pattern wall
G1 X181.1502 Y225.4332 E0.97485 F9000 ; Print pattern wall
G1 E-0.5 F3300 ; Retract
G1 Z0.55 F18000 ; Z hop
G0 X181.7259 Y183.0068 F18000 ; Move to start next pattern wall
G1 Z0.45 F18000 ; Z hop return
G1 E0.5 F1500 ; Un-retract
G1 X202.9391 Y204.22 E0.97485 F9000 ; Print pattern wall
G1 X181.7259 Y225.4332 E0.97485 F9000 ; Print pattern wall
G1 E-0.5 F3300 ; Retract
G1 Z0.55 F18000 ; Z hop
G0 X182.3016 Y183.0068 F18000 ; Move to start next pattern wall
G1 Z0.45 F18000 ; Z hop return
G1 E0.5 F1500 ; Un-retract
G1 X203.5148 Y204.22 E0.97485 F9000 ; Print pattern wall
G1 X182.3016 Y225.4332 E0.97485 F9000 ; Print pattern wall
G1 E-0.5 F3300 ; Retract
G1 Z0.55 F18000 ; Z hop
G0 X184.7516 Y183.0068 F18000 ; Move to next pattern
G1 Z0.45 F18000 ; Z hop return
G1 E0.5 F1500 ; Un-retract
SET_PRESSURE_ADVANCE ADVANCE=0.02 ; Set pressure advance
M117 PA 0.02
G1 X205.9648 Y204.22 E0.97485 F9000 ; Print pattern wall
G1 X184.7516 Y225.4332 E0.97485 F9000 ; Print pattern wall
G1 E-0.5 F3300 ; Retract
G1 Z0.55 F18000 ; Z hop
G0 X185.3273 Y183.0068 F18000 ; Move to start next pattern wall
G1 Z0.45 F18000 ; Z hop return
G1 E0.5 F1500 ; Un-retract
G1 X206.5405 Y204.22 E0.97485 F9000 ; Print pattern wall
G1 X185.3273 Y225.4332 E0.97485 F9000 ; Print pattern wall
G1 E-0.5 F3300 ; Retract
G1 Z0.55 F18000 ; Z hop
G0 X185.903 Y183.0068 F18000 ; Move to start next pattern wall
G1 Z0.45 F18000 ; Z hop return
G1 E0.5 F1500 ; Un-retract
G1 X207.1162 Y204.22 E0.97485 F9000 ; Print pattern wall
G1 X185.903 Y225.4332 E0.97485 F9000 ; Print pattern wall
G1 E-0.5 F3300 ; Retract
G1 Z0.55 F18000 ; Z hop
G0 X188.353 Y183.0068 F18000 ; Move to next pattern
G1 Z0.45 F18000 ; Z hop return
G1 E0.5 F1500 ; Un-retract
SET_PRESSURE_ADVANCE ADVANCE=0.025 ; Set pressure advance
M117 PA 0.025
G1 X209.5662 Y204.22 E0.97485 F9000 ; Print pattern wall
G1 X188.353 Y225.4332 E0.97485 F9000 ; Print pattern wall
G1 E-0.5 F3300 ; Retract
G1 Z0.55 F18000 ; Z hop
G0 X188.9287 Y183.0068 F18000 ; Move to start next pattern wall
G1 Z0.45 F18000 ; Z hop return
G1 E0.5 F1500 ; Un-retract
G1 X210.1419 Y204.22 E0.97485 F9000 ; Print pattern wall
G1 X188.9287 Y225.4332 E0.97485 F9000 ; Print pattern wall
G1 E-0.5 F3300 ; Retract
G1 Z0.55 F18000 ; Z hop
G0 X189.5044 Y183.0068 F18000 ; Move to start next pattern wall
G1 Z0.45 F18000 ; Z hop return
G1 E0.5 F1500 ; Un-retract
G1 X210.7176 Y204.22 E0.97485 F9000 ; Print pattern wall
G1 X189.5044 Y225.4332 E0.97485 F9000 ; Print pattern wall
G1 E-0.5 F3300 ; Retract
G1 Z0.55 F18000 ; Z hop
G0 X191.9544 Y183.0068 F18000 ; Move to next pattern
G1 Z0.45 F18000 ; Z hop return
G1 E0.5 F1500 ; Un-retract
SET_PRESSURE_ADVANCE ADVANCE=0.03 ; Set pressure advance
M117 PA 0.03
G1 X213.1676 Y204.22 E0.97485 F9000 ; Print pattern wall
G1 X191.9544 Y225.4332 E0.97485 F9000 ; Print pattern wall
G1 E-0.5 F3300 ; Retract
G1 Z0.55 F18000 ; Z hop
G0 X192.5301 Y183.0068 F18000 ; Move to start next pattern wall
G1 Z0.45 F18000 ; Z hop return
G1 E0.5 F1500 ; Un-retract
G1 X213.7433 Y204.22 E0.97485 F9000 ; Print pattern wall
G1 X192.5301 Y225.4332 E0.97485 F9000 ; Print pattern wall
G1 E-0.5 F3300 ; Retract
G1 Z0.55 F18000 ; Z hop
G0 X193.1058 Y183.0068 F18000 ; Move to start next pattern wall
G1 Z0.45 F18000 ; Z hop return
G1 E0.5 F1500 ; Un-retract
G1 X214.319 Y204.22 E0.97485 F9000 ; Print pattern wall
G1 X193.1058 Y225.4332 E0.97485 F9000 ; Print pattern wall
G1 E-0.5 F3300 ; Retract
G1 Z0.55 F18000 ; Z hop
G0 X195.5558 Y183.0068 F18000 ; Move to next pattern
G1 Z0.45 F18000 ; Z hop return
G1 E0.5 F1500 ; Un-retract
SET_PRESSURE_ADVANCE ADVANCE=0.035 ; Set pressure advance
M117 PA 0.035
G1 X216.769 Y204.22 E0.97485 F9000 ; Print pattern wall
G1 X195.5558 Y225.4332 E0.97485 F9000 ; Print pattern wall
G1 E-0.5 F3300 ; Retract
G1 Z0.55 F18000 ; Z hop
G0 X196.1315 Y183.0068 F18000 ; Move to start next pattern wall
G1 Z0.45 F18000 ; Z hop return
G1 E0.5 F1500 ; Un-retract
G1 X217.3447 Y204.22 E0.97485 F9000 ; Print pattern wall
G1 X196.1315 Y225.4332 E0.97485 F9000 ; Print pattern wall
G1 E-0.5 F3300 ; Retract
G1 Z0.55 F18000 ; Z hop
G0 X196.7072 Y183.0068 F18000 ; Move to start next pattern wall
G1 Z0.45 F18000 ; Z hop return
G1 E0.5 F1500 ; Un-retract
G1 X217.9204 Y204.22 E0.97485 F9000 ; Print pattern wall
G1 X196.7072 Y225.4332 E0.97485 F9000 ; Print pattern wall
G1 E-0.5 F3300 ; Retract
G1 Z0.55 F18000 ; Z hop
G0 X199.1572 Y183.0068 F18000 ; Move to next pattern
G1 Z0.45 F18000 ; Z hop return
G1 E0.5 F1500 ; Un-retract
SET_PRESSURE_ADVANCE ADVANCE=0.04 ; Set pressure advance
M117 PA 0.04
G1 X220.3704 Y204.22 E0.97485 F9000 ; Print pattern wall
G1 X199.1572 Y225.4332 E0.97485 F9000 ; Print pattern wall
G1 E-0.5 F3300 ; Retract
G1 Z0.55 F18000 ; Z hop
G0 X199.7329 Y183.0068 F18000 ; Move to start next pattern wall
G1 Z0.45 F18000 ; Z hop return
G1 E0.5 F1500 ; Un-retract
G1 X220.9461 Y204.22 E0.97485 F9000 ; Print pattern wall
G1 X199.7329 Y225.4332 E0.97485 F9000 ; Print pattern wall
G1 E-0.5 F3300 ; Retract
G1 Z0.55 F18000 ; Z hop
G0 X200.3086 Y183.0068 F18000 ; Move to start next pattern wall
G1 Z0.45 F18000 ; Z hop return
G1 E0.5 F1500 ; Un-retract
G1 X221.5218 Y204.22 E0.97485 F9000 ; Print pattern wall
G1 X200.3086 Y225.4332 E0.97485 F9000 ; Print pattern wall
G1 E-0.5 F3300 ; Retract
G1 Z0.55 F18000 ; Z hop
G0 X202.7586 Y183.0068 F18000 ; Move to next pattern
G1 Z0.45 F18000 ; Z hop return
G1 E0.5 F1500 ; Un-retract
SET_PRESSURE_ADVANCE ADVANCE=0.045 ; Set pressure advance
M117 PA 0.045
G1 X223.9718 Y204.22 E0.97485 F9000 ; Print pattern wall
G1 X202.7586 Y225.4332 E0.97485 F9000 ; Print pattern wall
G1 E-0.5 F3300 ; Retract
G1 Z0.55 F18000 ; Z hop
G0 X203.3343 Y183.0068 F18000 ; Move to start next pattern wall
G1 Z0.45 F18000 ; Z hop return
G1 E0.5 F1500 ; Un-retract
G1 X224.5475 Y204.22 E0.97485 F9000 ; Print pattern wall
G1 X203.3343 Y225.4332 E0.97485 F9000 ; Print pattern wall
G1 E-0.5 F3300 ; Retract
G1 Z0.55 F18000 ; Z hop
G0 X203.91 Y183.0068 F18000 ; Move to start next pattern wall
G1 Z0.45 F18000 ; Z hop return
G1 E0.5 F1500 ; Un-retract
G1 X225.1232 Y204.22 E0.97485 F9000 ; Print pattern wall
G1 X203.91 Y225.4332 E0.97485 F9000 ; Print pattern wall
G1 E-0.5 F3300 ; Retract
G1 Z0.55 F18000 ; Z hop
G0 X206.36 Y183.0068 F18000 ; Move to next pattern
G1 Z0.45 F18000 ; Z hop return
G1 E0.5 F1500 ; Un-retract
SET_PRESSURE_ADVANCE ADVANCE=0.05 ; Set pressure advance
M117 PA 0.05
G1 X227.5732 Y204.22 E0.97485 F9000 ; Print pattern wall
G1 X206.36 Y225.4332 E0.97485 F9000 ; Print pattern wall
G1 E-0.5 F3300 ; Retract
G1 Z0.55 F18000 ; Z hop
G0 X206.9357 Y183.0068 F18000 ; Move to start next pattern wall
G1 Z0.45 F18000 ; Z hop return
G1 E0.5 F1500 ; Un-retract
G1 X228.1489 Y204.22 E0.97485 F9000 ; Print pattern wall
G1 X206.9357 Y225.4332 E0.97485 F9000 ; Print pattern wall
G1 E-0.5 F3300 ; Retract
G1 Z0.55 F18000 ; Z hop
G0 X207.5113 Y183.0068 F18000 ; Move to start next pattern wall
G1 Z0.45 F18000 ; Z hop return
G1 E0.5 F1500 ; Un-retract
G1 X228.7246 Y204.22 E0.97485 F9000 ; Print pattern wall
G1 X207.5113 Y225.4332 E0.97485 F9000 ; Print pattern wall
G1 E-0.5 F3300 ; Retract
G1 Z0.55 F18000 ; Z hop
G0 X209.9613 Y183.0068 F18000 ; Move to next pattern
G1 Z0.45 F18000 ; Z hop return
G1 E0.5 F1500 ; Un-retract
SET_PRESSURE_ADVANCE ADVANCE=0.055 ; Set pressure advance
M117 PA 0.055
G1 X231.1746 Y204.22 E0.97485 F9000 ; Print pattern wall
G1 X209.9613 Y225.4332 E0.97485 F9000 ; Print pattern wall
G1 E-0.5 F3300 ; Retract
G1 Z0.55 F18000 ; Z hop
G0 X210.537 Y183.0068 F18000 ; Move to start next pattern wall
G1 Z0.45 F18000 ; Z hop return
G1 E0.5 F1500 ; Un-retract
G1 X231.7502 Y204.22 E0.97485 F9000 ; Print pattern wall
G1 X210.537 Y225.4332 E0.97485 F9000 ; Print pattern wall
G1 E-0.5 F3300 ; Retract
G1 Z0.55 F18000 ; Z hop
G0 X211.1127 Y183.0068 F18000 ; Move to start next pattern wall
G1 Z0.45 F18000 ; Z hop return
G1 E0.5 F1500 ; Un-retract
G1 X232.3259 Y204.22 E0.97485 F9000 ; Print pattern wall
G1 X211.1127 Y225.4332 E0.97485 F9000 ; Print pattern wall
G1 E-0.5 F3300 ; Retract
G1 Z0.55 F18000 ; Z hop
G0 X213.5627 Y183.0068 F18000 ; Move to next pattern
G1 Z0.45 F18000 ; Z hop return
G1 E0.5 F1500 ; Un-retract
SET_PRESSURE_ADVANCE ADVANCE=0.06 ; Set pressure advance
M117 PA 0.06
G1 X234.7759 Y204.22 E0.97485 F9000 ; Print pattern wall
G1 X213.5627 Y225.4332 E0.97485 F9000 ; Print pattern wall
G1 E-0.5 F3300 ; Retract
G1 Z0.55 F18000 ; Z hop
G0 X214.1384 Y183.0068 F18000 ; Move to start next pattern wall
G1 Z0.45 F18000 ; Z hop return
G1 E0.5 F1500 ; Un-retract
G1 X235.3516 Y204.22 E0.97485 F9000 ; Print pattern wall
G1 X214.1384 Y225.4332 E0.97485 F9000 ; Print pattern wall
G1 E-0.5 F3300 ; Retract
G1 Z0.55 F18000 ; Z hop
G0 X214.7141 Y183.0068 F18000 ; Move to start next pattern wall
G1 Z0.45 F18000 ; Z hop return
G1 E0.5 F1500 ; Un-retract
G1 X235.9273 Y204.22 E0.97485 F9000 ; Print pattern wall
G1 X214.7141 Y225.4332 E0.97485 F9000 ; Print pattern wall
G1 E-0.5 F3300 ; Retract
G1 Z0.55 F18000 ; Z hop
G0 X217.1641 Y183.0068 F18000 ; Move to next pattern
G1 Z0.45 F18000 ; Z hop return
G1 E0.5 F1500 ; Un-retract
SET_PRESSURE_ADVANCE ADVANCE=0.065 ; Set pressure advance
M117 PA 0.065
G1 X238.3773 Y204.22 E0.97485 F9000 ; Print pattern wall
G1 X217.1641 Y225.4332 E0.97485 F9000 ; Print pattern wall
G1 E-0.5 F3300 ; Retract
G1 Z0.55 F18000 ; Z hop
G0 X217.7398 Y183.0068 F18000 ; Move to start next pattern wall
G1 Z0.45 F18000 ; Z hop return
G1 E0.5 F1500 ; Un-retract
G1 X238.953 Y204.22 E0.97485 F9000 ; Print pattern wall
G1 X217.7398 Y225.4332 E0.97485 F9000 ; Print pattern wall
G1 E-0.5 F3300 ; Retract
G1 Z0.55 F18000 ; Z hop
G0 X218.3155 Y183.0068 F18000 ; Move to start next pattern wall
G1 Z0.45 F18000 ; Z hop return
G1 E0.5 F1500 ; Un-retract
G1 X239.5287 Y204.22 E0.97485 F9000 ; Print pattern wall
G1 X218.3155 Y225.4332 E0.97485 F9000 ; Print pattern wall
G1 E-0.5 F3300 ; Retract
G1 Z0.55 F18000 ; Z hop
G0 X220.7655 Y183.0068 F18000 ; Move to next pattern
G1 Z0.45 F18000 ; Z hop return
G1 E0.5 F1500 ; Un-retract
SET_PRESSURE_ADVANCE ADVANCE=0.07 ; Set pressure advance
M117 PA 0.07
G1 X241.9787 Y204.22 E0.97485 F9000 ; Print pattern wall
G1 X220.7655 Y225.4332 E0.97485 F9000 ; Print pattern wall
G1 E-0.5 F3300 ; Retract
G1 Z0.55 F18000 ; Z hop
G0 X221.3412 Y183.0068 F18000 ; Move to start next pattern wall
G1 Z0.45 F18000 ; Z hop return
G1 E0.5 F1500 ; Un-retract
G1 X242.5544 Y204.22 E0.97485 F9000 ; Print pattern wall
G1 X221.3412 Y225.4332 E0.97485 F9000 ; Print pattern wall
G1 E-0.5 F3300 ; Retract
G1 Z0.55 F18000 ; Z hop
G0 X221.9169 Y183.0068 F18000 ; Move to start next pattern wall
G1 Z0.45 F18000 ; Z hop return
G1 E0.5 F1500 ; Un-retract
G1 X243.1301 Y204.22 E0.97485 F9000 ; Print pattern wall
G1 X221.9169 Y225.4332 E0.97485 F9000 ; Print pattern wall
G1 E-0.5 F3300 ; Retract
G1 Z0.55 F18000 ; Z hop
G0 X224.3669 Y183.0068 F18000 ; Move to next pattern
G1 Z0.45 F18000 ; Z hop return
G1 E0.5 F1500 ; Un-retract
SET_PRESSURE_ADVANCE ADVANCE=0.075 ; Set pressure advance
M117 PA 0.075
G1 X245.5801 Y204.22 E0.97485 F9000 ; Print pattern wall
G1 X224.3669 Y225.4332 E0.97485 F9000 ; Print pattern wall
G1 E-0.5 F3300 ; Retract
G1 Z0.55 F18000 ; Z hop
G0 X224.9426 Y183.0068 F18000 ; Move to start next pattern wall
G1 Z0.45 F18000 ; Z hop return
G1 E0.5 F1500 ; Un-retract
G1 X246.1558 Y204.22 E0.97485 F9000 ; Print pattern wall
G1 X224.9426 Y225.4332 E0.97485 F9000 ; Print pattern wall
G1 E-0.5 F3300 ; Retract
G1 Z0.55 F18000 ; Z hop
G0 X225.5183 Y183.0068 F18000 ; Move to start next pattern wall
G1 Z0.45 F18000 ; Z hop return
G1 E0.5 F1500 ; Un-retract
G1 X246.7315 Y204.22 E0.97485 F9000 ; Print pattern wall
G1 X225.5183 Y225.4332 E0.97485 F9000 ; Print pattern wall
G1 E-0.5 F3300 ; Retract
G1 Z0.55 F18000 ; Z hop
G0 X227.9683 Y183.0068 F18000 ; Move to next pattern
G1 Z0.45 F18000 ; Z hop return
G1 E0.5 F1500 ; Un-retract
SET_PRESSURE_ADVANCE ADVANCE=0.08 ; Set pressure advance
M117 PA 0.08
G1 X249.1815 Y204.22 E0.97485 F9000 ; Print pattern wall
G1 X227.9683 Y225.4332 E0.97485 F9000 ; Print pattern wall
G1 E-0.5 F3300 ; Retract
G1 Z0.55 F18000 ; Z hop
G0 X228.544 Y183.0068 F18000 ; Move to start next pattern wall
G1 Z0.45 F18000 ; Z hop return
G1 E0.5 F1500 ; Un-retract
G1 X249.7572 Y204.22 E0.97485 F9000 ; Print pattern wall
G1 X228.544 Y225.4332 E0.97485 F9000 ; Print pattern wall
G1 E-0.5 F3300 ; Retract
G1 Z0.55 F18000 ; Z hop
G0 X229.1197 Y183.0068 F18000 ; Move to start next pattern wall
G1 Z0.45 F18000 ; Z hop return
G1 E0.5 F1500 ; Un-retract
G1 X250.3329 Y204.22 E0.97485 F9000 ; Print pattern wall
G1 X229.1197 Y225.4332 E0.97485 F9000 ; Print pattern wall
G1 E-0.5 F3300 ; Retract
G1 Z0.55 F18000 ; Z hop
G0 X170.346 Y183.0068 F18000 ; Move back to start position
G1 Z0.45 F18000 ; Z hop return
G1 E0.5 F1500 ; Un-retract
G0 Z0.65 F18000 ; Move to layer height
SET_PRESSURE_ADVANCE ADVANCE=0 ; Set pressure advance
M117 PA 0
G1 X191.5592 Y204.22 E0.97485 F9000 ; Print pattern wall
G1 X170.346 Y225.4332 E0.97485 F9000 ; Print pattern wall
G1 E-0.5 F3300 ; Retract
G1 Z0.75 F18000 ; Z hop
G0 X170.9217 Y183.0068 F18000 ; Move to start next pattern wall
G1 Z0.65 F18000 ; Z hop return
G1 E0.5 F1500 ; Un-retract
G1 X192.1349 Y204.22 E0.97485 F9000 ; Print pattern wall
G1 X170.9217 Y225.4332 E0.97485 F9000 ; Print pattern wall
G1 E-0.5 F3300 ; Retract
G1 Z0.75 F18000 ; Z hop
G0 X171.4974 Y183.0068 F18000 ; Move to start next pattern wall
G1 Z0.65 F18000 ; Z hop return
G1 E0.5 F1500 ; Un-retract
G1 X192.7106 Y204.22 E0.97485 F9000 ; Print pattern wall
G1 X171.4974 Y225.4332 E0.97485 F9000 ; Print pattern wall
G1 E-0.5 F3300 ; Retract
G1 Z0.75 F18000 ; Z hop
G0 X173.9474 Y183.0068 F18000 ; Move to next pattern
G1 Z0.65 F18000 ; Z hop return
G1 E0.5 F1500 ; Un-retract
SET_PRESSURE_ADVANCE ADVANCE=0.005 ; Set pressure advance
M117 PA 0.005
G1 X195.1606 Y204.22 E0.97485 F9000 ; Print pattern wall
G1 X173.9474 Y225.4332 E0.97485 F9000 ; Print pattern wall
G1 E-0.5 F3300 ; Retract
G1 Z0.75 F18000 ; Z hop
G0 X174.5231 Y183.0068 F18000 ; Move to start next pattern wall
G1 Z0.65 F18000 ; Z hop return
G1 E0.5 F1500 ; Un-retract
G1 X195.7363 Y204.22 E0.97485 F9000 ; Print pattern wall
G1 X174.5231 Y225.4332 E0.97485 F9000 ; Print pattern wall
G1 E-0.5 F3300 ; Retract
G1 Z0.75 F18000 ; Z hop
G0 X175.0988 Y183.0068 F18000 ; Move to start next pattern wall
G1 Z0.65 F18000 ; Z hop return
G1 E0.5 F1500 ; Un-retract
G1 X196.312 Y204.22 E0.97485 F9000 ; Print pattern wall
G1 X175.0988 Y225.4332 E0.97485 F9000 ; Print pattern wall
G1 E-0.5 F3300 ; Retract
G1 Z0.75 F18000 ; Z hop
G0 X177.5488 Y183.0068 F18000 ; Move to next pattern
G1 Z0.65 F18000 ; Z hop return
G1 E0.5 F1500 ; Un-retract
SET_PRESSURE_ADVANCE ADVANCE=0.01 ; Set pressure advance
M117 PA 0.01
G1 X198.762 Y204.22 E0.97485 F9000 ; Print pattern wall
G1 X177.5488 Y225.4332 E0.97485 F9000 ; Print pattern wall
G1 E-0.5 F3300 ; Retract
G1 Z0.75 F18000 ; Z hop
G0 X178.1245 Y183.0068 F18000 ; Move to start next pattern wall
G1 Z0.65 F18000 ; Z hop return
G1 E0.5 F1500 ; Un-retract
G1 X199.3377 Y204.22 E0.97485 F9000 ; Print pattern wall
G1 X178.1245 Y225.4332 E0.97485 F9000 ; Print pattern wall
G1 E-0.5 F3300 ; Retract
G1 Z0.75 F18000 ; Z hop
G0 X178.7002 Y183.0068 F18000 ; Move to start next pattern wall
G1 Z0.65 F18000 ; Z hop return
G1 E0.5 F1500 ; Un-retract
G1 X199.9134 Y204.22 E0.97485 F9000 ; Print pattern wall
G1 X178.7002 Y225.4332 E0.97485 F9000 ; Print pattern wall
G1 E-0.5 F3300 ; Retract
G1 Z0.75 F18000 ; Z hop
G0 X181.1502 Y183.0068 F18000 ; Move to next pattern
G1 Z0.65 F18000 ; Z hop return
G1 E0.5 F1500 ; Un-retract
SET_PRESSURE_ADVANCE ADVANCE=0.015 ; Set pressure advance
M117 PA 0.015
G1 X202.3634 Y204.22 E0.97485 F9000 ; Print pattern wall
G1 X181.1502 Y225.4332 E0.97485 F9000 ; Print pattern wall
G1 E-0.5 F3300 ; Retract
G1 Z0.75 F18000 ; Z hop
G0 X181.7259 Y183.0068 F18000 ; Move to start next pattern wall
G1 Z0.65 F18000 ; Z hop return
G1 E0.5 F1500 ; Un-retract
G1 X202.9391 Y204.22 E0.97485 F9000 ; Print pattern wall
G1 X181.7259 Y225.4332 E0.97485 F9000 ; Print pattern wall
G1 E-0.5 F3300 ; Retract
G1 Z0.75 F18000 ; Z hop
G0 X182.3016 Y183.0068 F18000 ; Move to start next pattern wall
G1 Z0.65 F18000 ; Z hop return
G1 E0.5 F1500 ; Un-retract
G1 X203.5148 Y204.22 E0.97485 F9000 ; Print pattern wall
G1 X182.3016 Y225.4332 E0.97485 F9000 ; Print pattern wall
G1 E-0.5 F3300 ; Retract
G1 Z0.75 F18000 ; Z hop
G0 X184.7516 Y183.0068 F18000 ; Move to next pattern
G1 Z0.65 F18000 ; Z hop return
G1 E0.5 F1500 ; Un-retract
SET_PRESSURE_ADVANCE ADVANCE=0.02 ; Set pressure advance
M117 PA 0.02
G1 X205.9648 Y204.22 E0.97485 F9000 ; Print pattern wall
G1 X184.7516 Y225.4332 E0.97485 F9000 ; Print pattern wall
G1 E-0.5 F3300 ; Retract
G1 Z0.75 F18000 ; Z hop
G0 X185.3273 Y183.0068 F18000 ; Move to start next pattern wall
G1 Z0.65 F18000 ; Z hop return
G1 E0.5 F1500 ; Un-retract
G1 X206.5405 Y204.22 E0.97485 F9000 ; Print pattern wall
G1 X185.3273 Y225.4332 E0.97485 F9000 ; Print pattern wall
G1 E-0.5 F3300 ; Retract
G1 Z0.75 F18000 ; Z hop
G0 X185.903 Y183.0068 F18000 ; Move to start next pattern wall
G1 Z0.65 F18000 ; Z hop return
G1 E0.5 F1500 ; Un-retract
G1 X207.1162 Y204.22 E0.97485 F9000 ; Print pattern wall
G1 X185.903 Y225.4332 E0.97485 F9000 ; Print pattern wall
G1 E-0.5 F3300 ; Retract
G1 Z0.75 F18000 ; Z hop
G0 X188.353 Y183.0068 F18000 ; Move to next pattern
G1 Z0.65 F18000 ; Z hop return
G1 E0.5 F1500 ; Un-retract
SET_PRESSURE_ADVANCE ADVANCE=0.025 ; Set pressure advance
M117 PA 0.025
G1 X209.5662 Y204.22 E0.97485 F9000 ; Print pattern wall
G1 X188.353 Y225.4332 E0.97485 F9000 ; Print pattern wall
G1 E-0.5 F3300 ; Retract
G1 Z0.75 F18000 ; Z hop
G0 X188.9287 Y183.0068 F18000 ; Move to start next pattern wall
G1 Z0.65 F18000 ; Z hop return
G1 E0.5 F1500 ; Un-retract
G1 X210.1419 Y204.22 E0.97485 F9000 ; Print pattern wall
G1 X188.9287 Y225.4332 E0.97485 F9000 ; Print pattern wall
G1 E-0.5 F3300 ; Retract
G1 Z0.75 F18000 ; Z hop
G0 X189.5044 Y183.0068 F18000 ; Move to start next pattern wall
G1 Z0.65 F18000 ; Z hop return
G1 E0.5 F1500 ; Un-retract
G1 X210.7176 Y204.22 E0.97485 F9000 ; Print pattern wall
G1 X189.5044 Y225.4332 E0.97485 F9000 ; Print pattern wall
G1 E-0.5 F3300 ; Retract
G1 Z0.75 F18000 ; Z hop
G0 X191.9544 Y183.0068 F18000 ; Move to next pattern
G1 Z0.65 F18000 ; Z hop return
G1 E0.5 F1500 ; Un-retract
SET_PRESSURE_ADVANCE ADVANCE=0.03 ; Set pressure advance
M117 PA 0.03
G1 X213.1676 Y204.22 E0.97485 F9000 ; Print pattern wall
G1 X191.9544 Y225.4332 E0.97485 F9000 ; Print pattern wall
G1 E-0.5 F3300 ; Retract
G1 Z0.75 F18000 ; Z hop
G0 X192.5301 Y183.0068 F18000 ; Move to start next pattern wall
G1 Z0.65 F18000 ; Z hop return
G1 E0.5 F1500 ; Un-retract
G1 X213.7433 Y204.22 E0.97485 F9000 ; Print pattern wall
G1 X192.5301 Y225.4332 E0.97485 F9000 ; Print pattern wall
G1 E-0.5 F3300 ; Retract
G1 Z0.75 F18000 ; Z hop
G0 X193.1058 Y183.0068 F18000 ; Move to start next pattern wall
G1 Z0.65 F18000 ; Z hop return
G1 E0.5 F1500 ; Un-retract
G1 X214.319 Y204.22 E0.97485 F9000 ; Print pattern wall
G1 X193.1058 Y225.4332 E0.97485 F9000 ; Print pattern wall
G1 E-0.5 F3300 ; Retract
G1 Z0.75 F18000 ; Z hop
G0 X195.5558 Y183.0068 F18000 ; Move to next pattern
G1 Z0.65 F18000 ; Z hop return
G1 E0.5 F1500 ; Un-retract
SET_PRESSURE_ADVANCE ADVANCE=0.035 ; Set pressure advance
M117 PA 0.035
G1 X216.769 Y204.22 E0.97485 F9000 ; Print pattern wall
G1 X195.5558 Y225.4332 E0.97485 F9000 ; Print pattern wall
G1 E-0.5 F3300 ; Retract
G1 Z0.75 F18000 ; Z hop
G0 X196.1315 Y183.0068 F18000 ; Move to start next pattern wall
G1 Z0.65 F18000 ; Z hop return
G1 E0.5 F1500 ; Un-retract
G1 X217.3447 Y204.22 E0.97485 F9000 ; Print pattern wall
G1 X196.1315 Y225.4332 E0.97485 F9000 ; Print pattern wall
G1 E-0.5 F3300 ; Retract
G1 Z0.75 F18000 ; Z hop
G0 X196.7072 Y183.0068 F18000 ; Move to start next pattern wall
G1 Z0.65 F18000 ; Z hop return
G1 E0.5 F1500 ; Un-retract
G1 X217.9204 Y204.22 E0.97485 F9000 ; Print pattern wall
G1 X196.7072 Y225.4332 E0.97485 F9000 ; Print pattern wall
G1 E-0.5 F3300 ; Retract
G1 Z0.75 F18000 ; Z hop
G0 X199.1572 Y183.0068 F18000 ; Move to next pattern
G1 Z0.65 F18000 ; Z hop return
G1 E0.5 F1500 ; Un-retract
SET_PRESSURE_ADVANCE ADVANCE=0.04 ; Set pressure advance
M117 PA 0.04
G1 X220.3704 Y204.22 E0.97485 F9000 ; Print pattern wall
G1 X199.1572 Y225.4332 E0.97485 F9000 ; Print pattern wall
G1 E-0.5 F3300 ; Retract
G1 Z0.75 F18000 ; Z hop
G0 X199.7329 Y183.0068 F18000 ; Move to start next pattern wall
G1 Z0.65 F18000 ; Z hop return
G1 E0.5 F1500 ; Un-retract
G1 X220.9461 Y204.22 E0.97485 F9000 ; Print pattern wall
G1 X199.7329 Y225.4332 E0.97485 F9000 ; Print pattern wall
G1 E-0.5 F3300 ; Retract
G1 Z0.75 F18000 ; Z hop
G0 X200.3086 Y183.0068 F18000 ; Move to start next pattern wall
G1 Z0.65 F18000 ; Z hop return
G1 E0.5 F1500 ; Un-retract
G1 X221.5218 Y204.22 E0.97485 F9000 ; Print pattern wall
G1 X200.3086 Y225.4332 E0.97485 F9000 ; Print pattern wall
G1 E-0.5 F3300 ; Retract
G1 Z0.75 F18000 ; Z hop
G0 X202.7586 Y183.0068 F18000 ; Move to next pattern
G1 Z0.65 F18000 ; Z hop return
G1 E0.5 F1500 ; Un-retract
SET_PRESSURE_ADVANCE ADVANCE=0.045 ; Set pressure advance
M117 PA 0.045
G1 X223.9718 Y204.22 E0.97485 F9000 ; Print pattern wall
G1 X202.7586 Y225.4332 E0.97485 F9000 ; Print pattern wall
G1 E-0.5 F3300 ; Retract
G1 Z0.75 F18000 ; Z hop
G0 X203.3343 Y183.0068 F18000 ; Move to start next pattern wall
G1 Z0.65 F18000 ; Z hop return
G1 E0.5 F1500 ; Un-retract
G1 X224.5475 Y204.22 E0.97485 F9000 ; Print pattern wall
G1 X203.3343 Y225.4332 E0.97485 F9000 ; Print pattern wall
G1 E-0.5 F3300 ; Retract
G1 Z0.75 F18000 ; Z hop
G0 X203.91 Y183.0068 F18000 ; Move to start next pattern wall
G1 Z0.65 F18000 ; Z hop return
G1 E0.5 F1500 ; Un-retract
G1 X225.1232 Y204.22 E0.97485 F9000 ; Print pattern wall
G1 X203.91 Y225.4332 E0.97485 F9000 ; Print pattern wall
G1 E-0.5 F3300 ; Retract
G1 Z0.75 F18000 ; Z hop
G0 X206.36 Y183.0068 F18000 ; Move to next pattern
G1 Z0.65 F18000 ; Z hop return
G1 E0.5 F1500 ; Un-retract
SET_PRESSURE_ADVANCE ADVANCE=0.05 ; Set pressure advance
M117 PA 0.05
G1 X227.5732 Y204.22 E0.97485 F9000 ; Print pattern wall
G1 X206.36 Y225.4332 E0.97485 F9000 ; Print pattern wall
G1 E-0.5 F3300 ; Retract
G1 Z0.75 F18000 ; Z hop
G0 X206.9357 Y183.0068 F18000 ; Move to start next pattern wall
G1 Z0.65 F18000 ; Z hop return
G1 E0.5 F1500 ; Un-retract
G1 X228.1489 Y204.22 E0.97485 F9000 ; Print pattern wall
G1 X206.9357 Y225.4332 E0.97485 F9000 ; Print pattern wall
G1 E-0.5 F3300 ; Retract
G1 Z0.75 F18000 ; Z hop
G0 X207.5113 Y183.0068 F18000 ; Move to start next pattern wall
G1 Z0.65 F18000 ; Z hop return
G1 E0.5 F1500 ; Un-retract
G1 X228.7246 Y204.22 E0.97485 F9000 ; Print pattern wall
G1 X207.5113 Y225.4332 E0.97485 F9000 ; Print pattern wall
G1 E-0.5 F3300 ; Retract
G1 Z0.75 F18000 ; Z hop
G0 X209.9613 Y183.0068 F18000 ; Move to next pattern
G1 Z0.65 F18000 ; Z hop return
G1 E0.5 F1500 ; Un-retract
SET_PRESSURE_ADVANCE ADVANCE=0.055 ; Set pressure advance
M117 PA 0.055
G1 X231.1746 Y204.22 E0.97485 F9000 ; Print pattern wall
G1 X209.9613 Y225.4332 E0.97485 F9000 ; Print pattern wall
G1 E-0.5 F3300 ; Retract
G1 Z0.75 F18000 ; Z hop
G0 X210.537 Y183.0068 F18000 ; Move to start next pattern wall
G1 Z0.65 F18000 ; Z hop return
G1 E0.5 F1500 ; Un-retract
G1 X231.7502 Y204.22 E0.97485 F9000 ; Print pattern wall
G1 X210.537 Y225.4332 E0.97485 F9000 ; Print pattern wall
G1 E-0.5 F3300 ; Retract
G1 Z0.75 F18000 ; Z hop
G0 X211.1127 Y183.0068 F18000 ; Move to start next pattern wall
G1 Z0.65 F18000 ; Z hop return
G1 E0.5 F1500 ; Un-retract
G1 X232.3259 Y204.22 E0.97485 F9000 ; Print pattern wall
G1 X211.1127 Y225.4332 E0.97485 F9000 ; Print pattern wall
G1 E-0.5 F3300 ; Retract
G1 Z0.75 F18000 ; Z hop
G0 X213.5627 Y183.0068 F18000 ; Move to next pattern
G1 Z0.65 F18000 ; Z hop return
G1 E0.5 F1500 ; Un-retract
SET_PRESSURE_ADVANCE ADVANCE=0.06 ; Set pressure advance
M117 PA 0.06
G1 X234.7759 Y204.22 E0.97485 F9000 ; Print pattern wall
G1 X213.5627 Y225.4332 E0.97485 F9000 ; Print pattern wall
G1 E-0.5 F3300 ; Retract
G1 Z0.75 F18000 ; Z hop
G0 X214.1384 Y183.0068 F18000 ; Move to start next pattern wall
G1 Z0.65 F18000 ; Z hop return
G1 E0.5 F1500 ; Un-retract
G1 X235.3516 Y204.22 E0.97485 F9000 ; Print pattern wall
G1 X214.1384 Y225.4332 E0.97485 F9000 ; Print pattern wall
G1 E-0.5 F3300 ; Retract
G1 Z0.75 F18000 ; Z hop
G0 X214.7141 Y183.0068 F18000 ; Move to start next pattern wall
G1 Z0.65 F18000 ; Z hop return
G1 E0.5 F1500 ; Un-retract
G1 X235.9273 Y204.22 E0.97485 F9000 ; Print pattern wall
G1 X214.7141 Y225.4332 E0.97485 F9000 ; Print pattern wall
G1 E-0.5 F3300 ; Retract
G1 Z0.75 F18000 ; Z hop
G0 X217.1641 Y183.0068 F18000 ; Move to next pattern
G1 Z0.65 F18000 ; Z hop return
G1 E0.5 F1500 ; Un-retract
SET_PRESSURE_ADVANCE ADVANCE=0.065 ; Set pressure advance
M117 PA 0.065
G1 X238.3773 Y204.22 E0.97485 F9000 ; Print pattern wall
G1 X217.1641 Y225.4332 E0.97485 F9000 ; Print pattern wall
G1 E-0.5 F3300 ; Retract
G1 Z0.75 F18000 ; Z hop
G0 X217.7398 Y183.0068 F18000 ; Move to start next pattern wall
G1 Z0.65 F18000 ; Z hop return
G1 E0.5 F1500 ; Un-retract
G1 X238.953 Y204.22 E0.97485 F9000 ; Print pattern wall
G1 X217.7398 Y225.4332 E0.97485 F9000 ; Print pattern wall
G1 E-0.5 F3300 ; Retract
G1 Z0.75 F18000 ; Z hop
G0 X218.3155 Y183.0068 F18000 ; Move to start next pattern wall
G1 Z0.65 F18000 ; Z hop return
G1 E0.5 F1500 ; Un-retract
G1 X239.5287 Y204.22 E0.97485 F9000 ; Print pattern wall
G1 X218.3155 Y225.4332 E0.97485 F9000 ; Print pattern wall
G1 E-0.5 F3300 ; Retract
G1 Z0.75 F18000 ; Z hop
G0 X220.7655 Y183.0068 F18000 ; Move to next pattern
G1 Z0.65 F18000 ; Z hop return
G1 E0.5 F1500 ; Un-retract
SET_PRESSURE_ADVANCE ADVANCE=0.07 ; Set pressure advance
M117 PA 0.07
G1 X241.9787 Y204.22 E0.97485 F9000 ; Print pattern wall
G1 X220.7655 Y225.4332 E0.97485 F9000 ; Print pattern wall
G1 E-0.5 F3300 ; Retract
G1 Z0.75 F18000 ; Z hop
G0 X221.3412 Y183.0068 F18000 ; Move to start next pattern wall
G1 Z0.65 F18000 ; Z hop return
G1 E0.5 F1500 ; Un-retract
G1 X242.5544 Y204.22 E0.97485 F9000 ; Print pattern wall
G1 X221.3412 Y225.4332 E0.97485 F9000 ; Print pattern wall
G1 E-0.5 F3300 ; Retract
G1 Z0.75 F18000 ; Z hop
G0 X221.9169 Y183.0068 F18000 ; Move to start next pattern wall
G1 Z0.65 F18000 ; Z hop return
G1 E0.5 F1500 ; Un-retract
G1 X243.1301 Y204.22 E0.97485 F9000 ; Print pattern wall
G1 X221.9169 Y225.4332 E0.97485 F9000 ; Print pattern wall
G1 E-0.5 F3300 ; Retract
G1 Z0.75 F18000 ; Z hop
G0 X224.3669 Y183.0068 F18000 ; Move to next pattern
G1 Z0.65 F18000 ; Z hop return
G1 E0.5 F1500 ; Un-retract
SET_PRESSURE_ADVANCE ADVANCE=0.075 ; Set pressure advance
M117 PA 0.075
G1 X245.5801 Y204.22 E0.97485 F9000 ; Print pattern wall
G1 X224.3669 Y225.4332 E0.97485 F9000 ; Print pattern wall
G1 E-0.5 F3300 ; Retract
G1 Z0.75 F18000 ; Z hop
G0 X224.9426 Y183.0068 F18000 ; Move to start next pattern wall
G1 Z0.65 F18000 ; Z hop return
G1 E0.5 F1500 ; Un-retract
G1 X246.1558 Y204.22 E0.97485 F9000 ; Print pattern wall
G1 X224.9426 Y225.4332 E0.97485 F9000 ; Print pattern wall
G1 E-0.5 F3300 ; Retract
G1 Z0.75 F18000 ; Z hop
G0 X225.5183 Y183.0068 F18000 ; Move to start next pattern wall
G1 Z0.65 F18000 ; Z hop return
G1 E0.5 F1500 ; Un-retract
G1 X246.7315 Y204.22 E0.97485 F9000 ; Print pattern wall
G1 X225.5183 Y225.4332 E0.97485 F9000 ; Print pattern wall
G1 E-0.5 F3300 ; Retract
G1 Z0.75 F18000 ; Z hop
G0 X227.9683 Y183.0068 F18000 ; Move to next pattern
G1 Z0.65 F18000 ; Z hop return
G1 E0.5 F1500 ; Un-retract
SET_PRESSURE_ADVANCE ADVANCE=0.08 ; Set pressure advance
M117 PA 0.08
G1 X249.1815 Y204.22 E0.97485 F9000 ; Print pattern wall
G1 X227.9683 Y225.4332 E0.97485 F9000 ; Print pattern wall
G1 E-0.5 F3300 ; Retract
G1 Z0.75 F18000 ; Z hop
G0 X228.544 Y183.0068 F18000 ; Move to start next pattern wall
G1 Z0.65 F18000 ; Z hop return
G1 E0.5 F1500 ; Un-retract
G1 X249.7572 Y204.22 E0.97485 F9000 ; Print pattern wall
G1 X228.544 Y225.4332 E0.97485 F9000 ; Print pattern wall
G1 E-0.5 F3300 ; Retract
G1 Z0.75 F18000 ; Z hop
G0 X229.1197 Y183.0068 F18000 ; Move to start next pattern wall
G1 Z0.65 F18000 ; Z hop return
G1 E0.5 F1500 ; Un-retract
G1 X250.3329 Y204.22 E0.97485 F9000 ; Print pattern wall
G1 X229.1197 Y225.4332 E0.97485 F9000 ; Print pattern wall
G1 E-0.5 F3300 ; Retract
G1 Z0.75 F18000 ; Z hop
G0 X170.346 Y183.0068 F18000 ; Move back to start position
G1 Z0.65 F18000 ; Z hop return
G1 E0.5 F1500 ; Un-retract
G0 Z0.85 F18000 ; Move to layer height
SET_PRESSURE_ADVANCE ADVANCE=0 ; Set pressure advance
M117 PA 0
G1 X191.5592 Y204.22 E0.97485 F9000 ; Print pattern wall
G1 X170.346 Y225.4332 E0.97485 F9000 ; Print pattern wall
G1 E-0.5 F3300 ; Retract
G1 Z0.95 F18000 ; Z hop
G0 X170.9217 Y183.0068 F18000 ; Move to start next pattern wall
G1 Z0.85 F18000 ; Z hop return
G1 E0.5 F1500 ; Un-retract
G1 X192.1349 Y204.22 E0.97485 F9000 ; Print pattern wall
G1 X170.9217 Y225.4332 E0.97485 F9000 ; Print pattern wall
G1 E-0.5 F3300 ; Retract
G1 Z0.95 F18000 ; Z hop
G0 X171.4974 Y183.0068 F18000 ; Move to start next pattern wall
G1 Z0.85 F18000 ; Z hop return
G1 E0.5 F1500 ; Un-retract
G1 X192.7106 Y204.22 E0.97485 F9000 ; Print pattern wall
G1 X171.4974 Y225.4332 E0.97485 F9000 ; Print pattern wall
G1 E-0.5 F3300 ; Retract
G1 Z0.95 F18000 ; Z hop
G0 X173.9474 Y183.0068 F18000 ; Move to next pattern
G1 Z0.85 F18000 ; Z hop return
G1 E0.5 F1500 ; Un-retract
SET_PRESSURE_ADVANCE ADVANCE=0.005 ; Set pressure advance
M117 PA 0.005
G1 X195.1606 Y204.22 E0.97485 F9000 ; Print pattern wall
G1 X173.9474 Y225.4332 E0.97485 F9000 ; Print pattern wall
G1 E-0.5 F3300 ; Retract
G1 Z0.95 F18000 ; Z hop
G0 X174.5231 Y183.0068 F18000 ; Move to start next pattern wall
G1 Z0.85 F18000 ; Z hop return
G1 E0.5 F1500 ; Un-retract
G1 X195.7363 Y204.22 E0.97485 F9000 ; Print pattern wall
G1 X174.5231 Y225.4332 E0.97485 F9000 ; Print pattern wall
G1 E-0.5 F3300 ; Retract
G1 Z0.95 F18000 ; Z hop
G0 X175.0988 Y183.0068 F18000 ; Move to start next pattern wall
G1 Z0.85 F18000 ; Z hop return
G1 E0.5 F1500 ; Un-retract
G1 X196.312 Y204.22 E0.97485 F9000 ; Print pattern wall
G1 X175.0988 Y225.4332 E0.97485 F9000 ; Print pattern wall
G1 E-0.5 F3300 ; Retract
G1 Z0.95 F18000 ; Z hop
G0 X177.5488 Y183.0068 F18000 ; Move to next pattern
G1 Z0.85 F18000 ; Z hop return
G1 E0.5 F1500 ; Un-retract
SET_PRESSURE_ADVANCE ADVANCE=0.01 ; Set pressure advance
M117 PA 0.01
G1 X198.762 Y204.22 E0.97485 F9000 ; Print pattern wall
G1 X177.5488 Y225.4332 E0.97485 F9000 ; Print pattern wall
G1 E-0.5 F3300 ; Retract
G1 Z0.95 F18000 ; Z hop
G0 X178.1245 Y183.0068 F18000 ; Move to start next pattern wall
G1 Z0.85 F18000 ; Z hop return
G1 E0.5 F1500 ; Un-retract
G1 X199.3377 Y204.22 E0.97485 F9000 ; Print pattern wall
G1 X178.1245 Y225.4332 E0.97485 F9000 ; Print pattern wall
G1 E-0.5 F3300 ; Retract
G1 Z0.95 F18000 ; Z hop
G0 X178.7002 Y183.0068 F18000 ; Move to start next pattern wall
G1 Z0.85 F18000 ; Z hop return
G1 E0.5 F1500 ; Un-retract
G1 X199.9134 Y204.22 E0.97485 F9000 ; Print pattern wall
G1 X178.7002 Y225.4332 E0.97485 F9000 ; Print pattern wall
G1 E-0.5 F3300 ; Retract
G1 Z0.95 F18000 ; Z hop
G0 X181.1502 Y183.0068 F18000 ; Move to next pattern
G1 Z0.85 F18000 ; Z hop return
G1 E0.5 F1500 ; Un-retract
SET_PRESSURE_ADVANCE ADVANCE=0.015 ; Set pressure advance
M117 PA 0.015
G1 X202.3634 Y204.22 E0.97485 F9000 ; Print pattern wall
G1 X181.1502 Y225.4332 E0.97485 F9000 ; Print pattern wall
G1 E-0.5 F3300 ; Retract
G1 Z0.95 F18000 ; Z hop
G0 X181.7259 Y183.0068 F18000 ; Move to start next pattern wall
G1 Z0.85 F18000 ; Z hop return
G1 E0.5 F1500 ; Un-retract
G1 X202.9391 Y204.22 E0.97485 F9000 ; Print pattern wall
G1 X181.7259 Y225.4332 E0.97485 F9000 ; Print pattern wall
G1 E-0.5 F3300 ; Retract
G1 Z0.95 F18000 ; Z hop
G0 X182.3016 Y183.0068 F18000 ; Move to start next pattern wall
G1 Z0.85 F18000 ; Z hop return
G1 E0.5 F1500 ; Un-retract
G1 X203.5148 Y204.22 E0.97485 F9000 ; Print pattern wall
G1 X182.3016 Y225.4332 E0.97485 F9000 ; Print pattern wall
G1 E-0.5 F3300 ; Retract
G1 Z0.95 F18000 ; Z hop
G0 X184.7516 Y183.0068 F18000 ; Move to next pattern
G1 Z0.85 F18000 ; Z hop return
G1 E0.5 F1500 ; Un-retract
SET_PRESSURE_ADVANCE ADVANCE=0.02 ; Set pressure advance
M117 PA 0.02
G1 X205.9648 Y204.22 E0.97485 F9000 ; Print pattern wall
G1 X184.7516 Y225.4332 E0.97485 F9000 ; Print pattern wall
G1 E-0.5 F3300 ; Retract
G1 Z0.95 F18000 ; Z hop
G0 X185.3273 Y183.0068 F18000 ; Move to start next pattern wall
G1 Z0.85 F18000 ; Z hop return
G1 E0.5 F1500 ; Un-retract
G1 X206.5405 Y204.22 E0.97485 F9000 ; Print pattern wall
G1 X185.3273 Y225.4332 E0.97485 F9000 ; Print pattern wall
G1 E-0.5 F3300 ; Retract
G1 Z0.95 F18000 ; Z hop
G0 X185.903 Y183.0068 F18000 ; Move to start next pattern wall
G1 Z0.85 F18000 ; Z hop return
G1 E0.5 F1500 ; Un-retract
G1 X207.1162 Y204.22 E0.97485 F9000 ; Print pattern wall
G1 X185.903 Y225.4332 E0.97485 F9000 ; Print pattern wall
G1 E-0.5 F3300 ; Retract
G1 Z0.95 F18000 ; Z hop
G0 X188.353 Y183.0068 F18000 ; Move to next pattern
G1 Z0.85 F18000 ; Z hop return
G1 E0.5 F1500 ; Un-retract
SET_PRESSURE_ADVANCE ADVANCE=0.025 ; Set pressure advance
M117 PA 0.025
G1 X209.5662 Y204.22 E0.97485 F9000 ; Print pattern wall
G1 X188.353 Y225.4332 E0.97485 F9000 ; Print pattern wall
G1 E-0.5 F3300 ; Retract
G1 Z0.95 F18000 ; Z hop
G0 X188.9287 Y183.0068 F18000 ; Move to start next pattern wall
G1 Z0.85 F18000 ; Z hop return
G1 E0.5 F1500 ; Un-retract
G1 X210.1419 Y204.22 E0.97485 F9000 ; Print pattern wall
G1 X188.9287 Y225.4332 E0.97485 F9000 ; Print pattern wall
G1 E-0.5 F3300 ; Retract
G1 Z0.95 F18000 ; Z hop
G0 X189.5044 Y183.0068 F18000 ; Move to start next pattern wall
G1 Z0.85 F18000 ; Z hop return
G1 E0.5 F1500 ; Un-retract
G1 X210.7176 Y204.22 E0.97485 F9000 ; Print pattern wall
G1 X189.5044 Y225.4332 E0.97485 F9000 ; Print pattern wall
G1 E-0.5 F3300 ; Retract
G1 Z0.95 F18000 ; Z hop
G0 X191.9544 Y183.0068 F18000 ; Move to next pattern
G1 Z0.85 F18000 ; Z hop return
G1 E0.5 F1500 ; Un-retract
SET_PRESSURE_ADVANCE ADVANCE=0.03 ; Set pressure advance
M117 PA 0.03
G1 X213.1676 Y204.22 E0.97485 F9000 ; Print pattern wall
G1 X191.9544 Y225.4332 E0.97485 F9000 ; Print pattern wall
G1 E-0.5 F3300 ; Retract
G1 Z0.95 F18000 ; Z hop
G0 X192.5301 Y183.0068 F18000 ; Move to start next pattern wall
G1 Z0.85 F18000 ; Z hop return
G1 E0.5 F1500 ; Un-retract
G1 X213.7433 Y204.22 E0.97485 F9000 ; Print pattern wall
G1 X192.5301 Y225.4332 E0.97485 F9000 ; Print pattern wall
G1 E-0.5 F3300 ; Retract
G1 Z0.95 F18000 ; Z hop
G0 X193.1058 Y183.0068 F18000 ; Move to start next pattern wall
G1 Z0.85 F18000 ; Z hop return
G1 E0.5 F1500 ; Un-retract
G1 X214.319 Y204.22 E0.97485 F9000 ; Print pattern wall
G1 X193.1058 Y225.4332 E0.97485 F9000 ; Print pattern wall
G1 E-0.5 F3300 ; Retract
G1 Z0.95 F18000 ; Z hop
G0 X195.5558 Y183.0068 F18000 ; Move to next pattern
G1 Z0.85 F18000 ; Z hop return
G1 E0.5 F1500 ; Un-retract
SET_PRESSURE_ADVANCE ADVANCE=0.035 ; Set pressure advance
M117 PA 0.035
G1 X216.769 Y204.22 E0.97485 F9000 ; Print pattern wall
G1 X195.5558 Y225.4332 E0.97485 F9000 ; Print pattern wall
G1 E-0.5 F3300 ; Retract
G1 Z0.95 F18000 ; Z hop
G0 X196.1315 Y183.0068 F18000 ; Move to start next pattern wall
G1 Z0.85 F18000 ; Z hop return
G1 E0.5 F1500 ; Un-retract
G1 X217.3447 Y204.22 E0.97485 F9000 ; Print pattern wall
G1 X196.1315 Y225.4332 E0.97485 F9000 ; Print pattern wall
G1 E-0.5 F3300 ; Retract
G1 Z0.95 F18000 ; Z hop
G0 X196.7072 Y183.0068 F18000 ; Move to start next pattern wall
G1 Z0.85 F18000 ; Z hop return
G1 E0.5 F1500 ; Un-retract
G1 X217.9204 Y204.22 E0.97485 F9000 ; Print pattern wall
G1 X196.7072 Y225.4332 E0.97485 F9000 ; Print pattern wall
G1 E-0.5 F3300 ; Retract
G1 Z0.95 F18000 ; Z hop
G0 X199.1572 Y183.0068 F18000 ; Move to next pattern
G1 Z0.85 F18000 ; Z hop return
G1 E0.5 F1500 ; Un-retract
SET_PRESSURE_ADVANCE ADVANCE=0.04 ; Set pressure advance
M117 PA 0.04
G1 X220.3704 Y204.22 E0.97485 F9000 ; Print pattern wall
G1 X199.1572 Y225.4332 E0.97485 F9000 ; Print pattern wall
G1 E-0.5 F3300 ; Retract
G1 Z0.95 F18000 ; Z hop
G0 X199.7329 Y183.0068 F18000 ; Move to start next pattern wall
G1 Z0.85 F18000 ; Z hop return
G1 E0.5 F1500 ; Un-retract
G1 X220.9461 Y204.22 E0.97485 F9000 ; Print pattern wall
G1 X199.7329 Y225.4332 E0.97485 F9000 ; Print pattern wall
G1 E-0.5 F3300 ; Retract
G1 Z0.95 F18000 ; Z hop
G0 X200.3086 Y183.0068 F18000 ; Move to start next pattern wall
G1 Z0.85 F18000 ; Z hop return
G1 E0.5 F1500 ; Un-retract
G1 X221.5218 Y204.22 E0.97485 F9000 ; Print pattern wall
G1 X200.3086 Y225.4332 E0.97485 F9000 ; Print pattern wall
G1 E-0.5 F3300 ; Retract
G1 Z0.95 F18000 ; Z hop
G0 X202.7586 Y183.0068 F18000 ; Move to next pattern
G1 Z0.85 F18000 ; Z hop return
G1 E0.5 F1500 ; Un-retract
SET_PRESSURE_ADVANCE ADVANCE=0.045 ; Set pressure advance
M117 PA 0.045
G1 X223.9718 Y204.22 E0.97485 F9000 ; Print pattern wall
G1 X202.7586 Y225.4332 E0.97485 F9000 ; Print pattern wall
G1 E-0.5 F3300 ; Retract
G1 Z0.95 F18000 ; Z hop
G0 X203.3343 Y183.0068 F18000 ; Move to start next pattern wall
G1 Z0.85 F18000 ; Z hop return
G1 E0.5 F1500 ; Un-retract
G1 X224.5475 Y204.22 E0.97485 F9000 ; Print pattern wall
G1 X203.3343 Y225.4332 E0.97485 F9000 ; Print pattern wall
G1 E-0.5 F3300 ; Retract
G1 Z0.95 F18000 ; Z hop
G0 X203.91 Y183.0068 F18000 ; Move to start next pattern wall
G1 Z0.85 F18000 ; Z hop return
G1 E0.5 F1500 ; Un-retract
G1 X225.1232 Y204.22 E0.97485 F9000 ; Print pattern wall
G1 X203.91 Y225.4332 E0.97485 F9000 ; Print pattern wall
G1 E-0.5 F3300 ; Retract
G1 Z0.95 F18000 ; Z hop
G0 X206.36 Y183.0068 F18000 ; Move to next pattern
G1 Z0.85 F18000 ; Z hop return
G1 E0.5 F1500 ; Un-retract
SET_PRESSURE_ADVANCE ADVANCE=0.05 ; Set pressure advance
M117 PA 0.05
G1 X227.5732 Y204.22 E0.97485 F9000 ; Print pattern wall
G1 X206.36 Y225.4332 E0.97485 F9000 ; Print pattern wall
G1 E-0.5 F3300 ; Retract
G1 Z0.95 F18000 ; Z hop
G0 X206.9357 Y183.0068 F18000 ; Move to start next pattern wall
G1 Z0.85 F18000 ; Z hop return
G1 E0.5 F1500 ; Un-retract
G1 X228.1489 Y204.22 E0.97485 F9000 ; Print pattern wall
G1 X206.9357 Y225.4332 E0.97485 F9000 ; Print pattern wall
G1 E-0.5 F3300 ; Retract
G1 Z0.95 F18000 ; Z hop
G0 X207.5113 Y183.0068 F18000 ; Move to start next pattern wall
G1 Z0.85 F18000 ; Z hop return
G1 E0.5 F1500 ; Un-retract
G1 X228.7246 Y204.22 E0.97485 F9000 ; Print pattern wall
G1 X207.5113 Y225.4332 E0.97485 F9000 ; Print pattern wall
G1 E-0.5 F3300 ; Retract
G1 Z0.95 F18000 ; Z hop
G0 X209.9613 Y183.0068 F18000 ; Move to next pattern
G1 Z0.85 F18000 ; Z hop return
G1 E0.5 F1500 ; Un-retract
SET_PRESSURE_ADVANCE ADVANCE=0.055 ; Set pressure advance
M117 PA 0.055
G1 X231.1746 Y204.22 E0.97485 F9000 ; Print pattern wall
G1 X209.9613 Y225.4332 E0.97485 F9000 ; Print pattern wall
G1 E-0.5 F3300 ; Retract
G1 Z0.95 F18000 ; Z hop
G0 X210.537 Y183.0068 F18000 ; Move to start next pattern wall
G1 Z0.85 F18000 ; Z hop return
G1 E0.5 F1500 ; Un-retract
G1 X231.7502 Y204.22 E0.97485 F9000 ; Print pattern wall
G1 X210.537 Y225.4332 E0.97485 F9000 ; Print pattern wall
G1 E-0.5 F3300 ; Retract
G1 Z0.95 F18000 ; Z hop
G0 X211.1127 Y183.0068 F18000 ; Move to start next pattern wall
G1 Z0.85 F18000 ; Z hop return
G1 E0.5 F1500 ; Un-retract
G1 X232.3259 Y204.22 E0.97485 F9000 ; Print pattern wall
G1 X211.1127 Y225.4332 E0.97485 F9000 ; Print pattern wall
G1 E-0.5 F3300 ; Retract
G1 Z0.95 F18000 ; Z hop
G0 X213.5627 Y183.0068 F18000 ; Move to next pattern
G1 Z0.85 F18000 ; Z hop return
G1 E0.5 F1500 ; Un-retract
SET_PRESSURE_ADVANCE ADVANCE=0.06 ; Set pressure advance
M117 PA 0.06
G1 X234.7759 Y204.22 E0.97485 F9000 ; Print pattern wall
G1 X213.5627 Y225.4332 E0.97485 F9000 ; Print pattern wall
G1 E-0.5 F3300 ; Retract
G1 Z0.95 F18000 ; Z hop
G0 X214.1384 Y183.0068 F18000 ; Move to start next pattern wall
G1 Z0.85 F18000 ; Z hop return
G1 E0.5 F1500 ; Un-retract
G1 X235.3516 Y204.22 E0.97485 F9000 ; Print pattern wall
G1 X214.1384 Y225.4332 E0.97485 F9000 ; Print pattern wall
G1 E-0.5 F3300 ; Retract
G1 Z0.95 F18000 ; Z hop
G0 X214.7141 Y183.0068 F18000 ; Move to start next pattern wall
G1 Z0.85 F18000 ; Z hop return
G1 E0.5 F1500 ; Un-retract
G1 X235.9273 Y204.22 E0.97485 F9000 ; Print pattern wall
G1 X214.7141 Y225.4332 E0.97485 F9000 ; Print pattern wall
G1 E-0.5 F3300 ; Retract
G1 Z0.95 F18000 ; Z hop
G0 X217.1641 Y183.0068 F18000 ; Move to next pattern
G1 Z0.85 F18000 ; Z hop return
G1 E0.5 F1500 ; Un-retract
SET_PRESSURE_ADVANCE ADVANCE=0.065 ; Set pressure advance
M117 PA 0.065
G1 X238.3773 Y204.22 E0.97485 F9000 ; Print pattern wall
G1 X217.1641 Y225.4332 E0.97485 F9000 ; Print pattern wall
G1 E-0.5 F3300 ; Retract
G1 Z0.95 F18000 ; Z hop
G0 X217.7398 Y183.0068 F18000 ; Move to start next pattern wall
G1 Z0.85 F18000 ; Z hop return
G1 E0.5 F1500 ; Un-retract
G1 X238.953 Y204.22 E0.97485 F9000 ; Print pattern wall
G1 X217.7398 Y225.4332 E0.97485 F9000 ; Print pattern wall
G1 E-0.5 F3300 ; Retract
G1 Z0.95 F18000 ; Z hop
G0 X218.3155 Y183.0068 F18000 ; Move to start next pattern wall
G1 Z0.85 F18000 ; Z hop return
G1 E0.5 F1500 ; Un-retract
G1 X239.5287 Y204.22 E0.97485 F9000 ; Print pattern wall
G1 X218.3155 Y225.4332 E0.97485 F9000 ; Print pattern wall
G1 E-0.5 F3300 ; Retract
G1 Z0.95 F18000 ; Z hop
G0 X220.7655 Y183.0068 F18000 ; Move to next pattern
G1 Z0.85 F18000 ; Z hop return
G1 E0.5 F1500 ; Un-retract
SET_PRESSURE_ADVANCE ADVANCE=0.07 ; Set pressure advance
M117 PA 0.07
G1 X241.9787 Y204.22 E0.97485 F9000 ; Print pattern wall
G1 X220.7655 Y225.4332 E0.97485 F9000 ; Print pattern wall
G1 E-0.5 F3300 ; Retract
G1 Z0.95 F18000 ; Z hop
G0 X221.3412 Y183.0068 F18000 ; Move to start next pattern wall
G1 Z0.85 F18000 ; Z hop return
G1 E0.5 F1500 ; Un-retract
G1 X242.5544 Y204.22 E0.97485 F9000 ; Print pattern wall
G1 X221.3412 Y225.4332 E0.97485 F9000 ; Print pattern wall
G1 E-0.5 F3300 ; Retract
G1 Z0.95 F18000 ; Z hop
G0 X221.9169 Y183.0068 F18000 ; Move to start next pattern wall
G1 Z0.85 F18000 ; Z hop return
G1 E0.5 F1500 ; Un-retract
G1 X243.1301 Y204.22 E0.97485 F9000 ; Print pattern wall
G1 X221.9169 Y225.4332 E0.97485 F9000 ; Print pattern wall
G1 E-0.5 F3300 ; Retract
G1 Z0.95 F18000 ; Z hop
G0 X224.3669 Y183.0068 F18000 ; Move to next pattern
G1 Z0.85 F18000 ; Z hop return
G1 E0.5 F1500 ; Un-retract
SET_PRESSURE_ADVANCE ADVANCE=0.075 ; Set pressure advance
M117 PA 0.075
G1 X245.5801 Y204.22 E0.97485 F9000 ; Print pattern wall
G1 X224.3669 Y225.4332 E0.97485 F9000 ; Print pattern wall
G1 E-0.5 F3300 ; Retract
G1 Z0.95 F18000 ; Z hop
G0 X224.9426 Y183.0068 F18000 ; Move to start next pattern wall
G1 Z0.85 F18000 ; Z hop return
G1 E0.5 F1500 ; Un-retract
G1 X246.1558 Y204.22 E0.97485 F9000 ; Print pattern wall
G1 X224.9426 Y225.4332 E0.97485 F9000 ; Print pattern wall
G1 E-0.5 F3300 ; Retract
G1 Z0.95 F18000 ; Z hop
G0 X225.5183 Y183.0068 F18000 ; Move to start next pattern wall
G1 Z0.85 F18000 ; Z hop return
G1 E0.5 F1500 ; Un-retract
G1 X246.7315 Y204.22 E0.97485 F9000 ; Print pattern wall
G1 X225.5183 Y225.4332 E0.97485 F9000 ; Print pattern wall
G1 E-0.5 F3300 ; Retract
G1 Z0.95 F18000 ; Z hop
G0 X227.9683 Y183.0068 F18000 ; Move to next pattern
G1 Z0.85 F18000 ; Z hop return
G1 E0.5 F1500 ; Un-retract
SET_PRESSURE_ADVANCE ADVANCE=0.08 ; Set pressure advance
M117 PA 0.08
G1 X249.1815 Y204.22 E0.97485 F9000 ; Print pattern wall
G1 X227.9683 Y225.4332 E0.97485 F9000 ; Print pattern wall
G1 E-0.5 F3300 ; Retract
G1 Z0.95 F18000 ; Z hop
G0 X228.544 Y183.0068 F18000 ; Move to start next pattern wall
G1 Z0.85 F18000 ; Z hop return
G1 E0.5 F1500 ; Un-retract
G1 X249.7572 Y204.22 E0.97485 F9000 ; Print pattern wall
G1 X228.544 Y225.4332 E0.97485 F9000 ; Print pattern wall
G1 E-0.5 F3300 ; Retract
G1 Z0.95 F18000 ; Z hop
G0 X229.1197 Y183.0068 F18000 ; Move to start next pattern wall
G1 Z0.85 F18000 ; Z hop return
G1 E0.5 F1500 ; Un-retract
G1 X250.3329 Y204.22 E0.97485 F9000 ; Print pattern wall
G1 X229.1197 Y225.4332 E0.97485 F9000 ; Print pattern wall
SET_PRESSURE_ADVANCE ADVANCE=0 ; Set pressure advance back to start value
M117 PA 0
G1 E-0.5 F3300 ; Retract
G1 Z0.95 F18000 ; Z hop
G0 Z5.85 F18000 ; Z raise
M104 S0 ; Turn off hotend
M140 S0 ; Turn off bed
M107    ; Turn off fan
;
; End G-code
;
G91 ;Relative positionning
G1 E-2 F2700 ;Retract a bit
G1 E-8 X5 Y5 Z3 F3000 ;Retract
G90 ;Absolute positionning
G1 X10 Y300 F6000;Finish print
M106 S0 ;Turn-off fan
M104 S0 ;Turn-off hotend
M140 S0 ;Turn-off bed
M84 X Y E ;Disable all steppers but Z
;
; FINISH
;
