
; ### Ellis' Pressure Advance / Linear Advance Calibration Tool ###
;
; Original Marlin linear advance calibration tool by Sineos [https://github.com/Sineos]
; Heavily modified/rewritten by Andrew Ellis [https://github.com/AndrewEllis93]
;
; -------------------------------------------
; Generated: Sat Dec 02 2023 11:18:22 GMT+0100 (heure normale d’Europe centrale)
; -------------------------------------------
;
; Advanced Mode: false
;
; Printer:
;  - Firmware: klipper
;  - Bed Shape: Rect
;  - Bed Size X: 330 mm
;  - Bed Size Y: 330 mm
;  - Origin Bed Center: false
;  - Travel Speed: 300 mm/s
;  - Nozzle Diameter: 0.4 mm
;  - Filament Diameter: 1.75 mm
;  - Extrusion Multiplier: 0.96
;
; Retraction / Z Hop:
;  - Retraction Distance: 0.5 mm
;  - Retract Speed: 55 mm/s
;  - Unretract Speed: 25 mm/s
;  - Z Hop Enable: true
;  - Z Hop Height: 0.1mm
;
; First Layer Settings:
;  - First Layer Height: 0.25 mm
;  - First Layer Printing Speed: 30 mm/s
;  - First Layer Fan Speed: 0%
;  - Anchor Option: anchor_frame
;
; Print Settings:
;  - Layer Height: 0.2 mm
;  - Print Speed: 150 mm/s
;  - Acceleration: Disabled
;  - Fan Speed: 100%
;
; Pressure Advance Stepping:
;  - PA Start Value: 0
;  - PA End Value: 0.08
;  - PA Increment: 0.005
;
; Start / End G-code:
;  - Hotend Temp: 220C
;  - Bed Temp: 60C
;  - Don't Add G28: false
;  - Don't Add Heating G-Codes: false
;
; Calculated Values:
;  - Print Size X: 84.72 mm
;  - Print Size Y: 53.99 mm
;  - Number of Patterns to Print: 17
;  - PA Values: 0, 0.005, 0.01, 0.015, 0.02, 0.025, 0.03, 0.035, 0.04, 0.045, 0.05, 0.055, 0.06, 0.065, 0.07, 0.075, 0.08
;
; Prepare printing
;
M220 S100 ;Set the feed speed to 100%
M221 S100 ;Set the flow rate to 100%
M104 S220
M190 S60
G90
G28 ;home
M190 S60 ; Set & wait for bed temp
M109 S220 ; Set & wait for hotend temp
G1 Z10 F300
G1 X115 Y0 F6000
G1 Z0 F300
M109 S220
G92 E0 ;Reset Extruder
G1 X115 Y0 Z0.4 F300 ;Move to start position
G1 X215.0 E30 F400 ;Draw the first line
G1 Z0.6 F120.0 ;Move to side a little
G1 X210 F3000
G92 E0 ;Reset Extruder
G21 ; Millimeter units
G90 ; Absolute XYZ
M83 ; Relative E
G92 E0 ; Reset extruder distance
;
;  Begin printing
;
M106 S0 ; Set fan speed
G1 E-0.5 F3300 ; Retract
G0 Z5 F18000 ; Z raise
G0 X122.6417 Y138.0068 F18000 ; Move to start position
G0 Z0.25 F18000 ; Move to start layer height
G1 E0.5 F1500 ; Un-retract
SET_PRESSURE_ADVANCE ADVANCE=0 ; Set pressure advance to start value
M117 PA 0
G1 X122.6417 Y180.4332 E2.14354 F1800 ; Draw perimeter (up)
G1 X207.3583 Y180.4332 E4.2802 F1800 ; Draw perimeter (right)
G1 X207.3583 Y138.0068 E2.14354 F1800 ; Draw perimeter (down)
G1 X122.6417 Y138.0068 E4.2802 F1800 ; Draw perimeter (left)
G0 X123.148 Y138.5131 F18000 ; Step inwards to print next perimeter
G1 X123.148 Y179.9269 E2.09238 F1800 ; Draw perimeter (up)
G1 X206.852 Y179.9269 E4.22904 F1800 ; Draw perimeter (right)
G1 X206.852 Y138.5131 E2.09238 F1800 ; Draw perimeter (down)
G1 X123.148 Y138.5131 E4.22904 F1800 ; Draw perimeter (left)
G0 X123.6544 Y139.0195 F18000 ; Step inwards to print next perimeter
G1 X123.6544 Y179.4205 E2.04121 F1800 ; Draw perimeter (up)
G1 X206.3456 Y179.4205 E4.17787 F1800 ; Draw perimeter (right)
G1 X206.3456 Y139.0195 E2.04121 F1800 ; Draw perimeter (down)
G1 X123.6544 Y139.0195 E4.17787 F1800 ; Draw perimeter (left)
G0 X124.1607 Y139.5258 F18000 ; Step inwards to print next perimeter
G1 X124.1607 Y178.9142 E1.99005 F1800 ; Draw perimeter (up)
G1 X205.8393 Y178.9142 E4.12671 F1800 ; Draw perimeter (right)
G1 X205.8393 Y139.5258 E1.99005 F1800 ; Draw perimeter (down)
G1 X124.1607 Y139.5258 E4.12671 F1800 ; Draw perimeter (left)
G1 E-0.5 F3300 ; Retract
G1 Z0.35 F18000 ; Z hop
G0 X122.6417 Y180.9396 F18000 ; Move to box start
G1 Z0.25 F18000 ; Z hop return
G1 E0.5 F1500 ; Un-retract
G1 X122.6417 Y192.4459 E0.58134 F1800 ; Draw perimeter (up)
G1 X186.8962 Y192.4459 E3.24638 F1800 ; Draw perimeter (right)
G1 X186.8962 Y180.9396 E0.58134 F1800 ; Draw perimeter (down)
G1 X122.6417 Y180.9396 E3.24638 F1800 ; Draw perimeter (left)
G0 X123.148 Y181.4459 F18000 ; Step inwards to print next perimeter
G1 X123.148 Y191.9396 E0.53018 F1800 ; Draw perimeter (up)
G1 X186.3898 Y191.9396 E3.19521 F1800 ; Draw perimeter (right)
G1 X186.3898 Y181.4459 E0.53018 F1800 ; Draw perimeter (down)
G1 X123.148 Y181.4459 E3.19521 F1800 ; Draw perimeter (left)
G0 X123.6544 Y181.9523 F18000 ; Step inwards to print next perimeter
G1 X123.6544 Y191.4332 E0.47901 F1800 ; Draw perimeter (up)
G1 X185.8835 Y191.4332 E3.14405 F1800 ; Draw perimeter (right)
G1 X185.8835 Y181.9523 E0.47901 F1800 ; Draw perimeter (down)
G1 X123.6544 Y181.9523 E3.14405 F1800 ; Draw perimeter (left)
G0 X124.1607 Y182.4586 F18000 ; Step inwards to print next perimeter
G1 X124.1607 Y190.9269 E0.42785 F1800 ; Draw perimeter (up)
G1 X185.3771 Y190.9269 E3.09288 F1800 ; Draw perimeter (right)
G1 X185.3771 Y182.4586 E0.42785 F1800 ; Draw perimeter (down)
G1 X124.1607 Y182.4586 E3.09288 F1800 ; Draw perimeter (left)
G0 X124.5341 Y182.8319 F18000 ; Move to fill start
G0 X125.2502 Y182.8319 F18000 ; Move
G1 X124.5341 Y183.548 E0.05117 F1800 ; Fill
G0 X124.5341 Y184.2641 F18000 ; Move
G1 X125.9663 Y182.8319 E0.10233 F1800 ; Fill
G0 X126.6823 Y182.8319 F18000 ; Move
G1 X124.5341 Y184.9802 E0.1535 F1800 ; Fill
G0 X124.5341 Y185.6963 F18000 ; Move
G1 X127.3984 Y182.8319 E0.20466 F1800 ; Fill
G0 X128.1145 Y182.8319 F18000 ; Move
G1 X124.5341 Y186.4124 E0.25583 F1800 ; Fill
G0 X124.5341 Y187.1285 F18000 ; Move
G1 X128.8306 Y182.8319 E0.30699 F1800 ; Fill
G0 X129.5467 Y182.8319 F18000 ; Move
G1 X124.5341 Y187.8445 E0.35816 F1800 ; Fill
G0 X124.5341 Y188.5606 F18000 ; Move
G1 X130.2628 Y182.8319 E0.40932 F1800 ; Fill
G0 X130.9789 Y182.8319 F18000 ; Move
G1 X124.5341 Y189.2767 E0.46049 F1800 ; Fill
G0 X124.5341 Y189.9928 F18000 ; Move
G1 X131.6949 Y182.8319 E0.51165 F1800 ; Fill
G0 X132.411 Y182.8319 F18000 ; Move
G1 X124.6894 Y190.5535 E0.55172 F1800 ; Fill
G0 X125.4055 Y190.5535 F18000 ; Move
G1 X133.1271 Y182.8319 E0.55172 F1800 ; Fill
G0 X133.8432 Y182.8319 F18000 ; Move
G1 X126.1216 Y190.5535 E0.55172 F1800 ; Fill
G0 X126.8377 Y190.5535 F18000 ; Move
G1 X134.5593 Y182.8319 E0.55172 F1800 ; Fill
G0 X135.2754 Y182.8319 F18000 ; Move
G1 X127.5538 Y190.5535 E0.55172 F1800 ; Fill
G0 X128.2699 Y190.5535 F18000 ; Move
G1 X135.9915 Y182.8319 E0.55172 F1800 ; Fill
G0 X136.7076 Y182.8319 F18000 ; Move
G1 X128.986 Y190.5535 E0.55172 F1800 ; Fill
G0 X129.7021 Y190.5535 F18000 ; Move
G1 X137.4236 Y182.8319 E0.55172 F1800 ; Fill
G0 X138.1397 Y182.8319 F18000 ; Move
G1 X130.4181 Y190.5535 E0.55172 F1800 ; Fill
G0 X131.1342 Y190.5535 F18000 ; Move
G1 X138.8558 Y182.8319 E0.55172 F1800 ; Fill
G0 X139.5719 Y182.8319 F18000 ; Move
G1 X131.8503 Y190.5535 E0.55172 F1800 ; Fill
G0 X132.5664 Y190.5535 F18000 ; Move
G1 X140.288 Y182.8319 E0.55172 F1800 ; Fill
G0 X141.0041 Y182.8319 F18000 ; Move
G1 X133.2825 Y190.5535 E0.55172 F1800 ; Fill
G0 X133.9986 Y190.5535 F18000 ; Move
G1 X141.7202 Y182.8319 E0.55172 F1800 ; Fill
G0 X142.4362 Y182.8319 F18000 ; Move
G1 X134.7147 Y190.5535 E0.55172 F1800 ; Fill
G0 X135.4307 Y190.5535 F18000 ; Move
G1 X143.1523 Y182.8319 E0.55172 F1800 ; Fill
G0 X143.8684 Y182.8319 F18000 ; Move
G1 X136.1468 Y190.5535 E0.55172 F1800 ; Fill
G0 X136.8629 Y190.5535 F18000 ; Move
G1 X144.5845 Y182.8319 E0.55172 F1800 ; Fill
G0 X145.3006 Y182.8319 F18000 ; Move
G1 X137.579 Y190.5535 E0.55172 F1800 ; Fill
G0 X138.2951 Y190.5535 F18000 ; Move
G1 X146.0167 Y182.8319 E0.55172 F1800 ; Fill
G0 X146.7328 Y182.8319 F18000 ; Move
G1 X139.0112 Y190.5535 E0.55172 F1800 ; Fill
G0 X139.7273 Y190.5535 F18000 ; Move
G1 X147.4488 Y182.8319 E0.55172 F1800 ; Fill
G0 X148.1649 Y182.8319 F18000 ; Move
G1 X140.4433 Y190.5535 E0.55172 F1800 ; Fill
G0 X141.1594 Y190.5535 F18000 ; Move
G1 X148.881 Y182.8319 E0.55172 F1800 ; Fill
G0 X149.5971 Y182.8319 F18000 ; Move
G1 X141.8755 Y190.5535 E0.55172 F1800 ; Fill
G0 X142.5916 Y190.5535 F18000 ; Move
G1 X150.3132 Y182.8319 E0.55172 F1800 ; Fill
G0 X151.0293 Y182.8319 F18000 ; Move
G1 X143.3077 Y190.5535 E0.55172 F1800 ; Fill
G0 X144.0238 Y190.5535 F18000 ; Move
G1 X151.7454 Y182.8319 E0.55172 F1800 ; Fill
G0 X152.4615 Y182.8319 F18000 ; Move
G1 X144.7399 Y190.5535 E0.55172 F1800 ; Fill
G0 X145.456 Y190.5535 F18000 ; Move
G1 X153.1775 Y182.8319 E0.55172 F1800 ; Fill
G0 X153.8936 Y182.8319 F18000 ; Move
G1 X146.172 Y190.5535 E0.55172 F1800 ; Fill
G0 X146.8881 Y190.5535 F18000 ; Move
G1 X154.6097 Y182.8319 E0.55172 F1800 ; Fill
G0 X155.3258 Y182.8319 F18000 ; Move
G1 X147.6042 Y190.5535 E0.55172 F1800 ; Fill
G0 X148.3203 Y190.5535 F18000 ; Move
G1 X156.0419 Y182.8319 E0.55172 F1800 ; Fill
G0 X156.758 Y182.8319 F18000 ; Move
G1 X149.0364 Y190.5535 E0.55172 F1800 ; Fill
G0 X149.7525 Y190.5535 F18000 ; Move
G1 X157.4741 Y182.8319 E0.55172 F1800 ; Fill
G0 X158.1901 Y182.8319 F18000 ; Move
G1 X150.4686 Y190.5535 E0.55172 F1800 ; Fill
G0 X151.1846 Y190.5535 F18000 ; Move
G1 X158.9062 Y182.8319 E0.55172 F1800 ; Fill
G0 X159.6223 Y182.8319 F18000 ; Move
G1 X151.9007 Y190.5535 E0.55172 F1800 ; Fill
G0 X152.6168 Y190.5535 F18000 ; Move
G1 X160.3384 Y182.8319 E0.55172 F1800 ; Fill
G0 X161.0545 Y182.8319 F18000 ; Move
G1 X153.3329 Y190.5535 E0.55172 F1800 ; Fill
G0 X154.049 Y190.5535 F18000 ; Move
G1 X161.7706 Y182.8319 E0.55172 F1800 ; Fill
G0 X162.4867 Y182.8319 F18000 ; Move
G1 X154.7651 Y190.5535 E0.55172 F1800 ; Fill
G0 X155.4812 Y190.5535 F18000 ; Move
G1 X163.2027 Y182.8319 E0.55172 F1800 ; Fill
G0 X163.9188 Y182.8319 F18000 ; Move
G1 X156.1972 Y190.5535 E0.55172 F1800 ; Fill
G0 X156.9133 Y190.5535 F18000 ; Move
G1 X164.6349 Y182.8319 E0.55172 F1800 ; Fill
G0 X165.351 Y182.8319 F18000 ; Move
G1 X157.6294 Y190.5535 E0.55172 F1800 ; Fill
G0 X158.3455 Y190.5535 F18000 ; Move
G1 X166.0671 Y182.8319 E0.55172 F1800 ; Fill
G0 X166.7832 Y182.8319 F18000 ; Move
G1 X159.0616 Y190.5535 E0.55172 F1800 ; Fill
G0 X159.7777 Y190.5535 F18000 ; Move
G1 X167.4993 Y182.8319 E0.55172 F1800 ; Fill
G0 X168.2154 Y182.8319 F18000 ; Move
G1 X160.4938 Y190.5535 E0.55172 F1800 ; Fill
G0 X161.2099 Y190.5535 F18000 ; Move
G1 X168.9314 Y182.8319 E0.55172 F1800 ; Fill
G0 X169.6475 Y182.8319 F18000 ; Move
G1 X161.9259 Y190.5535 E0.55172 F1800 ; Fill
G0 X162.642 Y190.5535 F18000 ; Move
G1 X170.3636 Y182.8319 E0.55172 F1800 ; Fill
G0 X171.0797 Y182.8319 F18000 ; Move
G1 X163.3581 Y190.5535 E0.55172 F1800 ; Fill
G0 X164.0742 Y190.5535 F18000 ; Move
G1 X171.7958 Y182.8319 E0.55172 F1800 ; Fill
G0 X172.5119 Y182.8319 F18000 ; Move
G1 X164.7903 Y190.5535 E0.55172 F1800 ; Fill
G0 X165.5064 Y190.5535 F18000 ; Move
G1 X173.228 Y182.8319 E0.55172 F1800 ; Fill
G0 X173.944 Y182.8319 F18000 ; Move
G1 X166.2225 Y190.5535 E0.55172 F1800 ; Fill
G0 X166.9385 Y190.5535 F18000 ; Move
G1 X174.6601 Y182.8319 E0.55172 F1800 ; Fill
G0 X175.3762 Y182.8319 F18000 ; Move
G1 X167.6546 Y190.5535 E0.55172 F1800 ; Fill
G0 X168.3707 Y190.5535 F18000 ; Move
G1 X176.0923 Y182.8319 E0.55172 F1800 ; Fill
G0 X176.8084 Y182.8319 F18000 ; Move
G1 X169.0868 Y190.5535 E0.55172 F1800 ; Fill
G0 X169.8029 Y190.5535 F18000 ; Move
G1 X177.5245 Y182.8319 E0.55172 F1800 ; Fill
G0 X178.2406 Y182.8319 F18000 ; Move
G1 X170.519 Y190.5535 E0.55172 F1800 ; Fill
G0 X171.2351 Y190.5535 F18000 ; Move
G1 X178.9566 Y182.8319 E0.55172 F1800 ; Fill
G0 X179.6727 Y182.8319 F18000 ; Move
G1 X171.9511 Y190.5535 E0.55172 F1800 ; Fill
G0 X172.6672 Y190.5535 F18000 ; Move
G1 X180.3888 Y182.8319 E0.55172 F1800 ; Fill
G0 X181.1049 Y182.8319 F18000 ; Move
G1 X173.3833 Y190.5535 E0.55172 F1800 ; Fill
G0 X174.0994 Y190.5535 F18000 ; Move
G1 X181.821 Y182.8319 E0.55172 F1800 ; Fill
G0 X182.5371 Y182.8319 F18000 ; Move
G1 X174.8155 Y190.5535 E0.55172 F1800 ; Fill
G0 X175.5316 Y190.5535 F18000 ; Move
G1 X183.2532 Y182.8319 E0.55172 F1800 ; Fill
G0 X183.9693 Y182.8319 F18000 ; Move
G1 X176.2477 Y190.5535 E0.55172 F1800 ; Fill
G0 X176.9638 Y190.5535 F18000 ; Move
G1 X184.6853 Y182.8319 E0.55172 F1800 ; Fill
G0 X185.0038 Y183.2296 F18000 ; Move
G1 X177.6798 Y190.5535 E0.52331 F1800 ; Fill
G0 X178.3959 Y190.5535 F18000 ; Move
G1 X185.0038 Y183.9457 E0.47214 F1800 ; Fill
G0 X185.0038 Y184.6617 F18000 ; Move
G1 X179.112 Y190.5535 E0.42098 F1800 ; Fill
G0 X179.8281 Y190.5535 F18000 ; Move
G1 X185.0038 Y185.3778 E0.36981 F1800 ; Fill
G0 X185.0038 Y186.0939 F18000 ; Move
G1 X180.5442 Y190.5535 E0.31865 F1800 ; Fill
G0 X181.2603 Y190.5535 F18000 ; Move
G1 X185.0038 Y186.81 E0.26748 F1800 ; Fill
G0 X185.0038 Y187.5261 F18000 ; Move
G1 X181.9764 Y190.5535 E0.21631 F1800 ; Fill
G0 X182.6924 Y190.5535 F18000 ; Move
G1 X185.0038 Y188.2422 E0.16515 F1800 ; Fill
G0 X185.0038 Y188.9583 F18000 ; Move
G1 X183.4085 Y190.5535 E0.11398 F1800 ; Fill
G0 X184.1246 Y190.5535 F18000 ; Move
G1 X185.0038 Y189.6744 E0.06282 F1800 ; Fill
G0 X185.0038 Y190.3904 F18000 ; Move
G1 X184.8407 Y190.5535 E0.01165 F1800 ; Fill
G0 Z0.25 F18000 ; Move to layer height
G1 E-0.5 F3300 ; Retract
G1 Z0.35 F18000 ; Z hop
G0 X127.2384 Y139.8992 F18000 ; Move to pattern start

G1 Z0.25 F18000 ; Z hop return
G1 E0.5 F1500 ; Un-retract
SET_PRESSURE_ADVANCE ADVANCE=0 ; Set pressure advance
M117 PA 0
G1 X146.5592 Y159.22 E1.0806 F1800 ; Print pattern wall
G1 X127.2384 Y178.5408 E1.0806 F1800 ; Print pattern wall
G1 E-0.5 F3300 ; Retract
G1 Z0.35 F18000 ; Z hop
G0 X127.8141 Y139.8992 F18000 ; Move to start next pattern wall
G1 Z0.25 F18000 ; Z hop return
G1 E0.5 F1500 ; Un-retract
G1 X147.1349 Y159.22 E1.0806 F1800 ; Print pattern wall
G1 X127.8141 Y178.5408 E1.0806 F1800 ; Print pattern wall
G1 E-0.5 F3300 ; Retract
G1 Z0.35 F18000 ; Z hop
G0 X128.3898 Y139.8992 F18000 ; Move to start next pattern wall
G1 Z0.25 F18000 ; Z hop return
G1 E0.5 F1500 ; Un-retract
G1 X147.7106 Y159.22 E1.0806 F1800 ; Print pattern wall
G1 X128.3898 Y178.5408 E1.0806 F1800 ; Print pattern wall
G1 E-0.5 F3300 ; Retract
G1 Z0.35 F18000 ; Z hop
G0 X130.8398 Y139.8992 F18000 ; Move to next pattern
G1 Z0.25 F18000 ; Z hop return
G1 E0.5 F1500 ; Un-retract
SET_PRESSURE_ADVANCE ADVANCE=0.005 ; Set pressure advance
M117 PA 0.005
G1 X150.1606 Y159.22 E1.0806 F1800 ; Print pattern wall
G1 X130.8398 Y178.5408 E1.0806 F1800 ; Print pattern wall
G1 E-0.5 F3300 ; Retract
G1 Z0.35 F18000 ; Z hop
G0 X131.4155 Y139.8992 F18000 ; Move to start next pattern wall
G1 Z0.25 F18000 ; Z hop return
G1 E0.5 F1500 ; Un-retract
G1 X150.7363 Y159.22 E1.0806 F1800 ; Print pattern wall
G1 X131.4155 Y178.5408 E1.0806 F1800 ; Print pattern wall
G1 E-0.5 F3300 ; Retract
G1 Z0.35 F18000 ; Z hop
G0 X131.9912 Y139.8992 F18000 ; Move to start next pattern wall
G1 Z0.25 F18000 ; Z hop return
G1 E0.5 F1500 ; Un-retract
G1 X151.312 Y159.22 E1.0806 F1800 ; Print pattern wall
G1 X131.9912 Y178.5408 E1.0806 F1800 ; Print pattern wall
G1 E-0.5 F3300 ; Retract
G1 Z0.35 F18000 ; Z hop
G0 X134.4412 Y139.8992 F18000 ; Move to next pattern
G1 Z0.25 F18000 ; Z hop return
G1 E0.5 F1500 ; Un-retract
SET_PRESSURE_ADVANCE ADVANCE=0.01 ; Set pressure advance
M117 PA 0.01
G1 X153.762 Y159.22 E1.0806 F1800 ; Print pattern wall
G1 X134.4412 Y178.5408 E1.0806 F1800 ; Print pattern wall
G1 E-0.5 F3300 ; Retract
G1 Z0.35 F18000 ; Z hop
G0 X135.0169 Y139.8992 F18000 ; Move to start next pattern wall
G1 Z0.25 F18000 ; Z hop return
G1 E0.5 F1500 ; Un-retract
G1 X154.3377 Y159.22 E1.0806 F1800 ; Print pattern wall
G1 X135.0169 Y178.5408 E1.0806 F1800 ; Print pattern wall
G1 E-0.5 F3300 ; Retract
G1 Z0.35 F18000 ; Z hop
G0 X135.5926 Y139.8992 F18000 ; Move to start next pattern wall
G1 Z0.25 F18000 ; Z hop return
G1 E0.5 F1500 ; Un-retract
G1 X154.9134 Y159.22 E1.0806 F1800 ; Print pattern wall
G1 X135.5926 Y178.5408 E1.0806 F1800 ; Print pattern wall
G1 E-0.5 F3300 ; Retract
G1 Z0.35 F18000 ; Z hop
G0 X138.0426 Y139.8992 F18000 ; Move to next pattern
G1 Z0.25 F18000 ; Z hop return
G1 E0.5 F1500 ; Un-retract
SET_PRESSURE_ADVANCE ADVANCE=0.015 ; Set pressure advance
M117 PA 0.015
G1 X157.3634 Y159.22 E1.0806 F1800 ; Print pattern wall
G1 X138.0426 Y178.5408 E1.0806 F1800 ; Print pattern wall
G1 E-0.5 F3300 ; Retract
G1 Z0.35 F18000 ; Z hop
G0 X138.6183 Y139.8992 F18000 ; Move to start next pattern wall
G1 Z0.25 F18000 ; Z hop return
G1 E0.5 F1500 ; Un-retract
G1 X157.9391 Y159.22 E1.0806 F1800 ; Print pattern wall
G1 X138.6183 Y178.5408 E1.0806 F1800 ; Print pattern wall
G1 E-0.5 F3300 ; Retract
G1 Z0.35 F18000 ; Z hop
G0 X139.194 Y139.8992 F18000 ; Move to start next pattern wall
G1 Z0.25 F18000 ; Z hop return
G1 E0.5 F1500 ; Un-retract
G1 X158.5148 Y159.22 E1.0806 F1800 ; Print pattern wall
G1 X139.194 Y178.5408 E1.0806 F1800 ; Print pattern wall
G1 E-0.5 F3300 ; Retract
G1 Z0.35 F18000 ; Z hop
G0 X141.644 Y139.8992 F18000 ; Move to next pattern
G1 Z0.25 F18000 ; Z hop return
G1 E0.5 F1500 ; Un-retract
SET_PRESSURE_ADVANCE ADVANCE=0.02 ; Set pressure advance
M117 PA 0.02
G1 X160.9648 Y159.22 E1.0806 F1800 ; Print pattern wall
G1 X141.644 Y178.5408 E1.0806 F1800 ; Print pattern wall
G1 E-0.5 F3300 ; Retract
G1 Z0.35 F18000 ; Z hop
G0 X142.2197 Y139.8992 F18000 ; Move to start next pattern wall
G1 Z0.25 F18000 ; Z hop return
G1 E0.5 F1500 ; Un-retract
G1 X161.5405 Y159.22 E1.0806 F1800 ; Print pattern wall
G1 X142.2197 Y178.5408 E1.0806 F1800 ; Print pattern wall
G1 E-0.5 F3300 ; Retract
G1 Z0.35 F18000 ; Z hop
G0 X142.7954 Y139.8992 F18000 ; Move to start next pattern wall
G1 Z0.25 F18000 ; Z hop return
G1 E0.5 F1500 ; Un-retract
G1 X162.1162 Y159.22 E1.0806 F1800 ; Print pattern wall
G1 X142.7954 Y178.5408 E1.0806 F1800 ; Print pattern wall
G1 E-0.5 F3300 ; Retract
G1 Z0.35 F18000 ; Z hop
G0 X145.2454 Y139.8992 F18000 ; Move to next pattern
G1 Z0.25 F18000 ; Z hop return
G1 E0.5 F1500 ; Un-retract
SET_PRESSURE_ADVANCE ADVANCE=0.025 ; Set pressure advance
M117 PA 0.025
G1 X164.5662 Y159.22 E1.0806 F1800 ; Print pattern wall
G1 X145.2454 Y178.5408 E1.0806 F1800 ; Print pattern wall
G1 E-0.5 F3300 ; Retract
G1 Z0.35 F18000 ; Z hop
G0 X145.8211 Y139.8992 F18000 ; Move to start next pattern wall
G1 Z0.25 F18000 ; Z hop return
G1 E0.5 F1500 ; Un-retract
G1 X165.1419 Y159.22 E1.0806 F1800 ; Print pattern wall
G1 X145.8211 Y178.5408 E1.0806 F1800 ; Print pattern wall
G1 E-0.5 F3300 ; Retract
G1 Z0.35 F18000 ; Z hop
G0 X146.3968 Y139.8992 F18000 ; Move to start next pattern wall
G1 Z0.25 F18000 ; Z hop return
G1 E0.5 F1500 ; Un-retract
G1 X165.7176 Y159.22 E1.0806 F1800 ; Print pattern wall
G1 X146.3968 Y178.5408 E1.0806 F1800 ; Print pattern wall
G1 E-0.5 F3300 ; Retract
G1 Z0.35 F18000 ; Z hop
G0 X148.8468 Y139.8992 F18000 ; Move to next pattern
G1 Z0.25 F18000 ; Z hop return
G1 E0.5 F1500 ; Un-retract
SET_PRESSURE_ADVANCE ADVANCE=0.03 ; Set pressure advance
M117 PA 0.03
G1 X168.1676 Y159.22 E1.0806 F1800 ; Print pattern wall
G1 X148.8468 Y178.5408 E1.0806 F1800 ; Print pattern wall
G1 E-0.5 F3300 ; Retract
G1 Z0.35 F18000 ; Z hop
G0 X149.4225 Y139.8992 F18000 ; Move to start next pattern wall
G1 Z0.25 F18000 ; Z hop return
G1 E0.5 F1500 ; Un-retract
G1 X168.7433 Y159.22 E1.0806 F1800 ; Print pattern wall
G1 X149.4225 Y178.5408 E1.0806 F1800 ; Print pattern wall
G1 E-0.5 F3300 ; Retract
G1 Z0.35 F18000 ; Z hop
G0 X149.9981 Y139.8992 F18000 ; Move to start next pattern wall
G1 Z0.25 F18000 ; Z hop return
G1 E0.5 F1500 ; Un-retract
G1 X169.319 Y159.22 E1.0806 F1800 ; Print pattern wall
G1 X149.9981 Y178.5408 E1.0806 F1800 ; Print pattern wall
G1 E-0.5 F3300 ; Retract
G1 Z0.35 F18000 ; Z hop
G0 X152.4481 Y139.8992 F18000 ; Move to next pattern
G1 Z0.25 F18000 ; Z hop return
G1 E0.5 F1500 ; Un-retract
SET_PRESSURE_ADVANCE ADVANCE=0.035 ; Set pressure advance
M117 PA 0.035
G1 X171.769 Y159.22 E1.0806 F1800 ; Print pattern wall
G1 X152.4481 Y178.5408 E1.0806 F1800 ; Print pattern wall
G1 E-0.5 F3300 ; Retract
G1 Z0.35 F18000 ; Z hop
G0 X153.0238 Y139.8992 F18000 ; Move to start next pattern wall
G1 Z0.25 F18000 ; Z hop return
G1 E0.5 F1500 ; Un-retract
G1 X172.3447 Y159.22 E1.0806 F1800 ; Print pattern wall
G1 X153.0238 Y178.5408 E1.0806 F1800 ; Print pattern wall
G1 E-0.5 F3300 ; Retract
G1 Z0.35 F18000 ; Z hop
G0 X153.5995 Y139.8992 F18000 ; Move to start next pattern wall
G1 Z0.25 F18000 ; Z hop return
G1 E0.5 F1500 ; Un-retract
G1 X172.9204 Y159.22 E1.0806 F1800 ; Print pattern wall
G1 X153.5995 Y178.5408 E1.0806 F1800 ; Print pattern wall
G1 E-0.5 F3300 ; Retract
G1 Z0.35 F18000 ; Z hop
G0 X156.0495 Y139.8992 F18000 ; Move to next pattern
G1 Z0.25 F18000 ; Z hop return
G1 E0.5 F1500 ; Un-retract
SET_PRESSURE_ADVANCE ADVANCE=0.04 ; Set pressure advance
M117 PA 0.04
G1 X175.3704 Y159.22 E1.0806 F1800 ; Print pattern wall
G1 X156.0495 Y178.5408 E1.0806 F1800 ; Print pattern wall
G1 E-0.5 F3300 ; Retract
G1 Z0.35 F18000 ; Z hop
G0 X156.6252 Y139.8992 F18000 ; Move to start next pattern wall
G1 Z0.25 F18000 ; Z hop return
G1 E0.5 F1500 ; Un-retract
G1 X175.9461 Y159.22 E1.0806 F1800 ; Print pattern wall
G1 X156.6252 Y178.5408 E1.0806 F1800 ; Print pattern wall
G1 E-0.5 F3300 ; Retract
G1 Z0.35 F18000 ; Z hop
G0 X157.2009 Y139.8992 F18000 ; Move to start next pattern wall
G1 Z0.25 F18000 ; Z hop return
G1 E0.5 F1500 ; Un-retract
G1 X176.5218 Y159.22 E1.0806 F1800 ; Print pattern wall
G1 X157.2009 Y178.5408 E1.0806 F1800 ; Print pattern wall
G1 E-0.5 F3300 ; Retract
G1 Z0.35 F18000 ; Z hop
G0 X159.6509 Y139.8992 F18000 ; Move to next pattern
G1 Z0.25 F18000 ; Z hop return
G1 E0.5 F1500 ; Un-retract
SET_PRESSURE_ADVANCE ADVANCE=0.045 ; Set pressure advance
M117 PA 0.045
G1 X178.9718 Y159.22 E1.0806 F1800 ; Print pattern wall
G1 X159.6509 Y178.5408 E1.0806 F1800 ; Print pattern wall
G1 E-0.5 F3300 ; Retract
G1 Z0.35 F18000 ; Z hop
G0 X160.2266 Y139.8992 F18000 ; Move to start next pattern wall
G1 Z0.25 F18000 ; Z hop return
G1 E0.5 F1500 ; Un-retract
G1 X179.5475 Y159.22 E1.0806 F1800 ; Print pattern wall
G1 X160.2266 Y178.5408 E1.0806 F1800 ; Print pattern wall
G1 E-0.5 F3300 ; Retract
G1 Z0.35 F18000 ; Z hop
G0 X160.8023 Y139.8992 F18000 ; Move to start next pattern wall
G1 Z0.25 F18000 ; Z hop return
G1 E0.5 F1500 ; Un-retract
G1 X180.1232 Y159.22 E1.0806 F1800 ; Print pattern wall
G1 X160.8023 Y178.5408 E1.0806 F1800 ; Print pattern wall
G1 E-0.5 F3300 ; Retract
G1 Z0.35 F18000 ; Z hop
G0 X163.2523 Y139.8992 F18000 ; Move to next pattern
G1 Z0.25 F18000 ; Z hop return
G1 E0.5 F1500 ; Un-retract
SET_PRESSURE_ADVANCE ADVANCE=0.05 ; Set pressure advance
M117 PA 0.05
G1 X182.5732 Y159.22 E1.0806 F1800 ; Print pattern wall
G1 X163.2523 Y178.5408 E1.0806 F1800 ; Print pattern wall
G1 E-0.5 F3300 ; Retract
G1 Z0.35 F18000 ; Z hop
G0 X163.828 Y139.8992 F18000 ; Move to start next pattern wall
G1 Z0.25 F18000 ; Z hop return
G1 E0.5 F1500 ; Un-retract
G1 X183.1489 Y159.22 E1.0806 F1800 ; Print pattern wall
G1 X163.828 Y178.5408 E1.0806 F1800 ; Print pattern wall
G1 E-0.5 F3300 ; Retract
G1 Z0.35 F18000 ; Z hop
G0 X164.4037 Y139.8992 F18000 ; Move to start next pattern wall
G1 Z0.25 F18000 ; Z hop return
G1 E0.5 F1500 ; Un-retract
G1 X183.7246 Y159.22 E1.0806 F1800 ; Print pattern wall
G1 X164.4037 Y178.5408 E1.0806 F1800 ; Print pattern wall
G1 E-0.5 F3300 ; Retract
G1 Z0.35 F18000 ; Z hop
G0 X166.8537 Y139.8992 F18000 ; Move to next pattern
G1 Z0.25 F18000 ; Z hop return
G1 E0.5 F1500 ; Un-retract
SET_PRESSURE_ADVANCE ADVANCE=0.055 ; Set pressure advance
M117 PA 0.055
G1 X186.1746 Y159.22 E1.0806 F1800 ; Print pattern wall
G1 X166.8537 Y178.5408 E1.0806 F1800 ; Print pattern wall
G1 E-0.5 F3300 ; Retract
G1 Z0.35 F18000 ; Z hop
G0 X167.4294 Y139.8992 F18000 ; Move to start next pattern wall
G1 Z0.25 F18000 ; Z hop return
G1 E0.5 F1500 ; Un-retract
G1 X186.7502 Y159.22 E1.0806 F1800 ; Print pattern wall
G1 X167.4294 Y178.5408 E1.0806 F1800 ; Print pattern wall
G1 E-0.5 F3300 ; Retract
G1 Z0.35 F18000 ; Z hop
G0 X168.0051 Y139.8992 F18000 ; Move to start next pattern wall
G1 Z0.25 F18000 ; Z hop return
G1 E0.5 F1500 ; Un-retract
G1 X187.3259 Y159.22 E1.0806 F1800 ; Print pattern wall
G1 X168.0051 Y178.5408 E1.0806 F1800 ; Print pattern wall
G1 E-0.5 F3300 ; Retract
G1 Z0.35 F18000 ; Z hop
G0 X170.4551 Y139.8992 F18000 ; Move to next pattern
G1 Z0.25 F18000 ; Z hop return
G1 E0.5 F1500 ; Un-retract
SET_PRESSURE_ADVANCE ADVANCE=0.06 ; Set pressure advance
M117 PA 0.06
G1 X189.7759 Y159.22 E1.0806 F1800 ; Print pattern wall
G1 X170.4551 Y178.5408 E1.0806 F1800 ; Print pattern wall
G1 E-0.5 F3300 ; Retract
G1 Z0.35 F18000 ; Z hop
G0 X171.0308 Y139.8992 F18000 ; Move to start next pattern wall
G1 Z0.25 F18000 ; Z hop return
G1 E0.5 F1500 ; Un-retract
G1 X190.3516 Y159.22 E1.0806 F1800 ; Print pattern wall
G1 X171.0308 Y178.5408 E1.0806 F1800 ; Print pattern wall
G1 E-0.5 F3300 ; Retract
G1 Z0.35 F18000 ; Z hop
G0 X171.6065 Y139.8992 F18000 ; Move to start next pattern wall
G1 Z0.25 F18000 ; Z hop return
G1 E0.5 F1500 ; Un-retract
G1 X190.9273 Y159.22 E1.0806 F1800 ; Print pattern wall
G1 X171.6065 Y178.5408 E1.0806 F1800 ; Print pattern wall
G1 E-0.5 F3300 ; Retract
G1 Z0.35 F18000 ; Z hop
G0 X174.0565 Y139.8992 F18000 ; Move to next pattern
G1 Z0.25 F18000 ; Z hop return
G1 E0.5 F1500 ; Un-retract
SET_PRESSURE_ADVANCE ADVANCE=0.065 ; Set pressure advance
M117 PA 0.065
G1 X193.3773 Y159.22 E1.0806 F1800 ; Print pattern wall
G1 X174.0565 Y178.5408 E1.0806 F1800 ; Print pattern wall
G1 E-0.5 F3300 ; Retract
G1 Z0.35 F18000 ; Z hop
G0 X174.6322 Y139.8992 F18000 ; Move to start next pattern wall
G1 Z0.25 F18000 ; Z hop return
G1 E0.5 F1500 ; Un-retract
G1 X193.953 Y159.22 E1.0806 F1800 ; Print pattern wall
G1 X174.6322 Y178.5408 E1.0806 F1800 ; Print pattern wall
G1 E-0.5 F3300 ; Retract
G1 Z0.35 F18000 ; Z hop
G0 X175.2079 Y139.8992 F18000 ; Move to start next pattern wall
G1 Z0.25 F18000 ; Z hop return
G1 E0.5 F1500 ; Un-retract
G1 X194.5287 Y159.22 E1.0806 F1800 ; Print pattern wall
G1 X175.2079 Y178.5408 E1.0806 F1800 ; Print pattern wall
G1 E-0.5 F3300 ; Retract
G1 Z0.35 F18000 ; Z hop
G0 X177.6579 Y139.8992 F18000 ; Move to next pattern
G1 Z0.25 F18000 ; Z hop return
G1 E0.5 F1500 ; Un-retract
SET_PRESSURE_ADVANCE ADVANCE=0.07 ; Set pressure advance
M117 PA 0.07
G1 X196.9787 Y159.22 E1.0806 F1800 ; Print pattern wall
G1 X177.6579 Y178.5408 E1.0806 F1800 ; Print pattern wall
G1 E-0.5 F3300 ; Retract
G1 Z0.35 F18000 ; Z hop
G0 X178.2336 Y139.8992 F18000 ; Move to start next pattern wall
G1 Z0.25 F18000 ; Z hop return
G1 E0.5 F1500 ; Un-retract
G1 X197.5544 Y159.22 E1.0806 F1800 ; Print pattern wall
G1 X178.2336 Y178.5408 E1.0806 F1800 ; Print pattern wall
G1 E-0.5 F3300 ; Retract
G1 Z0.35 F18000 ; Z hop
G0 X178.8093 Y139.8992 F18000 ; Move to start next pattern wall
G1 Z0.25 F18000 ; Z hop return
G1 E0.5 F1500 ; Un-retract
G1 X198.1301 Y159.22 E1.0806 F1800 ; Print pattern wall
G1 X178.8093 Y178.5408 E1.0806 F1800 ; Print pattern wall
G1 E-0.5 F3300 ; Retract
G1 Z0.35 F18000 ; Z hop
G0 X181.2593 Y139.8992 F18000 ; Move to next pattern
G1 Z0.25 F18000 ; Z hop return
G1 E0.5 F1500 ; Un-retract
SET_PRESSURE_ADVANCE ADVANCE=0.075 ; Set pressure advance
M117 PA 0.075
G1 X200.5801 Y159.22 E1.0806 F1800 ; Print pattern wall
G1 X181.2593 Y178.5408 E1.0806 F1800 ; Print pattern wall
G1 E-0.5 F3300 ; Retract
G1 Z0.35 F18000 ; Z hop
G0 X181.835 Y139.8992 F18000 ; Move to start next pattern wall
G1 Z0.25 F18000 ; Z hop return
G1 E0.5 F1500 ; Un-retract
G1 X201.1558 Y159.22 E1.0806 F1800 ; Print pattern wall
G1 X181.835 Y178.5408 E1.0806 F1800 ; Print pattern wall
G1 E-0.5 F3300 ; Retract
G1 Z0.35 F18000 ; Z hop
G0 X182.4107 Y139.8992 F18000 ; Move to start next pattern wall
G1 Z0.25 F18000 ; Z hop return
G1 E0.5 F1500 ; Un-retract
G1 X201.7315 Y159.22 E1.0806 F1800 ; Print pattern wall
G1 X182.4107 Y178.5408 E1.0806 F1800 ; Print pattern wall
G1 E-0.5 F3300 ; Retract
G1 Z0.35 F18000 ; Z hop
G0 X184.8607 Y139.8992 F18000 ; Move to next pattern
G1 Z0.25 F18000 ; Z hop return
G1 E0.5 F1500 ; Un-retract
SET_PRESSURE_ADVANCE ADVANCE=0.08 ; Set pressure advance
M117 PA 0.08
G1 X204.1815 Y159.22 E1.0806 F1800 ; Print pattern wall
G1 X184.8607 Y178.5408 E1.0806 F1800 ; Print pattern wall
G1 E-0.5 F3300 ; Retract
G1 Z0.35 F18000 ; Z hop
G0 X185.4364 Y139.8992 F18000 ; Move to start next pattern wall
G1 Z0.25 F18000 ; Z hop return
G1 E0.5 F1500 ; Un-retract
G1 X204.7572 Y159.22 E1.0806 F1800 ; Print pattern wall
G1 X185.4364 Y178.5408 E1.0806 F1800 ; Print pattern wall
G1 E-0.5 F3300 ; Retract
G1 Z0.35 F18000 ; Z hop
G0 X186.0121 Y139.8992 F18000 ; Move to start next pattern wall
G1 Z0.25 F18000 ; Z hop return
G1 E0.5 F1500 ; Un-retract
G1 X205.3329 Y159.22 E1.0806 F1800 ; Print pattern wall
G1 X186.0121 Y178.5408 E1.0806 F1800 ; Print pattern wall
G1 E-0.5 F3300 ; Retract
G1 Z0.35 F18000 ; Z hop
G0 X127.2384 Y139.8992 F18000 ; Move back to start position
G1 Z0.25 F18000 ; Z hop return
G1 E0.5 F1500 ; Un-retract
M106 S255 ; Set fan speed
G0 Z0.45 F18000 ; Move to layer height
SET_PRESSURE_ADVANCE ADVANCE=0 ; Set pressure advance to start value for numbering
M117 PA 0
G1 E-0.5 F3300 ; Retract
G1 Z0.55 F18000 ; Z hop
G0 X123.9217 Y181.8832 F18000 ; Move
G1 Z0.45 F18000 ; Z hop return
G1 E0.5 F1500 ; Un-retract
G1 X125.9217 Y181.8832 E0.06499 F1800 ; Glyph: 0
G1 X127.9217 Y181.8832 E0.06499 F1800 ; Glyph: 0
G1 X127.9217 Y183.8832 E0.06499 F1800 ; Glyph: 0
G1 X125.9217 Y183.8832 E0.06499 F1800 ; Glyph: 0
G1 X123.9217 Y183.8832 E0.06499 F1800 ; Glyph: 0
G1 X123.9217 Y181.8832 E0.06499 F1800 ; Glyph: 0
G1 E-0.5 F3300 ; Retract
G1 Z0.55 F18000 ; Z hop
G0 X131.1245 Y181.8832 F18000 ; Move
G1 Z0.45 F18000 ; Z hop return
G1 E0.5 F1500 ; Un-retract
G1 X133.1245 Y181.8832 E0.06499 F1800 ; Glyph: 0
G1 X135.1245 Y181.8832 E0.06499 F1800 ; Glyph: 0
G1 X135.1245 Y183.8832 E0.06499 F1800 ; Glyph: 0
G1 X133.1245 Y183.8832 E0.06499 F1800 ; Glyph: 0
G1 X131.1245 Y183.8832 E0.06499 F1800 ; Glyph: 0
G1 X131.1245 Y181.8832 E0.06499 F1800 ; Glyph: 0
G1 E-0.5 F3300 ; Retract
G1 Z0.55 F18000 ; Z hop
G0 X135.1245 Y184.8832 F18000 ; Move
G1 Z0.45 F18000 ; Z hop return
G1 E0.5 F1500 ; Un-retract
G1 X134.3745 Y184.8832 E0.02437 F1800 ; Glyph: .
G1 E-0.5 F3300 ; Retract
G1 Z0.55 F18000 ; Z hop
G0 X131.1245 Y185.8832 F18000 ; Move
G1 Z0.45 F18000 ; Z hop return
G1 E0.5 F1500 ; Un-retract
G1 X133.1245 Y185.8832 E0.06499 F1800 ; Glyph: 0
G1 X135.1245 Y185.8832 E0.06499 F1800 ; Glyph: 0
G1 X135.1245 Y187.8832 E0.06499 F1800 ; Glyph: 0
G1 X133.1245 Y187.8832 E0.06499 F1800 ; Glyph: 0
G1 X131.1245 Y187.8832 E0.06499 F1800 ; Glyph: 0
G1 X131.1245 Y185.8832 E0.06499 F1800 ; Glyph: 0
G1 E-0.5 F3300 ; Retract
G1 Z0.55 F18000 ; Z hop
G0 X131.1245 Y188.8832 F18000 ; Move
G1 Z0.45 F18000 ; Z hop return
G1 E0.5 F1500 ; Un-retract
G1 X133.1245 Y188.8832 E0.06499 F1800 ; Glyph: 1
G1 X135.1245 Y188.8832 E0.06499 F1800 ; Glyph: 1
G1 E-0.5 F3300 ; Retract
G1 Z0.55 F18000 ; Z hop
G0 X138.3273 Y181.8832 F18000 ; Move
G1 Z0.45 F18000 ; Z hop return
G1 E0.5 F1500 ; Un-retract
G1 X140.3273 Y181.8832 E0.06499 F1800 ; Glyph: 0
G1 X142.3273 Y181.8832 E0.06499 F1800 ; Glyph: 0
G1 X142.3273 Y183.8832 E0.06499 F1800 ; Glyph: 0
G1 X140.3273 Y183.8832 E0.06499 F1800 ; Glyph: 0
G1 X138.3273 Y183.8832 E0.06499 F1800 ; Glyph: 0
G1 X138.3273 Y181.8832 E0.06499 F1800 ; Glyph: 0
G1 E-0.5 F3300 ; Retract
G1 Z0.55 F18000 ; Z hop
G0 X142.3273 Y184.8832 F18000 ; Move
G1 Z0.45 F18000 ; Z hop return
G1 E0.5 F1500 ; Un-retract
G1 X141.5773 Y184.8832 E0.02437 F1800 ; Glyph: .
G1 E-0.5 F3300 ; Retract
G1 Z0.55 F18000 ; Z hop
G0 X138.3273 Y185.8832 F18000 ; Move
G1 Z0.45 F18000 ; Z hop return
G1 E0.5 F1500 ; Un-retract
G1 X140.3273 Y185.8832 E0.06499 F1800 ; Glyph: 0
G1 X142.3273 Y185.8832 E0.06499 F1800 ; Glyph: 0
G1 X142.3273 Y187.8832 E0.06499 F1800 ; Glyph: 0
G1 X140.3273 Y187.8832 E0.06499 F1800 ; Glyph: 0
G1 X138.3273 Y187.8832 E0.06499 F1800 ; Glyph: 0
G1 X138.3273 Y185.8832 E0.06499 F1800 ; Glyph: 0
G1 E-0.5 F3300 ; Retract
G1 Z0.55 F18000 ; Z hop
G0 X138.3273 Y188.8832 F18000 ; Move
G1 Z0.45 F18000 ; Z hop return
G1 E0.5 F1500 ; Un-retract
G1 X138.3273 Y190.8832 E0.06499 F1800 ; Glyph: 2
G1 X140.3273 Y190.8832 E0.06499 F1800 ; Glyph: 2
G1 X140.3273 Y188.8832 E0.06499 F1800 ; Glyph: 2
G1 X142.3273 Y188.8832 E0.06499 F1800 ; Glyph: 2
G1 X142.3273 Y190.8832 E0.06499 F1800 ; Glyph: 2
G1 E-0.5 F3300 ; Retract
G1 Z0.55 F18000 ; Z hop
G0 X145.5301 Y181.8832 F18000 ; Move
G1 Z0.45 F18000 ; Z hop return
G1 E0.5 F1500 ; Un-retract
G1 X147.5301 Y181.8832 E0.06499 F1800 ; Glyph: 0
G1 X149.5301 Y181.8832 E0.06499 F1800 ; Glyph: 0
G1 X149.5301 Y183.8832 E0.06499 F1800 ; Glyph: 0
G1 X147.5301 Y183.8832 E0.06499 F1800 ; Glyph: 0
G1 X145.5301 Y183.8832 E0.06499 F1800 ; Glyph: 0
G1 X145.5301 Y181.8832 E0.06499 F1800 ; Glyph: 0
G1 E-0.5 F3300 ; Retract
G1 Z0.55 F18000 ; Z hop
G0 X149.5301 Y184.8832 F18000 ; Move
G1 Z0.45 F18000 ; Z hop return
G1 E0.5 F1500 ; Un-retract
G1 X148.7801 Y184.8832 E0.02437 F1800 ; Glyph: .
G1 E-0.5 F3300 ; Retract
G1 Z0.55 F18000 ; Z hop
G0 X145.5301 Y185.8832 F18000 ; Move
G1 Z0.45 F18000 ; Z hop return
G1 E0.5 F1500 ; Un-retract
G1 X147.5301 Y185.8832 E0.06499 F1800 ; Glyph: 0
G1 X149.5301 Y185.8832 E0.06499 F1800 ; Glyph: 0
G1 X149.5301 Y187.8832 E0.06499 F1800 ; Glyph: 0
G1 X147.5301 Y187.8832 E0.06499 F1800 ; Glyph: 0
G1 X145.5301 Y187.8832 E0.06499 F1800 ; Glyph: 0
G1 X145.5301 Y185.8832 E0.06499 F1800 ; Glyph: 0
G1 E-0.5 F3300 ; Retract
G1 Z0.55 F18000 ; Z hop
G0 X145.5301 Y188.8832 F18000 ; Move
G1 Z0.45 F18000 ; Z hop return
G1 E0.5 F1500 ; Un-retract
G1 X145.5301 Y190.8832 E0.06499 F1800 ; Glyph: 3
G1 X147.5301 Y190.8832 E0.06499 F1800 ; Glyph: 3
G1 X147.5301 Y188.8832 E0.06499 F1800 ; Glyph: 3
G0 X147.5301 Y190.8832 F18000 ; Move
G1 X149.5301 Y190.8832 E0.06499 F1800 ; Glyph: 3
G1 X149.5301 Y188.8832 E0.06499 F1800 ; Glyph: 3
G1 E-0.5 F3300 ; Retract
G1 Z0.55 F18000 ; Z hop
G0 X152.7329 Y181.8832 F18000 ; Move
G1 Z0.45 F18000 ; Z hop return
G1 E0.5 F1500 ; Un-retract
G1 X154.7329 Y181.8832 E0.06499 F1800 ; Glyph: 0
G1 X156.7329 Y181.8832 E0.06499 F1800 ; Glyph: 0
G1 X156.7329 Y183.8832 E0.06499 F1800 ; Glyph: 0
G1 X154.7329 Y183.8832 E0.06499 F1800 ; Glyph: 0
G1 X152.7329 Y183.8832 E0.06499 F1800 ; Glyph: 0
G1 X152.7329 Y181.8832 E0.06499 F1800 ; Glyph: 0
G1 E-0.5 F3300 ; Retract
G1 Z0.55 F18000 ; Z hop
G0 X156.7329 Y184.8832 F18000 ; Move
G1 Z0.45 F18000 ; Z hop return
G1 E0.5 F1500 ; Un-retract
G1 X155.9829 Y184.8832 E0.02437 F1800 ; Glyph: .
G1 E-0.5 F3300 ; Retract
G1 Z0.55 F18000 ; Z hop
G0 X152.7329 Y185.8832 F18000 ; Move
G1 Z0.45 F18000 ; Z hop return
G1 E0.5 F1500 ; Un-retract
G1 X154.7329 Y185.8832 E0.06499 F1800 ; Glyph: 0
G1 X156.7329 Y185.8832 E0.06499 F1800 ; Glyph: 0
G1 X156.7329 Y187.8832 E0.06499 F1800 ; Glyph: 0
G1 X154.7329 Y187.8832 E0.06499 F1800 ; Glyph: 0
G1 X152.7329 Y187.8832 E0.06499 F1800 ; Glyph: 0
G1 X152.7329 Y185.8832 E0.06499 F1800 ; Glyph: 0
G1 E-0.5 F3300 ; Retract
G1 Z0.55 F18000 ; Z hop
G0 X152.7329 Y190.8832 F18000 ; Move
G1 Z0.45 F18000 ; Z hop return
G1 E0.5 F1500 ; Un-retract
G1 X154.7329 Y190.8832 E0.06499 F1800 ; Glyph: 4
G1 X156.7329 Y190.8832 E0.06499 F1800 ; Glyph: 4
G0 X154.7329 Y190.8832 F18000 ; Move
G1 X154.7329 Y188.8832 E0.06499 F1800 ; Glyph: 4
G1 X152.7329 Y188.8832 E0.06499 F1800 ; Glyph: 4
G1 E-0.5 F3300 ; Retract
G1 Z0.55 F18000 ; Z hop
G0 X159.9357 Y181.8832 F18000 ; Move
G1 Z0.45 F18000 ; Z hop return
G1 E0.5 F1500 ; Un-retract
G1 X161.9357 Y181.8832 E0.06499 F1800 ; Glyph: 0
G1 X163.9357 Y181.8832 E0.06499 F1800 ; Glyph: 0
G1 X163.9357 Y183.8832 E0.06499 F1800 ; Glyph: 0
G1 X161.9357 Y183.8832 E0.06499 F1800 ; Glyph: 0
G1 X159.9357 Y183.8832 E0.06499 F1800 ; Glyph: 0
G1 X159.9357 Y181.8832 E0.06499 F1800 ; Glyph: 0
G1 E-0.5 F3300 ; Retract
G1 Z0.55 F18000 ; Z hop
G0 X163.9357 Y184.8832 F18000 ; Move
G1 Z0.45 F18000 ; Z hop return
G1 E0.5 F1500 ; Un-retract
G1 X163.1857 Y184.8832 E0.02437 F1800 ; Glyph: .
G1 E-0.5 F3300 ; Retract
G1 Z0.55 F18000 ; Z hop
G0 X159.9357 Y185.8832 F18000 ; Move
G1 Z0.45 F18000 ; Z hop return
G1 E0.5 F1500 ; Un-retract
G1 X161.9357 Y185.8832 E0.06499 F1800 ; Glyph: 0
G1 X163.9357 Y185.8832 E0.06499 F1800 ; Glyph: 0
G1 X163.9357 Y187.8832 E0.06499 F1800 ; Glyph: 0
G1 X161.9357 Y187.8832 E0.06499 F1800 ; Glyph: 0
G1 X159.9357 Y187.8832 E0.06499 F1800 ; Glyph: 0
G1 X159.9357 Y185.8832 E0.06499 F1800 ; Glyph: 0
G1 E-0.5 F3300 ; Retract
G1 Z0.55 F18000 ; Z hop
G0 X159.9357 Y190.8832 F18000 ; Move
G1 Z0.45 F18000 ; Z hop return
G1 E0.5 F1500 ; Un-retract
G1 X159.9357 Y188.8832 E0.06499 F1800 ; Glyph: 5
G1 X161.9357 Y188.8832 E0.06499 F1800 ; Glyph: 5
G1 X161.9357 Y190.8832 E0.06499 F1800 ; Glyph: 5
G1 X163.9357 Y190.8832 E0.06499 F1800 ; Glyph: 5
G1 X163.9357 Y188.8832 E0.06499 F1800 ; Glyph: 5
G1 E-0.5 F3300 ; Retract
G1 Z0.55 F18000 ; Z hop
G0 X167.1384 Y181.8832 F18000 ; Move
G1 Z0.45 F18000 ; Z hop return
G1 E0.5 F1500 ; Un-retract
G1 X169.1384 Y181.8832 E0.06499 F1800 ; Glyph: 0
G1 X171.1384 Y181.8832 E0.06499 F1800 ; Glyph: 0
G1 X171.1384 Y183.8832 E0.06499 F1800 ; Glyph: 0
G1 X169.1384 Y183.8832 E0.06499 F1800 ; Glyph: 0
G1 X167.1384 Y183.8832 E0.06499 F1800 ; Glyph: 0
G1 X167.1384 Y181.8832 E0.06499 F1800 ; Glyph: 0
G1 E-0.5 F3300 ; Retract
G1 Z0.55 F18000 ; Z hop
G0 X171.1384 Y184.8832 F18000 ; Move
G1 Z0.45 F18000 ; Z hop return
G1 E0.5 F1500 ; Un-retract
G1 X170.3884 Y184.8832 E0.02437 F1800 ; Glyph: .
G1 E-0.5 F3300 ; Retract
G1 Z0.55 F18000 ; Z hop
G0 X167.1384 Y185.8832 F18000 ; Move
G1 Z0.45 F18000 ; Z hop return
G1 E0.5 F1500 ; Un-retract
G1 X169.1384 Y185.8832 E0.06499 F1800 ; Glyph: 0
G1 X171.1384 Y185.8832 E0.06499 F1800 ; Glyph: 0
G1 X171.1384 Y187.8832 E0.06499 F1800 ; Glyph: 0
G1 X169.1384 Y187.8832 E0.06499 F1800 ; Glyph: 0
G1 X167.1384 Y187.8832 E0.06499 F1800 ; Glyph: 0
G1 X167.1384 Y185.8832 E0.06499 F1800 ; Glyph: 0
G1 E-0.5 F3300 ; Retract
G1 Z0.55 F18000 ; Z hop
G0 X167.1384 Y190.8832 F18000 ; Move
G1 Z0.45 F18000 ; Z hop return
G1 E0.5 F1500 ; Un-retract
G1 X167.1384 Y188.8832 E0.06499 F1800 ; Glyph: 6
G1 X169.1384 Y188.8832 E0.06499 F1800 ; Glyph: 6
G1 X171.1384 Y188.8832 E0.06499 F1800 ; Glyph: 6
G1 X171.1384 Y190.8832 E0.06499 F1800 ; Glyph: 6
G1 X169.1384 Y190.8832 E0.06499 F1800 ; Glyph: 6
G1 X169.1384 Y188.8832 E0.06499 F1800 ; Glyph: 6
G1 E-0.5 F3300 ; Retract
G1 Z0.55 F18000 ; Z hop
G0 X174.3412 Y181.8832 F18000 ; Move
G1 Z0.45 F18000 ; Z hop return
G1 E0.5 F1500 ; Un-retract
G1 X176.3412 Y181.8832 E0.06499 F1800 ; Glyph: 0
G1 X178.3412 Y181.8832 E0.06499 F1800 ; Glyph: 0
G1 X178.3412 Y183.8832 E0.06499 F1800 ; Glyph: 0
G1 X176.3412 Y183.8832 E0.06499 F1800 ; Glyph: 0
G1 X174.3412 Y183.8832 E0.06499 F1800 ; Glyph: 0
G1 X174.3412 Y181.8832 E0.06499 F1800 ; Glyph: 0
G1 E-0.5 F3300 ; Retract
G1 Z0.55 F18000 ; Z hop
G0 X178.3412 Y184.8832 F18000 ; Move
G1 Z0.45 F18000 ; Z hop return
G1 E0.5 F1500 ; Un-retract
G1 X177.5912 Y184.8832 E0.02437 F1800 ; Glyph: .
G1 E-0.5 F3300 ; Retract
G1 Z0.55 F18000 ; Z hop
G0 X174.3412 Y185.8832 F18000 ; Move
G1 Z0.45 F18000 ; Z hop return
G1 E0.5 F1500 ; Un-retract
G1 X176.3412 Y185.8832 E0.06499 F1800 ; Glyph: 0
G1 X178.3412 Y185.8832 E0.06499 F1800 ; Glyph: 0
G1 X178.3412 Y187.8832 E0.06499 F1800 ; Glyph: 0
G1 X176.3412 Y187.8832 E0.06499 F1800 ; Glyph: 0
G1 X174.3412 Y187.8832 E0.06499 F1800 ; Glyph: 0
G1 X174.3412 Y185.8832 E0.06499 F1800 ; Glyph: 0
G1 E-0.5 F3300 ; Retract
G1 Z0.55 F18000 ; Z hop
G0 X174.3412 Y188.8832 F18000 ; Move
G1 Z0.45 F18000 ; Z hop return
G1 E0.5 F1500 ; Un-retract
G1 X174.3412 Y190.8832 E0.06499 F1800 ; Glyph: 7
G1 X176.3412 Y190.8832 E0.06499 F1800 ; Glyph: 7
G1 X178.3412 Y190.8832 E0.06499 F1800 ; Glyph: 7
G1 E-0.5 F3300 ; Retract
G1 Z0.55 F18000 ; Z hop
G0 X181.544 Y181.8832 F18000 ; Move
G1 Z0.45 F18000 ; Z hop return
G1 E0.5 F1500 ; Un-retract
G1 X183.544 Y181.8832 E0.06499 F1800 ; Glyph: 0
G1 X185.544 Y181.8832 E0.06499 F1800 ; Glyph: 0
G1 X185.544 Y183.8832 E0.06499 F1800 ; Glyph: 0
G1 X183.544 Y183.8832 E0.06499 F1800 ; Glyph: 0
G1 X181.544 Y183.8832 E0.06499 F1800 ; Glyph: 0
G1 X181.544 Y181.8832 E0.06499 F1800 ; Glyph: 0
G1 E-0.5 F3300 ; Retract
G1 Z0.55 F18000 ; Z hop
G0 X185.544 Y184.8832 F18000 ; Move
G1 Z0.45 F18000 ; Z hop return
G1 E0.5 F1500 ; Un-retract
G1 X184.794 Y184.8832 E0.02437 F1800 ; Glyph: .
G1 E-0.5 F3300 ; Retract
G1 Z0.55 F18000 ; Z hop
G0 X181.544 Y185.8832 F18000 ; Move
G1 Z0.45 F18000 ; Z hop return
G1 E0.5 F1500 ; Un-retract
G1 X183.544 Y185.8832 E0.06499 F1800 ; Glyph: 0
G1 X185.544 Y185.8832 E0.06499 F1800 ; Glyph: 0
G1 X185.544 Y187.8832 E0.06499 F1800 ; Glyph: 0
G1 X183.544 Y187.8832 E0.06499 F1800 ; Glyph: 0
G1 X181.544 Y187.8832 E0.06499 F1800 ; Glyph: 0
G1 X181.544 Y185.8832 E0.06499 F1800 ; Glyph: 0
G1 E-0.5 F3300 ; Retract
G1 Z0.55 F18000 ; Z hop
G0 X181.544 Y188.8832 F18000 ; Move
G1 Z0.45 F18000 ; Z hop return
G1 E0.5 F1500 ; Un-retract
G1 X183.544 Y188.8832 E0.06499 F1800 ; Glyph: 8
G1 X185.544 Y188.8832 E0.06499 F1800 ; Glyph: 8
G1 X185.544 Y190.8832 E0.06499 F1800 ; Glyph: 8
G1 X183.544 Y190.8832 E0.06499 F1800 ; Glyph: 8
G1 X181.544 Y190.8832 E0.06499 F1800 ; Glyph: 8
G1 X181.544 Y188.8832 E0.06499 F1800 ; Glyph: 8
G0 X183.544 Y188.8832 F18000 ; Move
G1 X183.544 Y190.8832 E0.06499 F1800 ; Glyph: 8
G1 E-0.5 F3300 ; Retract
G1 Z0.55 F18000 ; Z hop
G0 X125.346 Y138.0068 F18000 ; Move to pattern start

G1 Z0.45 F18000 ; Z hop return
G1 E0.5 F1500 ; Un-retract
SET_PRESSURE_ADVANCE ADVANCE=0 ; Set pressure advance
M117 PA 0
G1 X146.5592 Y159.22 E0.97485 F9000 ; Print pattern wall
G1 X125.346 Y180.4332 E0.97485 F9000 ; Print pattern wall
G1 E-0.5 F3300 ; Retract
G1 Z0.55 F18000 ; Z hop
G0 X125.9217 Y138.0068 F18000 ; Move to start next pattern wall
G1 Z0.45 F18000 ; Z hop return
G1 E0.5 F1500 ; Un-retract
G1 X147.1349 Y159.22 E0.97485 F9000 ; Print pattern wall
G1 X125.9217 Y180.4332 E0.97485 F9000 ; Print pattern wall
G1 E-0.5 F3300 ; Retract
G1 Z0.55 F18000 ; Z hop
G0 X126.4974 Y138.0068 F18000 ; Move to start next pattern wall
G1 Z0.45 F18000 ; Z hop return
G1 E0.5 F1500 ; Un-retract
G1 X147.7106 Y159.22 E0.97485 F9000 ; Print pattern wall
G1 X126.4974 Y180.4332 E0.97485 F9000 ; Print pattern wall
G1 E-0.5 F3300 ; Retract
G1 Z0.55 F18000 ; Z hop
G0 X128.9474 Y138.0068 F18000 ; Move to next pattern
G1 Z0.45 F18000 ; Z hop return
G1 E0.5 F1500 ; Un-retract
SET_PRESSURE_ADVANCE ADVANCE=0.005 ; Set pressure advance
M117 PA 0.005
G1 X150.1606 Y159.22 E0.97485 F9000 ; Print pattern wall
G1 X128.9474 Y180.4332 E0.97485 F9000 ; Print pattern wall
G1 E-0.5 F3300 ; Retract
G1 Z0.55 F18000 ; Z hop
G0 X129.5231 Y138.0068 F18000 ; Move to start next pattern wall
G1 Z0.45 F18000 ; Z hop return
G1 E0.5 F1500 ; Un-retract
G1 X150.7363 Y159.22 E0.97485 F9000 ; Print pattern wall
G1 X129.5231 Y180.4332 E0.97485 F9000 ; Print pattern wall
G1 E-0.5 F3300 ; Retract
G1 Z0.55 F18000 ; Z hop
G0 X130.0988 Y138.0068 F18000 ; Move to start next pattern wall
G1 Z0.45 F18000 ; Z hop return
G1 E0.5 F1500 ; Un-retract
G1 X151.312 Y159.22 E0.97485 F9000 ; Print pattern wall
G1 X130.0988 Y180.4332 E0.97485 F9000 ; Print pattern wall
G1 E-0.5 F3300 ; Retract
G1 Z0.55 F18000 ; Z hop
G0 X132.5488 Y138.0068 F18000 ; Move to next pattern
G1 Z0.45 F18000 ; Z hop return
G1 E0.5 F1500 ; Un-retract
SET_PRESSURE_ADVANCE ADVANCE=0.01 ; Set pressure advance
M117 PA 0.01
G1 X153.762 Y159.22 E0.97485 F9000 ; Print pattern wall
G1 X132.5488 Y180.4332 E0.97485 F9000 ; Print pattern wall
G1 E-0.5 F3300 ; Retract
G1 Z0.55 F18000 ; Z hop
G0 X133.1245 Y138.0068 F18000 ; Move to start next pattern wall
G1 Z0.45 F18000 ; Z hop return
G1 E0.5 F1500 ; Un-retract
G1 X154.3377 Y159.22 E0.97485 F9000 ; Print pattern wall
G1 X133.1245 Y180.4332 E0.97485 F9000 ; Print pattern wall
G1 E-0.5 F3300 ; Retract
G1 Z0.55 F18000 ; Z hop
G0 X133.7002 Y138.0068 F18000 ; Move to start next pattern wall
G1 Z0.45 F18000 ; Z hop return
G1 E0.5 F1500 ; Un-retract
G1 X154.9134 Y159.22 E0.97485 F9000 ; Print pattern wall
G1 X133.7002 Y180.4332 E0.97485 F9000 ; Print pattern wall
G1 E-0.5 F3300 ; Retract
G1 Z0.55 F18000 ; Z hop
G0 X136.1502 Y138.0068 F18000 ; Move to next pattern
G1 Z0.45 F18000 ; Z hop return
G1 E0.5 F1500 ; Un-retract
SET_PRESSURE_ADVANCE ADVANCE=0.015 ; Set pressure advance
M117 PA 0.015
G1 X157.3634 Y159.22 E0.97485 F9000 ; Print pattern wall
G1 X136.1502 Y180.4332 E0.97485 F9000 ; Print pattern wall
G1 E-0.5 F3300 ; Retract
G1 Z0.55 F18000 ; Z hop
G0 X136.7259 Y138.0068 F18000 ; Move to start next pattern wall
G1 Z0.45 F18000 ; Z hop return
G1 E0.5 F1500 ; Un-retract
G1 X157.9391 Y159.22 E0.97485 F9000 ; Print pattern wall
G1 X136.7259 Y180.4332 E0.97485 F9000 ; Print pattern wall
G1 E-0.5 F3300 ; Retract
G1 Z0.55 F18000 ; Z hop
G0 X137.3016 Y138.0068 F18000 ; Move to start next pattern wall
G1 Z0.45 F18000 ; Z hop return
G1 E0.5 F1500 ; Un-retract
G1 X158.5148 Y159.22 E0.97485 F9000 ; Print pattern wall
G1 X137.3016 Y180.4332 E0.97485 F9000 ; Print pattern wall
G1 E-0.5 F3300 ; Retract
G1 Z0.55 F18000 ; Z hop
G0 X139.7516 Y138.0068 F18000 ; Move to next pattern
G1 Z0.45 F18000 ; Z hop return
G1 E0.5 F1500 ; Un-retract
SET_PRESSURE_ADVANCE ADVANCE=0.02 ; Set pressure advance
M117 PA 0.02
G1 X160.9648 Y159.22 E0.97485 F9000 ; Print pattern wall
G1 X139.7516 Y180.4332 E0.97485 F9000 ; Print pattern wall
G1 E-0.5 F3300 ; Retract
G1 Z0.55 F18000 ; Z hop
G0 X140.3273 Y138.0068 F18000 ; Move to start next pattern wall
G1 Z0.45 F18000 ; Z hop return
G1 E0.5 F1500 ; Un-retract
G1 X161.5405 Y159.22 E0.97485 F9000 ; Print pattern wall
G1 X140.3273 Y180.4332 E0.97485 F9000 ; Print pattern wall
G1 E-0.5 F3300 ; Retract
G1 Z0.55 F18000 ; Z hop
G0 X140.903 Y138.0068 F18000 ; Move to start next pattern wall
G1 Z0.45 F18000 ; Z hop return
G1 E0.5 F1500 ; Un-retract
G1 X162.1162 Y159.22 E0.97485 F9000 ; Print pattern wall
G1 X140.903 Y180.4332 E0.97485 F9000 ; Print pattern wall
G1 E-0.5 F3300 ; Retract
G1 Z0.55 F18000 ; Z hop
G0 X143.353 Y138.0068 F18000 ; Move to next pattern
G1 Z0.45 F18000 ; Z hop return
G1 E0.5 F1500 ; Un-retract
SET_PRESSURE_ADVANCE ADVANCE=0.025 ; Set pressure advance
M117 PA 0.025
G1 X164.5662 Y159.22 E0.97485 F9000 ; Print pattern wall
G1 X143.353 Y180.4332 E0.97485 F9000 ; Print pattern wall
G1 E-0.5 F3300 ; Retract
G1 Z0.55 F18000 ; Z hop
G0 X143.9287 Y138.0068 F18000 ; Move to start next pattern wall
G1 Z0.45 F18000 ; Z hop return
G1 E0.5 F1500 ; Un-retract
G1 X165.1419 Y159.22 E0.97485 F9000 ; Print pattern wall
G1 X143.9287 Y180.4332 E0.97485 F9000 ; Print pattern wall
G1 E-0.5 F3300 ; Retract
G1 Z0.55 F18000 ; Z hop
G0 X144.5044 Y138.0068 F18000 ; Move to start next pattern wall
G1 Z0.45 F18000 ; Z hop return
G1 E0.5 F1500 ; Un-retract
G1 X165.7176 Y159.22 E0.97485 F9000 ; Print pattern wall
G1 X144.5044 Y180.4332 E0.97485 F9000 ; Print pattern wall
G1 E-0.5 F3300 ; Retract
G1 Z0.55 F18000 ; Z hop
G0 X146.9544 Y138.0068 F18000 ; Move to next pattern
G1 Z0.45 F18000 ; Z hop return
G1 E0.5 F1500 ; Un-retract
SET_PRESSURE_ADVANCE ADVANCE=0.03 ; Set pressure advance
M117 PA 0.03
G1 X168.1676 Y159.22 E0.97485 F9000 ; Print pattern wall
G1 X146.9544 Y180.4332 E0.97485 F9000 ; Print pattern wall
G1 E-0.5 F3300 ; Retract
G1 Z0.55 F18000 ; Z hop
G0 X147.5301 Y138.0068 F18000 ; Move to start next pattern wall
G1 Z0.45 F18000 ; Z hop return
G1 E0.5 F1500 ; Un-retract
G1 X168.7433 Y159.22 E0.97485 F9000 ; Print pattern wall
G1 X147.5301 Y180.4332 E0.97485 F9000 ; Print pattern wall
G1 E-0.5 F3300 ; Retract
G1 Z0.55 F18000 ; Z hop
G0 X148.1058 Y138.0068 F18000 ; Move to start next pattern wall
G1 Z0.45 F18000 ; Z hop return
G1 E0.5 F1500 ; Un-retract
G1 X169.319 Y159.22 E0.97485 F9000 ; Print pattern wall
G1 X148.1058 Y180.4332 E0.97485 F9000 ; Print pattern wall
G1 E-0.5 F3300 ; Retract
G1 Z0.55 F18000 ; Z hop
G0 X150.5558 Y138.0068 F18000 ; Move to next pattern
G1 Z0.45 F18000 ; Z hop return
G1 E0.5 F1500 ; Un-retract
SET_PRESSURE_ADVANCE ADVANCE=0.035 ; Set pressure advance
M117 PA 0.035
G1 X171.769 Y159.22 E0.97485 F9000 ; Print pattern wall
G1 X150.5558 Y180.4332 E0.97485 F9000 ; Print pattern wall
G1 E-0.5 F3300 ; Retract
G1 Z0.55 F18000 ; Z hop
G0 X151.1315 Y138.0068 F18000 ; Move to start next pattern wall
G1 Z0.45 F18000 ; Z hop return
G1 E0.5 F1500 ; Un-retract
G1 X172.3447 Y159.22 E0.97485 F9000 ; Print pattern wall
G1 X151.1315 Y180.4332 E0.97485 F9000 ; Print pattern wall
G1 E-0.5 F3300 ; Retract
G1 Z0.55 F18000 ; Z hop
G0 X151.7072 Y138.0068 F18000 ; Move to start next pattern wall
G1 Z0.45 F18000 ; Z hop return
G1 E0.5 F1500 ; Un-retract
G1 X172.9204 Y159.22 E0.97485 F9000 ; Print pattern wall
G1 X151.7072 Y180.4332 E0.97485 F9000 ; Print pattern wall
G1 E-0.5 F3300 ; Retract
G1 Z0.55 F18000 ; Z hop
G0 X154.1572 Y138.0068 F18000 ; Move to next pattern
G1 Z0.45 F18000 ; Z hop return
G1 E0.5 F1500 ; Un-retract
SET_PRESSURE_ADVANCE ADVANCE=0.04 ; Set pressure advance
M117 PA 0.04
G1 X175.3704 Y159.22 E0.97485 F9000 ; Print pattern wall
G1 X154.1572 Y180.4332 E0.97485 F9000 ; Print pattern wall
G1 E-0.5 F3300 ; Retract
G1 Z0.55 F18000 ; Z hop
G0 X154.7329 Y138.0068 F18000 ; Move to start next pattern wall
G1 Z0.45 F18000 ; Z hop return
G1 E0.5 F1500 ; Un-retract
G1 X175.9461 Y159.22 E0.97485 F9000 ; Print pattern wall
G1 X154.7329 Y180.4332 E0.97485 F9000 ; Print pattern wall
G1 E-0.5 F3300 ; Retract
G1 Z0.55 F18000 ; Z hop
G0 X155.3086 Y138.0068 F18000 ; Move to start next pattern wall
G1 Z0.45 F18000 ; Z hop return
G1 E0.5 F1500 ; Un-retract
G1 X176.5218 Y159.22 E0.97485 F9000 ; Print pattern wall
G1 X155.3086 Y180.4332 E0.97485 F9000 ; Print pattern wall
G1 E-0.5 F3300 ; Retract
G1 Z0.55 F18000 ; Z hop
G0 X157.7586 Y138.0068 F18000 ; Move to next pattern
G1 Z0.45 F18000 ; Z hop return
G1 E0.5 F1500 ; Un-retract
SET_PRESSURE_ADVANCE ADVANCE=0.045 ; Set pressure advance
M117 PA 0.045
G1 X178.9718 Y159.22 E0.97485 F9000 ; Print pattern wall
G1 X157.7586 Y180.4332 E0.97485 F9000 ; Print pattern wall
G1 E-0.5 F3300 ; Retract
G1 Z0.55 F18000 ; Z hop
G0 X158.3343 Y138.0068 F18000 ; Move to start next pattern wall
G1 Z0.45 F18000 ; Z hop return
G1 E0.5 F1500 ; Un-retract
G1 X179.5475 Y159.22 E0.97485 F9000 ; Print pattern wall
G1 X158.3343 Y180.4332 E0.97485 F9000 ; Print pattern wall
G1 E-0.5 F3300 ; Retract
G1 Z0.55 F18000 ; Z hop
G0 X158.91 Y138.0068 F18000 ; Move to start next pattern wall
G1 Z0.45 F18000 ; Z hop return
G1 E0.5 F1500 ; Un-retract
G1 X180.1232 Y159.22 E0.97485 F9000 ; Print pattern wall
G1 X158.91 Y180.4332 E0.97485 F9000 ; Print pattern wall
G1 E-0.5 F3300 ; Retract
G1 Z0.55 F18000 ; Z hop
G0 X161.36 Y138.0068 F18000 ; Move to next pattern
G1 Z0.45 F18000 ; Z hop return
G1 E0.5 F1500 ; Un-retract
SET_PRESSURE_ADVANCE ADVANCE=0.05 ; Set pressure advance
M117 PA 0.05
G1 X182.5732 Y159.22 E0.97485 F9000 ; Print pattern wall
G1 X161.36 Y180.4332 E0.97485 F9000 ; Print pattern wall
G1 E-0.5 F3300 ; Retract
G1 Z0.55 F18000 ; Z hop
G0 X161.9357 Y138.0068 F18000 ; Move to start next pattern wall
G1 Z0.45 F18000 ; Z hop return
G1 E0.5 F1500 ; Un-retract
G1 X183.1489 Y159.22 E0.97485 F9000 ; Print pattern wall
G1 X161.9357 Y180.4332 E0.97485 F9000 ; Print pattern wall
G1 E-0.5 F3300 ; Retract
G1 Z0.55 F18000 ; Z hop
G0 X162.5113 Y138.0068 F18000 ; Move to start next pattern wall
G1 Z0.45 F18000 ; Z hop return
G1 E0.5 F1500 ; Un-retract
G1 X183.7246 Y159.22 E0.97485 F9000 ; Print pattern wall
G1 X162.5113 Y180.4332 E0.97485 F9000 ; Print pattern wall
G1 E-0.5 F3300 ; Retract
G1 Z0.55 F18000 ; Z hop
G0 X164.9613 Y138.0068 F18000 ; Move to next pattern
G1 Z0.45 F18000 ; Z hop return
G1 E0.5 F1500 ; Un-retract
SET_PRESSURE_ADVANCE ADVANCE=0.055 ; Set pressure advance
M117 PA 0.055
G1 X186.1746 Y159.22 E0.97485 F9000 ; Print pattern wall
G1 X164.9613 Y180.4332 E0.97485 F9000 ; Print pattern wall
G1 E-0.5 F3300 ; Retract
G1 Z0.55 F18000 ; Z hop
G0 X165.537 Y138.0068 F18000 ; Move to start next pattern wall
G1 Z0.45 F18000 ; Z hop return
G1 E0.5 F1500 ; Un-retract
G1 X186.7502 Y159.22 E0.97485 F9000 ; Print pattern wall
G1 X165.537 Y180.4332 E0.97485 F9000 ; Print pattern wall
G1 E-0.5 F3300 ; Retract
G1 Z0.55 F18000 ; Z hop
G0 X166.1127 Y138.0068 F18000 ; Move to start next pattern wall
G1 Z0.45 F18000 ; Z hop return
G1 E0.5 F1500 ; Un-retract
G1 X187.3259 Y159.22 E0.97485 F9000 ; Print pattern wall
G1 X166.1127 Y180.4332 E0.97485 F9000 ; Print pattern wall
G1 E-0.5 F3300 ; Retract
G1 Z0.55 F18000 ; Z hop
G0 X168.5627 Y138.0068 F18000 ; Move to next pattern
G1 Z0.45 F18000 ; Z hop return
G1 E0.5 F1500 ; Un-retract
SET_PRESSURE_ADVANCE ADVANCE=0.06 ; Set pressure advance
M117 PA 0.06
G1 X189.7759 Y159.22 E0.97485 F9000 ; Print pattern wall
G1 X168.5627 Y180.4332 E0.97485 F9000 ; Print pattern wall
G1 E-0.5 F3300 ; Retract
G1 Z0.55 F18000 ; Z hop
G0 X169.1384 Y138.0068 F18000 ; Move to start next pattern wall
G1 Z0.45 F18000 ; Z hop return
G1 E0.5 F1500 ; Un-retract
G1 X190.3516 Y159.22 E0.97485 F9000 ; Print pattern wall
G1 X169.1384 Y180.4332 E0.97485 F9000 ; Print pattern wall
G1 E-0.5 F3300 ; Retract
G1 Z0.55 F18000 ; Z hop
G0 X169.7141 Y138.0068 F18000 ; Move to start next pattern wall
G1 Z0.45 F18000 ; Z hop return
G1 E0.5 F1500 ; Un-retract
G1 X190.9273 Y159.22 E0.97485 F9000 ; Print pattern wall
G1 X169.7141 Y180.4332 E0.97485 F9000 ; Print pattern wall
G1 E-0.5 F3300 ; Retract
G1 Z0.55 F18000 ; Z hop
G0 X172.1641 Y138.0068 F18000 ; Move to next pattern
G1 Z0.45 F18000 ; Z hop return
G1 E0.5 F1500 ; Un-retract
SET_PRESSURE_ADVANCE ADVANCE=0.065 ; Set pressure advance
M117 PA 0.065
G1 X193.3773 Y159.22 E0.97485 F9000 ; Print pattern wall
G1 X172.1641 Y180.4332 E0.97485 F9000 ; Print pattern wall
G1 E-0.5 F3300 ; Retract
G1 Z0.55 F18000 ; Z hop
G0 X172.7398 Y138.0068 F18000 ; Move to start next pattern wall
G1 Z0.45 F18000 ; Z hop return
G1 E0.5 F1500 ; Un-retract
G1 X193.953 Y159.22 E0.97485 F9000 ; Print pattern wall
G1 X172.7398 Y180.4332 E0.97485 F9000 ; Print pattern wall
G1 E-0.5 F3300 ; Retract
G1 Z0.55 F18000 ; Z hop
G0 X173.3155 Y138.0068 F18000 ; Move to start next pattern wall
G1 Z0.45 F18000 ; Z hop return
G1 E0.5 F1500 ; Un-retract
G1 X194.5287 Y159.22 E0.97485 F9000 ; Print pattern wall
G1 X173.3155 Y180.4332 E0.97485 F9000 ; Print pattern wall
G1 E-0.5 F3300 ; Retract
G1 Z0.55 F18000 ; Z hop
G0 X175.7655 Y138.0068 F18000 ; Move to next pattern
G1 Z0.45 F18000 ; Z hop return
G1 E0.5 F1500 ; Un-retract
SET_PRESSURE_ADVANCE ADVANCE=0.07 ; Set pressure advance
M117 PA 0.07
G1 X196.9787 Y159.22 E0.97485 F9000 ; Print pattern wall
G1 X175.7655 Y180.4332 E0.97485 F9000 ; Print pattern wall
G1 E-0.5 F3300 ; Retract
G1 Z0.55 F18000 ; Z hop
G0 X176.3412 Y138.0068 F18000 ; Move to start next pattern wall
G1 Z0.45 F18000 ; Z hop return
G1 E0.5 F1500 ; Un-retract
G1 X197.5544 Y159.22 E0.97485 F9000 ; Print pattern wall
G1 X176.3412 Y180.4332 E0.97485 F9000 ; Print pattern wall
G1 E-0.5 F3300 ; Retract
G1 Z0.55 F18000 ; Z hop
G0 X176.9169 Y138.0068 F18000 ; Move to start next pattern wall
G1 Z0.45 F18000 ; Z hop return
G1 E0.5 F1500 ; Un-retract
G1 X198.1301 Y159.22 E0.97485 F9000 ; Print pattern wall
G1 X176.9169 Y180.4332 E0.97485 F9000 ; Print pattern wall
G1 E-0.5 F3300 ; Retract
G1 Z0.55 F18000 ; Z hop
G0 X179.3669 Y138.0068 F18000 ; Move to next pattern
G1 Z0.45 F18000 ; Z hop return
G1 E0.5 F1500 ; Un-retract
SET_PRESSURE_ADVANCE ADVANCE=0.075 ; Set pressure advance
M117 PA 0.075
G1 X200.5801 Y159.22 E0.97485 F9000 ; Print pattern wall
G1 X179.3669 Y180.4332 E0.97485 F9000 ; Print pattern wall
G1 E-0.5 F3300 ; Retract
G1 Z0.55 F18000 ; Z hop
G0 X179.9426 Y138.0068 F18000 ; Move to start next pattern wall
G1 Z0.45 F18000 ; Z hop return
G1 E0.5 F1500 ; Un-retract
G1 X201.1558 Y159.22 E0.97485 F9000 ; Print pattern wall
G1 X179.9426 Y180.4332 E0.97485 F9000 ; Print pattern wall
G1 E-0.5 F3300 ; Retract
G1 Z0.55 F18000 ; Z hop
G0 X180.5183 Y138.0068 F18000 ; Move to start next pattern wall
G1 Z0.45 F18000 ; Z hop return
G1 E0.5 F1500 ; Un-retract
G1 X201.7315 Y159.22 E0.97485 F9000 ; Print pattern wall
G1 X180.5183 Y180.4332 E0.97485 F9000 ; Print pattern wall
G1 E-0.5 F3300 ; Retract
G1 Z0.55 F18000 ; Z hop
G0 X182.9683 Y138.0068 F18000 ; Move to next pattern
G1 Z0.45 F18000 ; Z hop return
G1 E0.5 F1500 ; Un-retract
SET_PRESSURE_ADVANCE ADVANCE=0.08 ; Set pressure advance
M117 PA 0.08
G1 X204.1815 Y159.22 E0.97485 F9000 ; Print pattern wall
G1 X182.9683 Y180.4332 E0.97485 F9000 ; Print pattern wall
G1 E-0.5 F3300 ; Retract
G1 Z0.55 F18000 ; Z hop
G0 X183.544 Y138.0068 F18000 ; Move to start next pattern wall
G1 Z0.45 F18000 ; Z hop return
G1 E0.5 F1500 ; Un-retract
G1 X204.7572 Y159.22 E0.97485 F9000 ; Print pattern wall
G1 X183.544 Y180.4332 E0.97485 F9000 ; Print pattern wall
G1 E-0.5 F3300 ; Retract
G1 Z0.55 F18000 ; Z hop
G0 X184.1197 Y138.0068 F18000 ; Move to start next pattern wall
G1 Z0.45 F18000 ; Z hop return
G1 E0.5 F1500 ; Un-retract
G1 X205.3329 Y159.22 E0.97485 F9000 ; Print pattern wall
G1 X184.1197 Y180.4332 E0.97485 F9000 ; Print pattern wall
G1 E-0.5 F3300 ; Retract
G1 Z0.55 F18000 ; Z hop
G0 X125.346 Y138.0068 F18000 ; Move back to start position
G1 Z0.45 F18000 ; Z hop return
G1 E0.5 F1500 ; Un-retract
G0 Z0.65 F18000 ; Move to layer height
SET_PRESSURE_ADVANCE ADVANCE=0 ; Set pressure advance
M117 PA 0
G1 X146.5592 Y159.22 E0.97485 F9000 ; Print pattern wall
G1 X125.346 Y180.4332 E0.97485 F9000 ; Print pattern wall
G1 E-0.5 F3300 ; Retract
G1 Z0.75 F18000 ; Z hop
G0 X125.9217 Y138.0068 F18000 ; Move to start next pattern wall
G1 Z0.65 F18000 ; Z hop return
G1 E0.5 F1500 ; Un-retract
G1 X147.1349 Y159.22 E0.97485 F9000 ; Print pattern wall
G1 X125.9217 Y180.4332 E0.97485 F9000 ; Print pattern wall
G1 E-0.5 F3300 ; Retract
G1 Z0.75 F18000 ; Z hop
G0 X126.4974 Y138.0068 F18000 ; Move to start next pattern wall
G1 Z0.65 F18000 ; Z hop return
G1 E0.5 F1500 ; Un-retract
G1 X147.7106 Y159.22 E0.97485 F9000 ; Print pattern wall
G1 X126.4974 Y180.4332 E0.97485 F9000 ; Print pattern wall
G1 E-0.5 F3300 ; Retract
G1 Z0.75 F18000 ; Z hop
G0 X128.9474 Y138.0068 F18000 ; Move to next pattern
G1 Z0.65 F18000 ; Z hop return
G1 E0.5 F1500 ; Un-retract
SET_PRESSURE_ADVANCE ADVANCE=0.005 ; Set pressure advance
M117 PA 0.005
G1 X150.1606 Y159.22 E0.97485 F9000 ; Print pattern wall
G1 X128.9474 Y180.4332 E0.97485 F9000 ; Print pattern wall
G1 E-0.5 F3300 ; Retract
G1 Z0.75 F18000 ; Z hop
G0 X129.5231 Y138.0068 F18000 ; Move to start next pattern wall
G1 Z0.65 F18000 ; Z hop return
G1 E0.5 F1500 ; Un-retract
G1 X150.7363 Y159.22 E0.97485 F9000 ; Print pattern wall
G1 X129.5231 Y180.4332 E0.97485 F9000 ; Print pattern wall
G1 E-0.5 F3300 ; Retract
G1 Z0.75 F18000 ; Z hop
G0 X130.0988 Y138.0068 F18000 ; Move to start next pattern wall
G1 Z0.65 F18000 ; Z hop return
G1 E0.5 F1500 ; Un-retract
G1 X151.312 Y159.22 E0.97485 F9000 ; Print pattern wall
G1 X130.0988 Y180.4332 E0.97485 F9000 ; Print pattern wall
G1 E-0.5 F3300 ; Retract
G1 Z0.75 F18000 ; Z hop
G0 X132.5488 Y138.0068 F18000 ; Move to next pattern
G1 Z0.65 F18000 ; Z hop return
G1 E0.5 F1500 ; Un-retract
SET_PRESSURE_ADVANCE ADVANCE=0.01 ; Set pressure advance
M117 PA 0.01
G1 X153.762 Y159.22 E0.97485 F9000 ; Print pattern wall
G1 X132.5488 Y180.4332 E0.97485 F9000 ; Print pattern wall
G1 E-0.5 F3300 ; Retract
G1 Z0.75 F18000 ; Z hop
G0 X133.1245 Y138.0068 F18000 ; Move to start next pattern wall
G1 Z0.65 F18000 ; Z hop return
G1 E0.5 F1500 ; Un-retract
G1 X154.3377 Y159.22 E0.97485 F9000 ; Print pattern wall
G1 X133.1245 Y180.4332 E0.97485 F9000 ; Print pattern wall
G1 E-0.5 F3300 ; Retract
G1 Z0.75 F18000 ; Z hop
G0 X133.7002 Y138.0068 F18000 ; Move to start next pattern wall
G1 Z0.65 F18000 ; Z hop return
G1 E0.5 F1500 ; Un-retract
G1 X154.9134 Y159.22 E0.97485 F9000 ; Print pattern wall
G1 X133.7002 Y180.4332 E0.97485 F9000 ; Print pattern wall
G1 E-0.5 F3300 ; Retract
G1 Z0.75 F18000 ; Z hop
G0 X136.1502 Y138.0068 F18000 ; Move to next pattern
G1 Z0.65 F18000 ; Z hop return
G1 E0.5 F1500 ; Un-retract
SET_PRESSURE_ADVANCE ADVANCE=0.015 ; Set pressure advance
M117 PA 0.015
G1 X157.3634 Y159.22 E0.97485 F9000 ; Print pattern wall
G1 X136.1502 Y180.4332 E0.97485 F9000 ; Print pattern wall
G1 E-0.5 F3300 ; Retract
G1 Z0.75 F18000 ; Z hop
G0 X136.7259 Y138.0068 F18000 ; Move to start next pattern wall
G1 Z0.65 F18000 ; Z hop return
G1 E0.5 F1500 ; Un-retract
G1 X157.9391 Y159.22 E0.97485 F9000 ; Print pattern wall
G1 X136.7259 Y180.4332 E0.97485 F9000 ; Print pattern wall
G1 E-0.5 F3300 ; Retract
G1 Z0.75 F18000 ; Z hop
G0 X137.3016 Y138.0068 F18000 ; Move to start next pattern wall
G1 Z0.65 F18000 ; Z hop return
G1 E0.5 F1500 ; Un-retract
G1 X158.5148 Y159.22 E0.97485 F9000 ; Print pattern wall
G1 X137.3016 Y180.4332 E0.97485 F9000 ; Print pattern wall
G1 E-0.5 F3300 ; Retract
G1 Z0.75 F18000 ; Z hop
G0 X139.7516 Y138.0068 F18000 ; Move to next pattern
G1 Z0.65 F18000 ; Z hop return
G1 E0.5 F1500 ; Un-retract
SET_PRESSURE_ADVANCE ADVANCE=0.02 ; Set pressure advance
M117 PA 0.02
G1 X160.9648 Y159.22 E0.97485 F9000 ; Print pattern wall
G1 X139.7516 Y180.4332 E0.97485 F9000 ; Print pattern wall
G1 E-0.5 F3300 ; Retract
G1 Z0.75 F18000 ; Z hop
G0 X140.3273 Y138.0068 F18000 ; Move to start next pattern wall
G1 Z0.65 F18000 ; Z hop return
G1 E0.5 F1500 ; Un-retract
G1 X161.5405 Y159.22 E0.97485 F9000 ; Print pattern wall
G1 X140.3273 Y180.4332 E0.97485 F9000 ; Print pattern wall
G1 E-0.5 F3300 ; Retract
G1 Z0.75 F18000 ; Z hop
G0 X140.903 Y138.0068 F18000 ; Move to start next pattern wall
G1 Z0.65 F18000 ; Z hop return
G1 E0.5 F1500 ; Un-retract
G1 X162.1162 Y159.22 E0.97485 F9000 ; Print pattern wall
G1 X140.903 Y180.4332 E0.97485 F9000 ; Print pattern wall
G1 E-0.5 F3300 ; Retract
G1 Z0.75 F18000 ; Z hop
G0 X143.353 Y138.0068 F18000 ; Move to next pattern
G1 Z0.65 F18000 ; Z hop return
G1 E0.5 F1500 ; Un-retract
SET_PRESSURE_ADVANCE ADVANCE=0.025 ; Set pressure advance
M117 PA 0.025
G1 X164.5662 Y159.22 E0.97485 F9000 ; Print pattern wall
G1 X143.353 Y180.4332 E0.97485 F9000 ; Print pattern wall
G1 E-0.5 F3300 ; Retract
G1 Z0.75 F18000 ; Z hop
G0 X143.9287 Y138.0068 F18000 ; Move to start next pattern wall
G1 Z0.65 F18000 ; Z hop return
G1 E0.5 F1500 ; Un-retract
G1 X165.1419 Y159.22 E0.97485 F9000 ; Print pattern wall
G1 X143.9287 Y180.4332 E0.97485 F9000 ; Print pattern wall
G1 E-0.5 F3300 ; Retract
G1 Z0.75 F18000 ; Z hop
G0 X144.5044 Y138.0068 F18000 ; Move to start next pattern wall
G1 Z0.65 F18000 ; Z hop return
G1 E0.5 F1500 ; Un-retract
G1 X165.7176 Y159.22 E0.97485 F9000 ; Print pattern wall
G1 X144.5044 Y180.4332 E0.97485 F9000 ; Print pattern wall
G1 E-0.5 F3300 ; Retract
G1 Z0.75 F18000 ; Z hop
G0 X146.9544 Y138.0068 F18000 ; Move to next pattern
G1 Z0.65 F18000 ; Z hop return
G1 E0.5 F1500 ; Un-retract
SET_PRESSURE_ADVANCE ADVANCE=0.03 ; Set pressure advance
M117 PA 0.03
G1 X168.1676 Y159.22 E0.97485 F9000 ; Print pattern wall
G1 X146.9544 Y180.4332 E0.97485 F9000 ; Print pattern wall
G1 E-0.5 F3300 ; Retract
G1 Z0.75 F18000 ; Z hop
G0 X147.5301 Y138.0068 F18000 ; Move to start next pattern wall
G1 Z0.65 F18000 ; Z hop return
G1 E0.5 F1500 ; Un-retract
G1 X168.7433 Y159.22 E0.97485 F9000 ; Print pattern wall
G1 X147.5301 Y180.4332 E0.97485 F9000 ; Print pattern wall
G1 E-0.5 F3300 ; Retract
G1 Z0.75 F18000 ; Z hop
G0 X148.1058 Y138.0068 F18000 ; Move to start next pattern wall
G1 Z0.65 F18000 ; Z hop return
G1 E0.5 F1500 ; Un-retract
G1 X169.319 Y159.22 E0.97485 F9000 ; Print pattern wall
G1 X148.1058 Y180.4332 E0.97485 F9000 ; Print pattern wall
G1 E-0.5 F3300 ; Retract
G1 Z0.75 F18000 ; Z hop
G0 X150.5558 Y138.0068 F18000 ; Move to next pattern
G1 Z0.65 F18000 ; Z hop return
G1 E0.5 F1500 ; Un-retract
SET_PRESSURE_ADVANCE ADVANCE=0.035 ; Set pressure advance
M117 PA 0.035
G1 X171.769 Y159.22 E0.97485 F9000 ; Print pattern wall
G1 X150.5558 Y180.4332 E0.97485 F9000 ; Print pattern wall
G1 E-0.5 F3300 ; Retract
G1 Z0.75 F18000 ; Z hop
G0 X151.1315 Y138.0068 F18000 ; Move to start next pattern wall
G1 Z0.65 F18000 ; Z hop return
G1 E0.5 F1500 ; Un-retract
G1 X172.3447 Y159.22 E0.97485 F9000 ; Print pattern wall
G1 X151.1315 Y180.4332 E0.97485 F9000 ; Print pattern wall
G1 E-0.5 F3300 ; Retract
G1 Z0.75 F18000 ; Z hop
G0 X151.7072 Y138.0068 F18000 ; Move to start next pattern wall
G1 Z0.65 F18000 ; Z hop return
G1 E0.5 F1500 ; Un-retract
G1 X172.9204 Y159.22 E0.97485 F9000 ; Print pattern wall
G1 X151.7072 Y180.4332 E0.97485 F9000 ; Print pattern wall
G1 E-0.5 F3300 ; Retract
G1 Z0.75 F18000 ; Z hop
G0 X154.1572 Y138.0068 F18000 ; Move to next pattern
G1 Z0.65 F18000 ; Z hop return
G1 E0.5 F1500 ; Un-retract
SET_PRESSURE_ADVANCE ADVANCE=0.04 ; Set pressure advance
M117 PA 0.04
G1 X175.3704 Y159.22 E0.97485 F9000 ; Print pattern wall
G1 X154.1572 Y180.4332 E0.97485 F9000 ; Print pattern wall
G1 E-0.5 F3300 ; Retract
G1 Z0.75 F18000 ; Z hop
G0 X154.7329 Y138.0068 F18000 ; Move to start next pattern wall
G1 Z0.65 F18000 ; Z hop return
G1 E0.5 F1500 ; Un-retract
G1 X175.9461 Y159.22 E0.97485 F9000 ; Print pattern wall
G1 X154.7329 Y180.4332 E0.97485 F9000 ; Print pattern wall
G1 E-0.5 F3300 ; Retract
G1 Z0.75 F18000 ; Z hop
G0 X155.3086 Y138.0068 F18000 ; Move to start next pattern wall
G1 Z0.65 F18000 ; Z hop return
G1 E0.5 F1500 ; Un-retract
G1 X176.5218 Y159.22 E0.97485 F9000 ; Print pattern wall
G1 X155.3086 Y180.4332 E0.97485 F9000 ; Print pattern wall
G1 E-0.5 F3300 ; Retract
G1 Z0.75 F18000 ; Z hop
G0 X157.7586 Y138.0068 F18000 ; Move to next pattern
G1 Z0.65 F18000 ; Z hop return
G1 E0.5 F1500 ; Un-retract
SET_PRESSURE_ADVANCE ADVANCE=0.045 ; Set pressure advance
M117 PA 0.045
G1 X178.9718 Y159.22 E0.97485 F9000 ; Print pattern wall
G1 X157.7586 Y180.4332 E0.97485 F9000 ; Print pattern wall
G1 E-0.5 F3300 ; Retract
G1 Z0.75 F18000 ; Z hop
G0 X158.3343 Y138.0068 F18000 ; Move to start next pattern wall
G1 Z0.65 F18000 ; Z hop return
G1 E0.5 F1500 ; Un-retract
G1 X179.5475 Y159.22 E0.97485 F9000 ; Print pattern wall
G1 X158.3343 Y180.4332 E0.97485 F9000 ; Print pattern wall
G1 E-0.5 F3300 ; Retract
G1 Z0.75 F18000 ; Z hop
G0 X158.91 Y138.0068 F18000 ; Move to start next pattern wall
G1 Z0.65 F18000 ; Z hop return
G1 E0.5 F1500 ; Un-retract
G1 X180.1232 Y159.22 E0.97485 F9000 ; Print pattern wall
G1 X158.91 Y180.4332 E0.97485 F9000 ; Print pattern wall
G1 E-0.5 F3300 ; Retract
G1 Z0.75 F18000 ; Z hop
G0 X161.36 Y138.0068 F18000 ; Move to next pattern
G1 Z0.65 F18000 ; Z hop return
G1 E0.5 F1500 ; Un-retract
SET_PRESSURE_ADVANCE ADVANCE=0.05 ; Set pressure advance
M117 PA 0.05
G1 X182.5732 Y159.22 E0.97485 F9000 ; Print pattern wall
G1 X161.36 Y180.4332 E0.97485 F9000 ; Print pattern wall
G1 E-0.5 F3300 ; Retract
G1 Z0.75 F18000 ; Z hop
G0 X161.9357 Y138.0068 F18000 ; Move to start next pattern wall
G1 Z0.65 F18000 ; Z hop return
G1 E0.5 F1500 ; Un-retract
G1 X183.1489 Y159.22 E0.97485 F9000 ; Print pattern wall
G1 X161.9357 Y180.4332 E0.97485 F9000 ; Print pattern wall
G1 E-0.5 F3300 ; Retract
G1 Z0.75 F18000 ; Z hop
G0 X162.5113 Y138.0068 F18000 ; Move to start next pattern wall
G1 Z0.65 F18000 ; Z hop return
G1 E0.5 F1500 ; Un-retract
G1 X183.7246 Y159.22 E0.97485 F9000 ; Print pattern wall
G1 X162.5113 Y180.4332 E0.97485 F9000 ; Print pattern wall
G1 E-0.5 F3300 ; Retract
G1 Z0.75 F18000 ; Z hop
G0 X164.9613 Y138.0068 F18000 ; Move to next pattern
G1 Z0.65 F18000 ; Z hop return
G1 E0.5 F1500 ; Un-retract
SET_PRESSURE_ADVANCE ADVANCE=0.055 ; Set pressure advance
M117 PA 0.055
G1 X186.1746 Y159.22 E0.97485 F9000 ; Print pattern wall
G1 X164.9613 Y180.4332 E0.97485 F9000 ; Print pattern wall
G1 E-0.5 F3300 ; Retract
G1 Z0.75 F18000 ; Z hop
G0 X165.537 Y138.0068 F18000 ; Move to start next pattern wall
G1 Z0.65 F18000 ; Z hop return
G1 E0.5 F1500 ; Un-retract
G1 X186.7502 Y159.22 E0.97485 F9000 ; Print pattern wall
G1 X165.537 Y180.4332 E0.97485 F9000 ; Print pattern wall
G1 E-0.5 F3300 ; Retract
G1 Z0.75 F18000 ; Z hop
G0 X166.1127 Y138.0068 F18000 ; Move to start next pattern wall
G1 Z0.65 F18000 ; Z hop return
G1 E0.5 F1500 ; Un-retract
G1 X187.3259 Y159.22 E0.97485 F9000 ; Print pattern wall
G1 X166.1127 Y180.4332 E0.97485 F9000 ; Print pattern wall
G1 E-0.5 F3300 ; Retract
G1 Z0.75 F18000 ; Z hop
G0 X168.5627 Y138.0068 F18000 ; Move to next pattern
G1 Z0.65 F18000 ; Z hop return
G1 E0.5 F1500 ; Un-retract
SET_PRESSURE_ADVANCE ADVANCE=0.06 ; Set pressure advance
M117 PA 0.06
G1 X189.7759 Y159.22 E0.97485 F9000 ; Print pattern wall
G1 X168.5627 Y180.4332 E0.97485 F9000 ; Print pattern wall
G1 E-0.5 F3300 ; Retract
G1 Z0.75 F18000 ; Z hop
G0 X169.1384 Y138.0068 F18000 ; Move to start next pattern wall
G1 Z0.65 F18000 ; Z hop return
G1 E0.5 F1500 ; Un-retract
G1 X190.3516 Y159.22 E0.97485 F9000 ; Print pattern wall
G1 X169.1384 Y180.4332 E0.97485 F9000 ; Print pattern wall
G1 E-0.5 F3300 ; Retract
G1 Z0.75 F18000 ; Z hop
G0 X169.7141 Y138.0068 F18000 ; Move to start next pattern wall
G1 Z0.65 F18000 ; Z hop return
G1 E0.5 F1500 ; Un-retract
G1 X190.9273 Y159.22 E0.97485 F9000 ; Print pattern wall
G1 X169.7141 Y180.4332 E0.97485 F9000 ; Print pattern wall
G1 E-0.5 F3300 ; Retract
G1 Z0.75 F18000 ; Z hop
G0 X172.1641 Y138.0068 F18000 ; Move to next pattern
G1 Z0.65 F18000 ; Z hop return
G1 E0.5 F1500 ; Un-retract
SET_PRESSURE_ADVANCE ADVANCE=0.065 ; Set pressure advance
M117 PA 0.065
G1 X193.3773 Y159.22 E0.97485 F9000 ; Print pattern wall
G1 X172.1641 Y180.4332 E0.97485 F9000 ; Print pattern wall
G1 E-0.5 F3300 ; Retract
G1 Z0.75 F18000 ; Z hop
G0 X172.7398 Y138.0068 F18000 ; Move to start next pattern wall
G1 Z0.65 F18000 ; Z hop return
G1 E0.5 F1500 ; Un-retract
G1 X193.953 Y159.22 E0.97485 F9000 ; Print pattern wall
G1 X172.7398 Y180.4332 E0.97485 F9000 ; Print pattern wall
G1 E-0.5 F3300 ; Retract
G1 Z0.75 F18000 ; Z hop
G0 X173.3155 Y138.0068 F18000 ; Move to start next pattern wall
G1 Z0.65 F18000 ; Z hop return
G1 E0.5 F1500 ; Un-retract
G1 X194.5287 Y159.22 E0.97485 F9000 ; Print pattern wall
G1 X173.3155 Y180.4332 E0.97485 F9000 ; Print pattern wall
G1 E-0.5 F3300 ; Retract
G1 Z0.75 F18000 ; Z hop
G0 X175.7655 Y138.0068 F18000 ; Move to next pattern
G1 Z0.65 F18000 ; Z hop return
G1 E0.5 F1500 ; Un-retract
SET_PRESSURE_ADVANCE ADVANCE=0.07 ; Set pressure advance
M117 PA 0.07
G1 X196.9787 Y159.22 E0.97485 F9000 ; Print pattern wall
G1 X175.7655 Y180.4332 E0.97485 F9000 ; Print pattern wall
G1 E-0.5 F3300 ; Retract
G1 Z0.75 F18000 ; Z hop
G0 X176.3412 Y138.0068 F18000 ; Move to start next pattern wall
G1 Z0.65 F18000 ; Z hop return
G1 E0.5 F1500 ; Un-retract
G1 X197.5544 Y159.22 E0.97485 F9000 ; Print pattern wall
G1 X176.3412 Y180.4332 E0.97485 F9000 ; Print pattern wall
G1 E-0.5 F3300 ; Retract
G1 Z0.75 F18000 ; Z hop
G0 X176.9169 Y138.0068 F18000 ; Move to start next pattern wall
G1 Z0.65 F18000 ; Z hop return
G1 E0.5 F1500 ; Un-retract
G1 X198.1301 Y159.22 E0.97485 F9000 ; Print pattern wall
G1 X176.9169 Y180.4332 E0.97485 F9000 ; Print pattern wall
G1 E-0.5 F3300 ; Retract
G1 Z0.75 F18000 ; Z hop
G0 X179.3669 Y138.0068 F18000 ; Move to next pattern
G1 Z0.65 F18000 ; Z hop return
G1 E0.5 F1500 ; Un-retract
SET_PRESSURE_ADVANCE ADVANCE=0.075 ; Set pressure advance
M117 PA 0.075
G1 X200.5801 Y159.22 E0.97485 F9000 ; Print pattern wall
G1 X179.3669 Y180.4332 E0.97485 F9000 ; Print pattern wall
G1 E-0.5 F3300 ; Retract
G1 Z0.75 F18000 ; Z hop
G0 X179.9426 Y138.0068 F18000 ; Move to start next pattern wall
G1 Z0.65 F18000 ; Z hop return
G1 E0.5 F1500 ; Un-retract
G1 X201.1558 Y159.22 E0.97485 F9000 ; Print pattern wall
G1 X179.9426 Y180.4332 E0.97485 F9000 ; Print pattern wall
G1 E-0.5 F3300 ; Retract
G1 Z0.75 F18000 ; Z hop
G0 X180.5183 Y138.0068 F18000 ; Move to start next pattern wall
G1 Z0.65 F18000 ; Z hop return
G1 E0.5 F1500 ; Un-retract
G1 X201.7315 Y159.22 E0.97485 F9000 ; Print pattern wall
G1 X180.5183 Y180.4332 E0.97485 F9000 ; Print pattern wall
G1 E-0.5 F3300 ; Retract
G1 Z0.75 F18000 ; Z hop
G0 X182.9683 Y138.0068 F18000 ; Move to next pattern
G1 Z0.65 F18000 ; Z hop return
G1 E0.5 F1500 ; Un-retract
SET_PRESSURE_ADVANCE ADVANCE=0.08 ; Set pressure advance
M117 PA 0.08
G1 X204.1815 Y159.22 E0.97485 F9000 ; Print pattern wall
G1 X182.9683 Y180.4332 E0.97485 F9000 ; Print pattern wall
G1 E-0.5 F3300 ; Retract
G1 Z0.75 F18000 ; Z hop
G0 X183.544 Y138.0068 F18000 ; Move to start next pattern wall
G1 Z0.65 F18000 ; Z hop return
G1 E0.5 F1500 ; Un-retract
G1 X204.7572 Y159.22 E0.97485 F9000 ; Print pattern wall
G1 X183.544 Y180.4332 E0.97485 F9000 ; Print pattern wall
G1 E-0.5 F3300 ; Retract
G1 Z0.75 F18000 ; Z hop
G0 X184.1197 Y138.0068 F18000 ; Move to start next pattern wall
G1 Z0.65 F18000 ; Z hop return
G1 E0.5 F1500 ; Un-retract
G1 X205.3329 Y159.22 E0.97485 F9000 ; Print pattern wall
G1 X184.1197 Y180.4332 E0.97485 F9000 ; Print pattern wall
G1 E-0.5 F3300 ; Retract
G1 Z0.75 F18000 ; Z hop
G0 X125.346 Y138.0068 F18000 ; Move back to start position
G1 Z0.65 F18000 ; Z hop return
G1 E0.5 F1500 ; Un-retract
G0 Z0.85 F18000 ; Move to layer height
SET_PRESSURE_ADVANCE ADVANCE=0 ; Set pressure advance
M117 PA 0
G1 X146.5592 Y159.22 E0.97485 F9000 ; Print pattern wall
G1 X125.346 Y180.4332 E0.97485 F9000 ; Print pattern wall
G1 E-0.5 F3300 ; Retract
G1 Z0.95 F18000 ; Z hop
G0 X125.9217 Y138.0068 F18000 ; Move to start next pattern wall
G1 Z0.85 F18000 ; Z hop return
G1 E0.5 F1500 ; Un-retract
G1 X147.1349 Y159.22 E0.97485 F9000 ; Print pattern wall
G1 X125.9217 Y180.4332 E0.97485 F9000 ; Print pattern wall
G1 E-0.5 F3300 ; Retract
G1 Z0.95 F18000 ; Z hop
G0 X126.4974 Y138.0068 F18000 ; Move to start next pattern wall
G1 Z0.85 F18000 ; Z hop return
G1 E0.5 F1500 ; Un-retract
G1 X147.7106 Y159.22 E0.97485 F9000 ; Print pattern wall
G1 X126.4974 Y180.4332 E0.97485 F9000 ; Print pattern wall
G1 E-0.5 F3300 ; Retract
G1 Z0.95 F18000 ; Z hop
G0 X128.9474 Y138.0068 F18000 ; Move to next pattern
G1 Z0.85 F18000 ; Z hop return
G1 E0.5 F1500 ; Un-retract
SET_PRESSURE_ADVANCE ADVANCE=0.005 ; Set pressure advance
M117 PA 0.005
G1 X150.1606 Y159.22 E0.97485 F9000 ; Print pattern wall
G1 X128.9474 Y180.4332 E0.97485 F9000 ; Print pattern wall
G1 E-0.5 F3300 ; Retract
G1 Z0.95 F18000 ; Z hop
G0 X129.5231 Y138.0068 F18000 ; Move to start next pattern wall
G1 Z0.85 F18000 ; Z hop return
G1 E0.5 F1500 ; Un-retract
G1 X150.7363 Y159.22 E0.97485 F9000 ; Print pattern wall
G1 X129.5231 Y180.4332 E0.97485 F9000 ; Print pattern wall
G1 E-0.5 F3300 ; Retract
G1 Z0.95 F18000 ; Z hop
G0 X130.0988 Y138.0068 F18000 ; Move to start next pattern wall
G1 Z0.85 F18000 ; Z hop return
G1 E0.5 F1500 ; Un-retract
G1 X151.312 Y159.22 E0.97485 F9000 ; Print pattern wall
G1 X130.0988 Y180.4332 E0.97485 F9000 ; Print pattern wall
G1 E-0.5 F3300 ; Retract
G1 Z0.95 F18000 ; Z hop
G0 X132.5488 Y138.0068 F18000 ; Move to next pattern
G1 Z0.85 F18000 ; Z hop return
G1 E0.5 F1500 ; Un-retract
SET_PRESSURE_ADVANCE ADVANCE=0.01 ; Set pressure advance
M117 PA 0.01
G1 X153.762 Y159.22 E0.97485 F9000 ; Print pattern wall
G1 X132.5488 Y180.4332 E0.97485 F9000 ; Print pattern wall
G1 E-0.5 F3300 ; Retract
G1 Z0.95 F18000 ; Z hop
G0 X133.1245 Y138.0068 F18000 ; Move to start next pattern wall
G1 Z0.85 F18000 ; Z hop return
G1 E0.5 F1500 ; Un-retract
G1 X154.3377 Y159.22 E0.97485 F9000 ; Print pattern wall
G1 X133.1245 Y180.4332 E0.97485 F9000 ; Print pattern wall
G1 E-0.5 F3300 ; Retract
G1 Z0.95 F18000 ; Z hop
G0 X133.7002 Y138.0068 F18000 ; Move to start next pattern wall
G1 Z0.85 F18000 ; Z hop return
G1 E0.5 F1500 ; Un-retract
G1 X154.9134 Y159.22 E0.97485 F9000 ; Print pattern wall
G1 X133.7002 Y180.4332 E0.97485 F9000 ; Print pattern wall
G1 E-0.5 F3300 ; Retract
G1 Z0.95 F18000 ; Z hop
G0 X136.1502 Y138.0068 F18000 ; Move to next pattern
G1 Z0.85 F18000 ; Z hop return
G1 E0.5 F1500 ; Un-retract
SET_PRESSURE_ADVANCE ADVANCE=0.015 ; Set pressure advance
M117 PA 0.015
G1 X157.3634 Y159.22 E0.97485 F9000 ; Print pattern wall
G1 X136.1502 Y180.4332 E0.97485 F9000 ; Print pattern wall
G1 E-0.5 F3300 ; Retract
G1 Z0.95 F18000 ; Z hop
G0 X136.7259 Y138.0068 F18000 ; Move to start next pattern wall
G1 Z0.85 F18000 ; Z hop return
G1 E0.5 F1500 ; Un-retract
G1 X157.9391 Y159.22 E0.97485 F9000 ; Print pattern wall
G1 X136.7259 Y180.4332 E0.97485 F9000 ; Print pattern wall
G1 E-0.5 F3300 ; Retract
G1 Z0.95 F18000 ; Z hop
G0 X137.3016 Y138.0068 F18000 ; Move to start next pattern wall
G1 Z0.85 F18000 ; Z hop return
G1 E0.5 F1500 ; Un-retract
G1 X158.5148 Y159.22 E0.97485 F9000 ; Print pattern wall
G1 X137.3016 Y180.4332 E0.97485 F9000 ; Print pattern wall
G1 E-0.5 F3300 ; Retract
G1 Z0.95 F18000 ; Z hop
G0 X139.7516 Y138.0068 F18000 ; Move to next pattern
G1 Z0.85 F18000 ; Z hop return
G1 E0.5 F1500 ; Un-retract
SET_PRESSURE_ADVANCE ADVANCE=0.02 ; Set pressure advance
M117 PA 0.02
G1 X160.9648 Y159.22 E0.97485 F9000 ; Print pattern wall
G1 X139.7516 Y180.4332 E0.97485 F9000 ; Print pattern wall
G1 E-0.5 F3300 ; Retract
G1 Z0.95 F18000 ; Z hop
G0 X140.3273 Y138.0068 F18000 ; Move to start next pattern wall
G1 Z0.85 F18000 ; Z hop return
G1 E0.5 F1500 ; Un-retract
G1 X161.5405 Y159.22 E0.97485 F9000 ; Print pattern wall
G1 X140.3273 Y180.4332 E0.97485 F9000 ; Print pattern wall
G1 E-0.5 F3300 ; Retract
G1 Z0.95 F18000 ; Z hop
G0 X140.903 Y138.0068 F18000 ; Move to start next pattern wall
G1 Z0.85 F18000 ; Z hop return
G1 E0.5 F1500 ; Un-retract
G1 X162.1162 Y159.22 E0.97485 F9000 ; Print pattern wall
G1 X140.903 Y180.4332 E0.97485 F9000 ; Print pattern wall
G1 E-0.5 F3300 ; Retract
G1 Z0.95 F18000 ; Z hop
G0 X143.353 Y138.0068 F18000 ; Move to next pattern
G1 Z0.85 F18000 ; Z hop return
G1 E0.5 F1500 ; Un-retract
SET_PRESSURE_ADVANCE ADVANCE=0.025 ; Set pressure advance
M117 PA 0.025
G1 X164.5662 Y159.22 E0.97485 F9000 ; Print pattern wall
G1 X143.353 Y180.4332 E0.97485 F9000 ; Print pattern wall
G1 E-0.5 F3300 ; Retract
G1 Z0.95 F18000 ; Z hop
G0 X143.9287 Y138.0068 F18000 ; Move to start next pattern wall
G1 Z0.85 F18000 ; Z hop return
G1 E0.5 F1500 ; Un-retract
G1 X165.1419 Y159.22 E0.97485 F9000 ; Print pattern wall
G1 X143.9287 Y180.4332 E0.97485 F9000 ; Print pattern wall
G1 E-0.5 F3300 ; Retract
G1 Z0.95 F18000 ; Z hop
G0 X144.5044 Y138.0068 F18000 ; Move to start next pattern wall
G1 Z0.85 F18000 ; Z hop return
G1 E0.5 F1500 ; Un-retract
G1 X165.7176 Y159.22 E0.97485 F9000 ; Print pattern wall
G1 X144.5044 Y180.4332 E0.97485 F9000 ; Print pattern wall
G1 E-0.5 F3300 ; Retract
G1 Z0.95 F18000 ; Z hop
G0 X146.9544 Y138.0068 F18000 ; Move to next pattern
G1 Z0.85 F18000 ; Z hop return
G1 E0.5 F1500 ; Un-retract
SET_PRESSURE_ADVANCE ADVANCE=0.03 ; Set pressure advance
M117 PA 0.03
G1 X168.1676 Y159.22 E0.97485 F9000 ; Print pattern wall
G1 X146.9544 Y180.4332 E0.97485 F9000 ; Print pattern wall
G1 E-0.5 F3300 ; Retract
G1 Z0.95 F18000 ; Z hop
G0 X147.5301 Y138.0068 F18000 ; Move to start next pattern wall
G1 Z0.85 F18000 ; Z hop return
G1 E0.5 F1500 ; Un-retract
G1 X168.7433 Y159.22 E0.97485 F9000 ; Print pattern wall
G1 X147.5301 Y180.4332 E0.97485 F9000 ; Print pattern wall
G1 E-0.5 F3300 ; Retract
G1 Z0.95 F18000 ; Z hop
G0 X148.1058 Y138.0068 F18000 ; Move to start next pattern wall
G1 Z0.85 F18000 ; Z hop return
G1 E0.5 F1500 ; Un-retract
G1 X169.319 Y159.22 E0.97485 F9000 ; Print pattern wall
G1 X148.1058 Y180.4332 E0.97485 F9000 ; Print pattern wall
G1 E-0.5 F3300 ; Retract
G1 Z0.95 F18000 ; Z hop
G0 X150.5558 Y138.0068 F18000 ; Move to next pattern
G1 Z0.85 F18000 ; Z hop return
G1 E0.5 F1500 ; Un-retract
SET_PRESSURE_ADVANCE ADVANCE=0.035 ; Set pressure advance
M117 PA 0.035
G1 X171.769 Y159.22 E0.97485 F9000 ; Print pattern wall
G1 X150.5558 Y180.4332 E0.97485 F9000 ; Print pattern wall
G1 E-0.5 F3300 ; Retract
G1 Z0.95 F18000 ; Z hop
G0 X151.1315 Y138.0068 F18000 ; Move to start next pattern wall
G1 Z0.85 F18000 ; Z hop return
G1 E0.5 F1500 ; Un-retract
G1 X172.3447 Y159.22 E0.97485 F9000 ; Print pattern wall
G1 X151.1315 Y180.4332 E0.97485 F9000 ; Print pattern wall
G1 E-0.5 F3300 ; Retract
G1 Z0.95 F18000 ; Z hop
G0 X151.7072 Y138.0068 F18000 ; Move to start next pattern wall
G1 Z0.85 F18000 ; Z hop return
G1 E0.5 F1500 ; Un-retract
G1 X172.9204 Y159.22 E0.97485 F9000 ; Print pattern wall
G1 X151.7072 Y180.4332 E0.97485 F9000 ; Print pattern wall
G1 E-0.5 F3300 ; Retract
G1 Z0.95 F18000 ; Z hop
G0 X154.1572 Y138.0068 F18000 ; Move to next pattern
G1 Z0.85 F18000 ; Z hop return
G1 E0.5 F1500 ; Un-retract
SET_PRESSURE_ADVANCE ADVANCE=0.04 ; Set pressure advance
M117 PA 0.04
G1 X175.3704 Y159.22 E0.97485 F9000 ; Print pattern wall
G1 X154.1572 Y180.4332 E0.97485 F9000 ; Print pattern wall
G1 E-0.5 F3300 ; Retract
G1 Z0.95 F18000 ; Z hop
G0 X154.7329 Y138.0068 F18000 ; Move to start next pattern wall
G1 Z0.85 F18000 ; Z hop return
G1 E0.5 F1500 ; Un-retract
G1 X175.9461 Y159.22 E0.97485 F9000 ; Print pattern wall
G1 X154.7329 Y180.4332 E0.97485 F9000 ; Print pattern wall
G1 E-0.5 F3300 ; Retract
G1 Z0.95 F18000 ; Z hop
G0 X155.3086 Y138.0068 F18000 ; Move to start next pattern wall
G1 Z0.85 F18000 ; Z hop return
G1 E0.5 F1500 ; Un-retract
G1 X176.5218 Y159.22 E0.97485 F9000 ; Print pattern wall
G1 X155.3086 Y180.4332 E0.97485 F9000 ; Print pattern wall
G1 E-0.5 F3300 ; Retract
G1 Z0.95 F18000 ; Z hop
G0 X157.7586 Y138.0068 F18000 ; Move to next pattern
G1 Z0.85 F18000 ; Z hop return
G1 E0.5 F1500 ; Un-retract
SET_PRESSURE_ADVANCE ADVANCE=0.045 ; Set pressure advance
M117 PA 0.045
G1 X178.9718 Y159.22 E0.97485 F9000 ; Print pattern wall
G1 X157.7586 Y180.4332 E0.97485 F9000 ; Print pattern wall
G1 E-0.5 F3300 ; Retract
G1 Z0.95 F18000 ; Z hop
G0 X158.3343 Y138.0068 F18000 ; Move to start next pattern wall
G1 Z0.85 F18000 ; Z hop return
G1 E0.5 F1500 ; Un-retract
G1 X179.5475 Y159.22 E0.97485 F9000 ; Print pattern wall
G1 X158.3343 Y180.4332 E0.97485 F9000 ; Print pattern wall
G1 E-0.5 F3300 ; Retract
G1 Z0.95 F18000 ; Z hop
G0 X158.91 Y138.0068 F18000 ; Move to start next pattern wall
G1 Z0.85 F18000 ; Z hop return
G1 E0.5 F1500 ; Un-retract
G1 X180.1232 Y159.22 E0.97485 F9000 ; Print pattern wall
G1 X158.91 Y180.4332 E0.97485 F9000 ; Print pattern wall
G1 E-0.5 F3300 ; Retract
G1 Z0.95 F18000 ; Z hop
G0 X161.36 Y138.0068 F18000 ; Move to next pattern
G1 Z0.85 F18000 ; Z hop return
G1 E0.5 F1500 ; Un-retract
SET_PRESSURE_ADVANCE ADVANCE=0.05 ; Set pressure advance
M117 PA 0.05
G1 X182.5732 Y159.22 E0.97485 F9000 ; Print pattern wall
G1 X161.36 Y180.4332 E0.97485 F9000 ; Print pattern wall
G1 E-0.5 F3300 ; Retract
G1 Z0.95 F18000 ; Z hop
G0 X161.9357 Y138.0068 F18000 ; Move to start next pattern wall
G1 Z0.85 F18000 ; Z hop return
G1 E0.5 F1500 ; Un-retract
G1 X183.1489 Y159.22 E0.97485 F9000 ; Print pattern wall
G1 X161.9357 Y180.4332 E0.97485 F9000 ; Print pattern wall
G1 E-0.5 F3300 ; Retract
G1 Z0.95 F18000 ; Z hop
G0 X162.5113 Y138.0068 F18000 ; Move to start next pattern wall
G1 Z0.85 F18000 ; Z hop return
G1 E0.5 F1500 ; Un-retract
G1 X183.7246 Y159.22 E0.97485 F9000 ; Print pattern wall
G1 X162.5113 Y180.4332 E0.97485 F9000 ; Print pattern wall
G1 E-0.5 F3300 ; Retract
G1 Z0.95 F18000 ; Z hop
G0 X164.9613 Y138.0068 F18000 ; Move to next pattern
G1 Z0.85 F18000 ; Z hop return
G1 E0.5 F1500 ; Un-retract
SET_PRESSURE_ADVANCE ADVANCE=0.055 ; Set pressure advance
M117 PA 0.055
G1 X186.1746 Y159.22 E0.97485 F9000 ; Print pattern wall
G1 X164.9613 Y180.4332 E0.97485 F9000 ; Print pattern wall
G1 E-0.5 F3300 ; Retract
G1 Z0.95 F18000 ; Z hop
G0 X165.537 Y138.0068 F18000 ; Move to start next pattern wall
G1 Z0.85 F18000 ; Z hop return
G1 E0.5 F1500 ; Un-retract
G1 X186.7502 Y159.22 E0.97485 F9000 ; Print pattern wall
G1 X165.537 Y180.4332 E0.97485 F9000 ; Print pattern wall
G1 E-0.5 F3300 ; Retract
G1 Z0.95 F18000 ; Z hop
G0 X166.1127 Y138.0068 F18000 ; Move to start next pattern wall
G1 Z0.85 F18000 ; Z hop return
G1 E0.5 F1500 ; Un-retract
G1 X187.3259 Y159.22 E0.97485 F9000 ; Print pattern wall
G1 X166.1127 Y180.4332 E0.97485 F9000 ; Print pattern wall
G1 E-0.5 F3300 ; Retract
G1 Z0.95 F18000 ; Z hop
G0 X168.5627 Y138.0068 F18000 ; Move to next pattern
G1 Z0.85 F18000 ; Z hop return
G1 E0.5 F1500 ; Un-retract
SET_PRESSURE_ADVANCE ADVANCE=0.06 ; Set pressure advance
M117 PA 0.06
G1 X189.7759 Y159.22 E0.97485 F9000 ; Print pattern wall
G1 X168.5627 Y180.4332 E0.97485 F9000 ; Print pattern wall
G1 E-0.5 F3300 ; Retract
G1 Z0.95 F18000 ; Z hop
G0 X169.1384 Y138.0068 F18000 ; Move to start next pattern wall
G1 Z0.85 F18000 ; Z hop return
G1 E0.5 F1500 ; Un-retract
G1 X190.3516 Y159.22 E0.97485 F9000 ; Print pattern wall
G1 X169.1384 Y180.4332 E0.97485 F9000 ; Print pattern wall
G1 E-0.5 F3300 ; Retract
G1 Z0.95 F18000 ; Z hop
G0 X169.7141 Y138.0068 F18000 ; Move to start next pattern wall
G1 Z0.85 F18000 ; Z hop return
G1 E0.5 F1500 ; Un-retract
G1 X190.9273 Y159.22 E0.97485 F9000 ; Print pattern wall
G1 X169.7141 Y180.4332 E0.97485 F9000 ; Print pattern wall
G1 E-0.5 F3300 ; Retract
G1 Z0.95 F18000 ; Z hop
G0 X172.1641 Y138.0068 F18000 ; Move to next pattern
G1 Z0.85 F18000 ; Z hop return
G1 E0.5 F1500 ; Un-retract
SET_PRESSURE_ADVANCE ADVANCE=0.065 ; Set pressure advance
M117 PA 0.065
G1 X193.3773 Y159.22 E0.97485 F9000 ; Print pattern wall
G1 X172.1641 Y180.4332 E0.97485 F9000 ; Print pattern wall
G1 E-0.5 F3300 ; Retract
G1 Z0.95 F18000 ; Z hop
G0 X172.7398 Y138.0068 F18000 ; Move to start next pattern wall
G1 Z0.85 F18000 ; Z hop return
G1 E0.5 F1500 ; Un-retract
G1 X193.953 Y159.22 E0.97485 F9000 ; Print pattern wall
G1 X172.7398 Y180.4332 E0.97485 F9000 ; Print pattern wall
G1 E-0.5 F3300 ; Retract
G1 Z0.95 F18000 ; Z hop
G0 X173.3155 Y138.0068 F18000 ; Move to start next pattern wall
G1 Z0.85 F18000 ; Z hop return
G1 E0.5 F1500 ; Un-retract
G1 X194.5287 Y159.22 E0.97485 F9000 ; Print pattern wall
G1 X173.3155 Y180.4332 E0.97485 F9000 ; Print pattern wall
G1 E-0.5 F3300 ; Retract
G1 Z0.95 F18000 ; Z hop
G0 X175.7655 Y138.0068 F18000 ; Move to next pattern
G1 Z0.85 F18000 ; Z hop return
G1 E0.5 F1500 ; Un-retract
SET_PRESSURE_ADVANCE ADVANCE=0.07 ; Set pressure advance
M117 PA 0.07
G1 X196.9787 Y159.22 E0.97485 F9000 ; Print pattern wall
G1 X175.7655 Y180.4332 E0.97485 F9000 ; Print pattern wall
G1 E-0.5 F3300 ; Retract
G1 Z0.95 F18000 ; Z hop
G0 X176.3412 Y138.0068 F18000 ; Move to start next pattern wall
G1 Z0.85 F18000 ; Z hop return
G1 E0.5 F1500 ; Un-retract
G1 X197.5544 Y159.22 E0.97485 F9000 ; Print pattern wall
G1 X176.3412 Y180.4332 E0.97485 F9000 ; Print pattern wall
G1 E-0.5 F3300 ; Retract
G1 Z0.95 F18000 ; Z hop
G0 X176.9169 Y138.0068 F18000 ; Move to start next pattern wall
G1 Z0.85 F18000 ; Z hop return
G1 E0.5 F1500 ; Un-retract
G1 X198.1301 Y159.22 E0.97485 F9000 ; Print pattern wall
G1 X176.9169 Y180.4332 E0.97485 F9000 ; Print pattern wall
G1 E-0.5 F3300 ; Retract
G1 Z0.95 F18000 ; Z hop
G0 X179.3669 Y138.0068 F18000 ; Move to next pattern
G1 Z0.85 F18000 ; Z hop return
G1 E0.5 F1500 ; Un-retract
SET_PRESSURE_ADVANCE ADVANCE=0.075 ; Set pressure advance
M117 PA 0.075
G1 X200.5801 Y159.22 E0.97485 F9000 ; Print pattern wall
G1 X179.3669 Y180.4332 E0.97485 F9000 ; Print pattern wall
G1 E-0.5 F3300 ; Retract
G1 Z0.95 F18000 ; Z hop
G0 X179.9426 Y138.0068 F18000 ; Move to start next pattern wall
G1 Z0.85 F18000 ; Z hop return
G1 E0.5 F1500 ; Un-retract
G1 X201.1558 Y159.22 E0.97485 F9000 ; Print pattern wall
G1 X179.9426 Y180.4332 E0.97485 F9000 ; Print pattern wall
G1 E-0.5 F3300 ; Retract
G1 Z0.95 F18000 ; Z hop
G0 X180.5183 Y138.0068 F18000 ; Move to start next pattern wall
G1 Z0.85 F18000 ; Z hop return
G1 E0.5 F1500 ; Un-retract
G1 X201.7315 Y159.22 E0.97485 F9000 ; Print pattern wall
G1 X180.5183 Y180.4332 E0.97485 F9000 ; Print pattern wall
G1 E-0.5 F3300 ; Retract
G1 Z0.95 F18000 ; Z hop
G0 X182.9683 Y138.0068 F18000 ; Move to next pattern
G1 Z0.85 F18000 ; Z hop return
G1 E0.5 F1500 ; Un-retract
SET_PRESSURE_ADVANCE ADVANCE=0.08 ; Set pressure advance
M117 PA 0.08
G1 X204.1815 Y159.22 E0.97485 F9000 ; Print pattern wall
G1 X182.9683 Y180.4332 E0.97485 F9000 ; Print pattern wall
G1 E-0.5 F3300 ; Retract
G1 Z0.95 F18000 ; Z hop
G0 X183.544 Y138.0068 F18000 ; Move to start next pattern wall
G1 Z0.85 F18000 ; Z hop return
G1 E0.5 F1500 ; Un-retract
G1 X204.7572 Y159.22 E0.97485 F9000 ; Print pattern wall
G1 X183.544 Y180.4332 E0.97485 F9000 ; Print pattern wall
G1 E-0.5 F3300 ; Retract
G1 Z0.95 F18000 ; Z hop
G0 X184.1197 Y138.0068 F18000 ; Move to start next pattern wall
G1 Z0.85 F18000 ; Z hop return
G1 E0.5 F1500 ; Un-retract
G1 X205.3329 Y159.22 E0.97485 F9000 ; Print pattern wall
G1 X184.1197 Y180.4332 E0.97485 F9000 ; Print pattern wall
SET_PRESSURE_ADVANCE ADVANCE=0 ; Set pressure advance back to start value
M117 PA 0
G1 E-0.5 F3300 ; Retract
G1 Z0.95 F18000 ; Z hop
G0 Z5.85 F18000 ; Z raise
M104 S0 ; Turn off hotend
M140 S0 ; Turn off bed
M107    ; Turn off fan
;
; End G-code
;
G91 ;Relative positionning
G1 E-2 F2700 ;Retract a bit
G1 E-8 X5 Y5 Z3 F3000 ;Retract
G90 ;Absolute positionning
G1 X10 Y300 F6000;Finish print
M106 S0 ;Turn-off fan
M104 S0 ;Turn-off hotend
M140 S0 ;Turn-off bed
M84 X Y E ;Disable all steppers but Z
;
; FINISH
;
