
; ### Ellis' Pressure Advance / Linear Advance Calibration Tool ###
;
; Original Marlin linear advance calibration tool by Sineos [https://github.com/Sineos]
; Heavily modified/rewritten by Andrew Ellis [https://github.com/AndrewEllis93]
;
; -------------------------------------------
; Generated: Sat Dec 02 2023 11:17:01 GMT+0100 (heure normale d’Europe centrale)
; -------------------------------------------
;
; Advanced Mode: false
;
; Printer:
;  - Firmware: klipper
;  - Bed Shape: Rect
;  - Bed Size X: 235 mm
;  - Bed Size Y: 235 mm
;  - Origin Bed Center: false
;  - Travel Speed: 300 mm/s
;  - Nozzle Diameter: 0.4 mm
;  - Filament Diameter: 1.75 mm
;  - Extrusion Multiplier: 0.96
;
; Retraction / Z Hop:
;  - Retraction Distance: 0.5 mm
;  - Retract Speed: 55 mm/s
;  - Unretract Speed: 25 mm/s
;  - Z Hop Enable: true
;  - Z Hop Height: 0.1mm
;
; First Layer Settings:
;  - First Layer Height: 0.25 mm
;  - First Layer Printing Speed: 30 mm/s
;  - First Layer Fan Speed: 0%
;  - Anchor Option: anchor_frame
;
; Print Settings:
;  - Layer Height: 0.2 mm
;  - Print Speed: 150 mm/s
;  - Acceleration: Disabled
;  - Fan Speed: 100%
;
; Pressure Advance Stepping:
;  - PA Start Value: 0
;  - PA End Value: 0.08
;  - PA Increment: 0.005
;
; Start / End G-code:
;  - Hotend Temp: 220C
;  - Bed Temp: 60C
;  - Don't Add G28: false
;  - Don't Add Heating G-Codes: false
;
; Calculated Values:
;  - Print Size X: 84.72 mm
;  - Print Size Y: 53.99 mm
;  - Number of Patterns to Print: 17
;  - PA Values: 0, 0.005, 0.01, 0.015, 0.02, 0.025, 0.03, 0.035, 0.04, 0.045, 0.05, 0.055, 0.06, 0.065, 0.07, 0.075, 0.08
;
; Prepare printing
;
G28 ;home
M190 S60 ; Set & wait for bed temp
M109 S220 ; Set & wait for hotend temp
G92 E0 ;Reset Extruder
G1 Z4.0 F3000 ;Move Z Axis up
G92 E0 ;Reset Extruder
G1 X1.1 Y20 Z0.28 F5000.0 ;Move to start position
G1 X1.1 Y80.0 Z0.28 F1500.0 E10 ;Draw the first line
G1 X1.4 Y80.0 Z0.28 F5000.0 ;Move to side a little
G1 X1.4 Y20 Z0.28 F1500.0 E20 ;Draw the second line
G92 E0 ;Reset Extruder
G1 Z2.0 F3000 ;Move Z Axis up
G21 ; Millimeter units
G90 ; Absolute XYZ
M83 ; Relative E
G92 E0 ; Reset extruder distance
;
;  Begin printing
;
M106 S0 ; Set fan speed
G1 E-0.5 F3300 ; Retract
G0 Z5 F18000 ; Z raise
G0 X75.1417 Y90.5068 F18000 ; Move to start position
G0 Z0.25 F18000 ; Move to start layer height
G1 E0.5 F1500 ; Un-retract
SET_PRESSURE_ADVANCE ADVANCE=0 ; Set pressure advance to start value
M117 PA 0
G1 X75.1417 Y132.9332 E2.14354 F1800 ; Draw perimeter (up)
G1 X159.8583 Y132.9332 E4.2802 F1800 ; Draw perimeter (right)
G1 X159.8583 Y90.5068 E2.14354 F1800 ; Draw perimeter (down)
G1 X75.1417 Y90.5068 E4.2802 F1800 ; Draw perimeter (left)
G0 X75.648 Y91.0131 F18000 ; Step inwards to print next perimeter
G1 X75.648 Y132.4269 E2.09238 F1800 ; Draw perimeter (up)
G1 X159.352 Y132.4269 E4.22904 F1800 ; Draw perimeter (right)
G1 X159.352 Y91.0131 E2.09238 F1800 ; Draw perimeter (down)
G1 X75.648 Y91.0131 E4.22904 F1800 ; Draw perimeter (left)
G0 X76.1544 Y91.5195 F18000 ; Step inwards to print next perimeter
G1 X76.1544 Y131.9205 E2.04121 F1800 ; Draw perimeter (up)
G1 X158.8456 Y131.9205 E4.17787 F1800 ; Draw perimeter (right)
G1 X158.8456 Y91.5195 E2.04121 F1800 ; Draw perimeter (down)
G1 X76.1544 Y91.5195 E4.17787 F1800 ; Draw perimeter (left)
G0 X76.6607 Y92.0258 F18000 ; Step inwards to print next perimeter
G1 X76.6607 Y131.4142 E1.99005 F1800 ; Draw perimeter (up)
G1 X158.3393 Y131.4142 E4.12671 F1800 ; Draw perimeter (right)
G1 X158.3393 Y92.0258 E1.99005 F1800 ; Draw perimeter (down)
G1 X76.6607 Y92.0258 E4.12671 F1800 ; Draw perimeter (left)
G1 E-0.5 F3300 ; Retract
G1 Z0.35 F18000 ; Z hop
G0 X75.1417 Y133.4396 F18000 ; Move to box start
G1 Z0.25 F18000 ; Z hop return
G1 E0.5 F1500 ; Un-retract
G1 X75.1417 Y144.9459 E0.58134 F1800 ; Draw perimeter (up)
G1 X139.3962 Y144.9459 E3.24638 F1800 ; Draw perimeter (right)
G1 X139.3962 Y133.4396 E0.58134 F1800 ; Draw perimeter (down)
G1 X75.1417 Y133.4396 E3.24638 F1800 ; Draw perimeter (left)
G0 X75.648 Y133.9459 F18000 ; Step inwards to print next perimeter
G1 X75.648 Y144.4396 E0.53018 F1800 ; Draw perimeter (up)
G1 X138.8898 Y144.4396 E3.19521 F1800 ; Draw perimeter (right)
G1 X138.8898 Y133.9459 E0.53018 F1800 ; Draw perimeter (down)
G1 X75.648 Y133.9459 E3.19521 F1800 ; Draw perimeter (left)
G0 X76.1544 Y134.4523 F18000 ; Step inwards to print next perimeter
G1 X76.1544 Y143.9332 E0.47901 F1800 ; Draw perimeter (up)
G1 X138.3835 Y143.9332 E3.14405 F1800 ; Draw perimeter (right)
G1 X138.3835 Y134.4523 E0.47901 F1800 ; Draw perimeter (down)
G1 X76.1544 Y134.4523 E3.14405 F1800 ; Draw perimeter (left)
G0 X76.6607 Y134.9586 F18000 ; Step inwards to print next perimeter
G1 X76.6607 Y143.4269 E0.42785 F1800 ; Draw perimeter (up)
G1 X137.8771 Y143.4269 E3.09288 F1800 ; Draw perimeter (right)
G1 X137.8771 Y134.9586 E0.42785 F1800 ; Draw perimeter (down)
G1 X76.6607 Y134.9586 E3.09288 F1800 ; Draw perimeter (left)
G0 X77.0341 Y135.3319 F18000 ; Move to fill start
G0 X77.7502 Y135.3319 F18000 ; Move
G1 X77.0341 Y136.048 E0.05117 F1800 ; Fill
G0 X77.0341 Y136.7641 F18000 ; Move
G1 X78.4663 Y135.3319 E0.10233 F1800 ; Fill
G0 X79.1823 Y135.3319 F18000 ; Move
G1 X77.0341 Y137.4802 E0.1535 F1800 ; Fill
G0 X77.0341 Y138.1963 F18000 ; Move
G1 X79.8984 Y135.3319 E0.20466 F1800 ; Fill
G0 X80.6145 Y135.3319 F18000 ; Move
G1 X77.0341 Y138.9124 E0.25583 F1800 ; Fill
G0 X77.0341 Y139.6285 F18000 ; Move
G1 X81.3306 Y135.3319 E0.30699 F1800 ; Fill
G0 X82.0467 Y135.3319 F18000 ; Move
G1 X77.0341 Y140.3445 E0.35816 F1800 ; Fill
G0 X77.0341 Y141.0606 F18000 ; Move
G1 X82.7628 Y135.3319 E0.40932 F1800 ; Fill
G0 X83.4789 Y135.3319 F18000 ; Move
G1 X77.0341 Y141.7767 E0.46049 F1800 ; Fill
G0 X77.0341 Y142.4928 F18000 ; Move
G1 X84.1949 Y135.3319 E0.51165 F1800 ; Fill
G0 X84.911 Y135.3319 F18000 ; Move
G1 X77.1894 Y143.0535 E0.55172 F1800 ; Fill
G0 X77.9055 Y143.0535 F18000 ; Move
G1 X85.6271 Y135.3319 E0.55172 F1800 ; Fill
G0 X86.3432 Y135.3319 F18000 ; Move
G1 X78.6216 Y143.0535 E0.55172 F1800 ; Fill
G0 X79.3377 Y143.0535 F18000 ; Move
G1 X87.0593 Y135.3319 E0.55172 F1800 ; Fill
G0 X87.7754 Y135.3319 F18000 ; Move
G1 X80.0538 Y143.0535 E0.55172 F1800 ; Fill
G0 X80.7699 Y143.0535 F18000 ; Move
G1 X88.4915 Y135.3319 E0.55172 F1800 ; Fill
G0 X89.2076 Y135.3319 F18000 ; Move
G1 X81.486 Y143.0535 E0.55172 F1800 ; Fill
G0 X82.2021 Y143.0535 F18000 ; Move
G1 X89.9236 Y135.3319 E0.55172 F1800 ; Fill
G0 X90.6397 Y135.3319 F18000 ; Move
G1 X82.9181 Y143.0535 E0.55172 F1800 ; Fill
G0 X83.6342 Y143.0535 F18000 ; Move
G1 X91.3558 Y135.3319 E0.55172 F1800 ; Fill
G0 X92.0719 Y135.3319 F18000 ; Move
G1 X84.3503 Y143.0535 E0.55172 F1800 ; Fill
G0 X85.0664 Y143.0535 F18000 ; Move
G1 X92.788 Y135.3319 E0.55172 F1800 ; Fill
G0 X93.5041 Y135.3319 F18000 ; Move
G1 X85.7825 Y143.0535 E0.55172 F1800 ; Fill
G0 X86.4986 Y143.0535 F18000 ; Move
G1 X94.2202 Y135.3319 E0.55172 F1800 ; Fill
G0 X94.9362 Y135.3319 F18000 ; Move
G1 X87.2147 Y143.0535 E0.55172 F1800 ; Fill
G0 X87.9307 Y143.0535 F18000 ; Move
G1 X95.6523 Y135.3319 E0.55172 F1800 ; Fill
G0 X96.3684 Y135.3319 F18000 ; Move
G1 X88.6468 Y143.0535 E0.55172 F1800 ; Fill
G0 X89.3629 Y143.0535 F18000 ; Move
G1 X97.0845 Y135.3319 E0.55172 F1800 ; Fill
G0 X97.8006 Y135.3319 F18000 ; Move
G1 X90.079 Y143.0535 E0.55172 F1800 ; Fill
G0 X90.7951 Y143.0535 F18000 ; Move
G1 X98.5167 Y135.3319 E0.55172 F1800 ; Fill
G0 X99.2328 Y135.3319 F18000 ; Move
G1 X91.5112 Y143.0535 E0.55172 F1800 ; Fill
G0 X92.2273 Y143.0535 F18000 ; Move
G1 X99.9488 Y135.3319 E0.55172 F1800 ; Fill
G0 X100.6649 Y135.3319 F18000 ; Move
G1 X92.9433 Y143.0535 E0.55172 F1800 ; Fill
G0 X93.6594 Y143.0535 F18000 ; Move
G1 X101.381 Y135.3319 E0.55172 F1800 ; Fill
G0 X102.0971 Y135.3319 F18000 ; Move
G1 X94.3755 Y143.0535 E0.55172 F1800 ; Fill
G0 X95.0916 Y143.0535 F18000 ; Move
G1 X102.8132 Y135.3319 E0.55172 F1800 ; Fill
G0 X103.5293 Y135.3319 F18000 ; Move
G1 X95.8077 Y143.0535 E0.55172 F1800 ; Fill
G0 X96.5238 Y143.0535 F18000 ; Move
G1 X104.2454 Y135.3319 E0.55172 F1800 ; Fill
G0 X104.9615 Y135.3319 F18000 ; Move
G1 X97.2399 Y143.0535 E0.55172 F1800 ; Fill
G0 X97.956 Y143.0535 F18000 ; Move
G1 X105.6775 Y135.3319 E0.55172 F1800 ; Fill
G0 X106.3936 Y135.3319 F18000 ; Move
G1 X98.672 Y143.0535 E0.55172 F1800 ; Fill
G0 X99.3881 Y143.0535 F18000 ; Move
G1 X107.1097 Y135.3319 E0.55172 F1800 ; Fill
G0 X107.8258 Y135.3319 F18000 ; Move
G1 X100.1042 Y143.0535 E0.55172 F1800 ; Fill
G0 X100.8203 Y143.0535 F18000 ; Move
G1 X108.5419 Y135.3319 E0.55172 F1800 ; Fill
G0 X109.258 Y135.3319 F18000 ; Move
G1 X101.5364 Y143.0535 E0.55172 F1800 ; Fill
G0 X102.2525 Y143.0535 F18000 ; Move
G1 X109.9741 Y135.3319 E0.55172 F1800 ; Fill
G0 X110.6901 Y135.3319 F18000 ; Move
G1 X102.9686 Y143.0535 E0.55172 F1800 ; Fill
G0 X103.6846 Y143.0535 F18000 ; Move
G1 X111.4062 Y135.3319 E0.55172 F1800 ; Fill
G0 X112.1223 Y135.3319 F18000 ; Move
G1 X104.4007 Y143.0535 E0.55172 F1800 ; Fill
G0 X105.1168 Y143.0535 F18000 ; Move
G1 X112.8384 Y135.3319 E0.55172 F1800 ; Fill
G0 X113.5545 Y135.3319 F18000 ; Move
G1 X105.8329 Y143.0535 E0.55172 F1800 ; Fill
G0 X106.549 Y143.0535 F18000 ; Move
G1 X114.2706 Y135.3319 E0.55172 F1800 ; Fill
G0 X114.9867 Y135.3319 F18000 ; Move
G1 X107.2651 Y143.0535 E0.55172 F1800 ; Fill
G0 X107.9812 Y143.0535 F18000 ; Move
G1 X115.7027 Y135.3319 E0.55172 F1800 ; Fill
G0 X116.4188 Y135.3319 F18000 ; Move
G1 X108.6972 Y143.0535 E0.55172 F1800 ; Fill
G0 X109.4133 Y143.0535 F18000 ; Move
G1 X117.1349 Y135.3319 E0.55172 F1800 ; Fill
G0 X117.851 Y135.3319 F18000 ; Move
G1 X110.1294 Y143.0535 E0.55172 F1800 ; Fill
G0 X110.8455 Y143.0535 F18000 ; Move
G1 X118.5671 Y135.3319 E0.55172 F1800 ; Fill
G0 X119.2832 Y135.3319 F18000 ; Move
G1 X111.5616 Y143.0535 E0.55172 F1800 ; Fill
G0 X112.2777 Y143.0535 F18000 ; Move
G1 X119.9993 Y135.3319 E0.55172 F1800 ; Fill
G0 X120.7154 Y135.3319 F18000 ; Move
G1 X112.9938 Y143.0535 E0.55172 F1800 ; Fill
G0 X113.7099 Y143.0535 F18000 ; Move
G1 X121.4314 Y135.3319 E0.55172 F1800 ; Fill
G0 X122.1475 Y135.3319 F18000 ; Move
G1 X114.4259 Y143.0535 E0.55172 F1800 ; Fill
G0 X115.142 Y143.0535 F18000 ; Move
G1 X122.8636 Y135.3319 E0.55172 F1800 ; Fill
G0 X123.5797 Y135.3319 F18000 ; Move
G1 X115.8581 Y143.0535 E0.55172 F1800 ; Fill
G0 X116.5742 Y143.0535 F18000 ; Move
G1 X124.2958 Y135.3319 E0.55172 F1800 ; Fill
G0 X125.0119 Y135.3319 F18000 ; Move
G1 X117.2903 Y143.0535 E0.55172 F1800 ; Fill
G0 X118.0064 Y143.0535 F18000 ; Move
G1 X125.728 Y135.3319 E0.55172 F1800 ; Fill
G0 X126.444 Y135.3319 F18000 ; Move
G1 X118.7225 Y143.0535 E0.55172 F1800 ; Fill
G0 X119.4385 Y143.0535 F18000 ; Move
G1 X127.1601 Y135.3319 E0.55172 F1800 ; Fill
G0 X127.8762 Y135.3319 F18000 ; Move
G1 X120.1546 Y143.0535 E0.55172 F1800 ; Fill
G0 X120.8707 Y143.0535 F18000 ; Move
G1 X128.5923 Y135.3319 E0.55172 F1800 ; Fill
G0 X129.3084 Y135.3319 F18000 ; Move
G1 X121.5868 Y143.0535 E0.55172 F1800 ; Fill
G0 X122.3029 Y143.0535 F18000 ; Move
G1 X130.0245 Y135.3319 E0.55172 F1800 ; Fill
G0 X130.7406 Y135.3319 F18000 ; Move
G1 X123.019 Y143.0535 E0.55172 F1800 ; Fill
G0 X123.7351 Y143.0535 F18000 ; Move
G1 X131.4566 Y135.3319 E0.55172 F1800 ; Fill
G0 X132.1727 Y135.3319 F18000 ; Move
G1 X124.4511 Y143.0535 E0.55172 F1800 ; Fill
G0 X125.1672 Y143.0535 F18000 ; Move
G1 X132.8888 Y135.3319 E0.55172 F1800 ; Fill
G0 X133.6049 Y135.3319 F18000 ; Move
G1 X125.8833 Y143.0535 E0.55172 F1800 ; Fill
G0 X126.5994 Y143.0535 F18000 ; Move
G1 X134.321 Y135.3319 E0.55172 F1800 ; Fill
G0 X135.0371 Y135.3319 F18000 ; Move
G1 X127.3155 Y143.0535 E0.55172 F1800 ; Fill
G0 X128.0316 Y143.0535 F18000 ; Move
G1 X135.7532 Y135.3319 E0.55172 F1800 ; Fill
G0 X136.4693 Y135.3319 F18000 ; Move
G1 X128.7477 Y143.0535 E0.55172 F1800 ; Fill
G0 X129.4638 Y143.0535 F18000 ; Move
G1 X137.1853 Y135.3319 E0.55172 F1800 ; Fill
G0 X137.5038 Y135.7296 F18000 ; Move
G1 X130.1798 Y143.0535 E0.52331 F1800 ; Fill
G0 X130.8959 Y143.0535 F18000 ; Move
G1 X137.5038 Y136.4457 E0.47214 F1800 ; Fill
G0 X137.5038 Y137.1617 F18000 ; Move
G1 X131.612 Y143.0535 E0.42098 F1800 ; Fill
G0 X132.3281 Y143.0535 F18000 ; Move
G1 X137.5038 Y137.8778 E0.36981 F1800 ; Fill
G0 X137.5038 Y138.5939 F18000 ; Move
G1 X133.0442 Y143.0535 E0.31865 F1800 ; Fill
G0 X133.7603 Y143.0535 F18000 ; Move
G1 X137.5038 Y139.31 E0.26748 F1800 ; Fill
G0 X137.5038 Y140.0261 F18000 ; Move
G1 X134.4764 Y143.0535 E0.21631 F1800 ; Fill
G0 X135.1924 Y143.0535 F18000 ; Move
G1 X137.5038 Y140.7422 E0.16515 F1800 ; Fill
G0 X137.5038 Y141.4583 F18000 ; Move
G1 X135.9085 Y143.0535 E0.11398 F1800 ; Fill
G0 X136.6246 Y143.0535 F18000 ; Move
G1 X137.5038 Y142.1744 E0.06282 F1800 ; Fill
G0 X137.5038 Y142.8904 F18000 ; Move
G1 X137.3407 Y143.0535 E0.01165 F1800 ; Fill
G0 Z0.25 F18000 ; Move to layer height
G1 E-0.5 F3300 ; Retract
G1 Z0.35 F18000 ; Z hop
G0 X79.7384 Y92.3992 F18000 ; Move to pattern start

G1 Z0.25 F18000 ; Z hop return
G1 E0.5 F1500 ; Un-retract
SET_PRESSURE_ADVANCE ADVANCE=0 ; Set pressure advance
M117 PA 0
G1 X99.0592 Y111.72 E1.0806 F1800 ; Print pattern wall
G1 X79.7384 Y131.0408 E1.0806 F1800 ; Print pattern wall
G1 E-0.5 F3300 ; Retract
G1 Z0.35 F18000 ; Z hop
G0 X80.3141 Y92.3992 F18000 ; Move to start next pattern wall
G1 Z0.25 F18000 ; Z hop return
G1 E0.5 F1500 ; Un-retract
G1 X99.6349 Y111.72 E1.0806 F1800 ; Print pattern wall
G1 X80.3141 Y131.0408 E1.0806 F1800 ; Print pattern wall
G1 E-0.5 F3300 ; Retract
G1 Z0.35 F18000 ; Z hop
G0 X80.8898 Y92.3992 F18000 ; Move to start next pattern wall
G1 Z0.25 F18000 ; Z hop return
G1 E0.5 F1500 ; Un-retract
G1 X100.2106 Y111.72 E1.0806 F1800 ; Print pattern wall
G1 X80.8898 Y131.0408 E1.0806 F1800 ; Print pattern wall
G1 E-0.5 F3300 ; Retract
G1 Z0.35 F18000 ; Z hop
G0 X83.3398 Y92.3992 F18000 ; Move to next pattern
G1 Z0.25 F18000 ; Z hop return
G1 E0.5 F1500 ; Un-retract
SET_PRESSURE_ADVANCE ADVANCE=0.005 ; Set pressure advance
M117 PA 0.005
G1 X102.6606 Y111.72 E1.0806 F1800 ; Print pattern wall
G1 X83.3398 Y131.0408 E1.0806 F1800 ; Print pattern wall
G1 E-0.5 F3300 ; Retract
G1 Z0.35 F18000 ; Z hop
G0 X83.9155 Y92.3992 F18000 ; Move to start next pattern wall
G1 Z0.25 F18000 ; Z hop return
G1 E0.5 F1500 ; Un-retract
G1 X103.2363 Y111.72 E1.0806 F1800 ; Print pattern wall
G1 X83.9155 Y131.0408 E1.0806 F1800 ; Print pattern wall
G1 E-0.5 F3300 ; Retract
G1 Z0.35 F18000 ; Z hop
G0 X84.4912 Y92.3992 F18000 ; Move to start next pattern wall
G1 Z0.25 F18000 ; Z hop return
G1 E0.5 F1500 ; Un-retract
G1 X103.812 Y111.72 E1.0806 F1800 ; Print pattern wall
G1 X84.4912 Y131.0408 E1.0806 F1800 ; Print pattern wall
G1 E-0.5 F3300 ; Retract
G1 Z0.35 F18000 ; Z hop
G0 X86.9412 Y92.3992 F18000 ; Move to next pattern
G1 Z0.25 F18000 ; Z hop return
G1 E0.5 F1500 ; Un-retract
SET_PRESSURE_ADVANCE ADVANCE=0.01 ; Set pressure advance
M117 PA 0.01
G1 X106.262 Y111.72 E1.0806 F1800 ; Print pattern wall
G1 X86.9412 Y131.0408 E1.0806 F1800 ; Print pattern wall
G1 E-0.5 F3300 ; Retract
G1 Z0.35 F18000 ; Z hop
G0 X87.5169 Y92.3992 F18000 ; Move to start next pattern wall
G1 Z0.25 F18000 ; Z hop return
G1 E0.5 F1500 ; Un-retract
G1 X106.8377 Y111.72 E1.0806 F1800 ; Print pattern wall
G1 X87.5169 Y131.0408 E1.0806 F1800 ; Print pattern wall
G1 E-0.5 F3300 ; Retract
G1 Z0.35 F18000 ; Z hop
G0 X88.0926 Y92.3992 F18000 ; Move to start next pattern wall
G1 Z0.25 F18000 ; Z hop return
G1 E0.5 F1500 ; Un-retract
G1 X107.4134 Y111.72 E1.0806 F1800 ; Print pattern wall
G1 X88.0926 Y131.0408 E1.0806 F1800 ; Print pattern wall
G1 E-0.5 F3300 ; Retract
G1 Z0.35 F18000 ; Z hop
G0 X90.5426 Y92.3992 F18000 ; Move to next pattern
G1 Z0.25 F18000 ; Z hop return
G1 E0.5 F1500 ; Un-retract
SET_PRESSURE_ADVANCE ADVANCE=0.015 ; Set pressure advance
M117 PA 0.015
G1 X109.8634 Y111.72 E1.0806 F1800 ; Print pattern wall
G1 X90.5426 Y131.0408 E1.0806 F1800 ; Print pattern wall
G1 E-0.5 F3300 ; Retract
G1 Z0.35 F18000 ; Z hop
G0 X91.1183 Y92.3992 F18000 ; Move to start next pattern wall
G1 Z0.25 F18000 ; Z hop return
G1 E0.5 F1500 ; Un-retract
G1 X110.4391 Y111.72 E1.0806 F1800 ; Print pattern wall
G1 X91.1183 Y131.0408 E1.0806 F1800 ; Print pattern wall
G1 E-0.5 F3300 ; Retract
G1 Z0.35 F18000 ; Z hop
G0 X91.694 Y92.3992 F18000 ; Move to start next pattern wall
G1 Z0.25 F18000 ; Z hop return
G1 E0.5 F1500 ; Un-retract
G1 X111.0148 Y111.72 E1.0806 F1800 ; Print pattern wall
G1 X91.694 Y131.0408 E1.0806 F1800 ; Print pattern wall
G1 E-0.5 F3300 ; Retract
G1 Z0.35 F18000 ; Z hop
G0 X94.144 Y92.3992 F18000 ; Move to next pattern
G1 Z0.25 F18000 ; Z hop return
G1 E0.5 F1500 ; Un-retract
SET_PRESSURE_ADVANCE ADVANCE=0.02 ; Set pressure advance
M117 PA 0.02
G1 X113.4648 Y111.72 E1.0806 F1800 ; Print pattern wall
G1 X94.144 Y131.0408 E1.0806 F1800 ; Print pattern wall
G1 E-0.5 F3300 ; Retract
G1 Z0.35 F18000 ; Z hop
G0 X94.7197 Y92.3992 F18000 ; Move to start next pattern wall
G1 Z0.25 F18000 ; Z hop return
G1 E0.5 F1500 ; Un-retract
G1 X114.0405 Y111.72 E1.0806 F1800 ; Print pattern wall
G1 X94.7197 Y131.0408 E1.0806 F1800 ; Print pattern wall
G1 E-0.5 F3300 ; Retract
G1 Z0.35 F18000 ; Z hop
G0 X95.2954 Y92.3992 F18000 ; Move to start next pattern wall
G1 Z0.25 F18000 ; Z hop return
G1 E0.5 F1500 ; Un-retract
G1 X114.6162 Y111.72 E1.0806 F1800 ; Print pattern wall
G1 X95.2954 Y131.0408 E1.0806 F1800 ; Print pattern wall
G1 E-0.5 F3300 ; Retract
G1 Z0.35 F18000 ; Z hop
G0 X97.7454 Y92.3992 F18000 ; Move to next pattern
G1 Z0.25 F18000 ; Z hop return
G1 E0.5 F1500 ; Un-retract
SET_PRESSURE_ADVANCE ADVANCE=0.025 ; Set pressure advance
M117 PA 0.025
G1 X117.0662 Y111.72 E1.0806 F1800 ; Print pattern wall
G1 X97.7454 Y131.0408 E1.0806 F1800 ; Print pattern wall
G1 E-0.5 F3300 ; Retract
G1 Z0.35 F18000 ; Z hop
G0 X98.3211 Y92.3992 F18000 ; Move to start next pattern wall
G1 Z0.25 F18000 ; Z hop return
G1 E0.5 F1500 ; Un-retract
G1 X117.6419 Y111.72 E1.0806 F1800 ; Print pattern wall
G1 X98.3211 Y131.0408 E1.0806 F1800 ; Print pattern wall
G1 E-0.5 F3300 ; Retract
G1 Z0.35 F18000 ; Z hop
G0 X98.8968 Y92.3992 F18000 ; Move to start next pattern wall
G1 Z0.25 F18000 ; Z hop return
G1 E0.5 F1500 ; Un-retract
G1 X118.2176 Y111.72 E1.0806 F1800 ; Print pattern wall
G1 X98.8968 Y131.0408 E1.0806 F1800 ; Print pattern wall
G1 E-0.5 F3300 ; Retract
G1 Z0.35 F18000 ; Z hop
G0 X101.3468 Y92.3992 F18000 ; Move to next pattern
G1 Z0.25 F18000 ; Z hop return
G1 E0.5 F1500 ; Un-retract
SET_PRESSURE_ADVANCE ADVANCE=0.03 ; Set pressure advance
M117 PA 0.03
G1 X120.6676 Y111.72 E1.0806 F1800 ; Print pattern wall
G1 X101.3468 Y131.0408 E1.0806 F1800 ; Print pattern wall
G1 E-0.5 F3300 ; Retract
G1 Z0.35 F18000 ; Z hop
G0 X101.9225 Y92.3992 F18000 ; Move to start next pattern wall
G1 Z0.25 F18000 ; Z hop return
G1 E0.5 F1500 ; Un-retract
G1 X121.2433 Y111.72 E1.0806 F1800 ; Print pattern wall
G1 X101.9225 Y131.0408 E1.0806 F1800 ; Print pattern wall
G1 E-0.5 F3300 ; Retract
G1 Z0.35 F18000 ; Z hop
G0 X102.4981 Y92.3992 F18000 ; Move to start next pattern wall
G1 Z0.25 F18000 ; Z hop return
G1 E0.5 F1500 ; Un-retract
G1 X121.819 Y111.72 E1.0806 F1800 ; Print pattern wall
G1 X102.4981 Y131.0408 E1.0806 F1800 ; Print pattern wall
G1 E-0.5 F3300 ; Retract
G1 Z0.35 F18000 ; Z hop
G0 X104.9481 Y92.3992 F18000 ; Move to next pattern
G1 Z0.25 F18000 ; Z hop return
G1 E0.5 F1500 ; Un-retract
SET_PRESSURE_ADVANCE ADVANCE=0.035 ; Set pressure advance
M117 PA 0.035
G1 X124.269 Y111.72 E1.0806 F1800 ; Print pattern wall
G1 X104.9481 Y131.0408 E1.0806 F1800 ; Print pattern wall
G1 E-0.5 F3300 ; Retract
G1 Z0.35 F18000 ; Z hop
G0 X105.5238 Y92.3992 F18000 ; Move to start next pattern wall
G1 Z0.25 F18000 ; Z hop return
G1 E0.5 F1500 ; Un-retract
G1 X124.8447 Y111.72 E1.0806 F1800 ; Print pattern wall
G1 X105.5238 Y131.0408 E1.0806 F1800 ; Print pattern wall
G1 E-0.5 F3300 ; Retract
G1 Z0.35 F18000 ; Z hop
G0 X106.0995 Y92.3992 F18000 ; Move to start next pattern wall
G1 Z0.25 F18000 ; Z hop return
G1 E0.5 F1500 ; Un-retract
G1 X125.4204 Y111.72 E1.0806 F1800 ; Print pattern wall
G1 X106.0995 Y131.0408 E1.0806 F1800 ; Print pattern wall
G1 E-0.5 F3300 ; Retract
G1 Z0.35 F18000 ; Z hop
G0 X108.5495 Y92.3992 F18000 ; Move to next pattern
G1 Z0.25 F18000 ; Z hop return
G1 E0.5 F1500 ; Un-retract
SET_PRESSURE_ADVANCE ADVANCE=0.04 ; Set pressure advance
M117 PA 0.04
G1 X127.8704 Y111.72 E1.0806 F1800 ; Print pattern wall
G1 X108.5495 Y131.0408 E1.0806 F1800 ; Print pattern wall
G1 E-0.5 F3300 ; Retract
G1 Z0.35 F18000 ; Z hop
G0 X109.1252 Y92.3992 F18000 ; Move to start next pattern wall
G1 Z0.25 F18000 ; Z hop return
G1 E0.5 F1500 ; Un-retract
G1 X128.4461 Y111.72 E1.0806 F1800 ; Print pattern wall
G1 X109.1252 Y131.0408 E1.0806 F1800 ; Print pattern wall
G1 E-0.5 F3300 ; Retract
G1 Z0.35 F18000 ; Z hop
G0 X109.7009 Y92.3992 F18000 ; Move to start next pattern wall
G1 Z0.25 F18000 ; Z hop return
G1 E0.5 F1500 ; Un-retract
G1 X129.0218 Y111.72 E1.0806 F1800 ; Print pattern wall
G1 X109.7009 Y131.0408 E1.0806 F1800 ; Print pattern wall
G1 E-0.5 F3300 ; Retract
G1 Z0.35 F18000 ; Z hop
G0 X112.1509 Y92.3992 F18000 ; Move to next pattern
G1 Z0.25 F18000 ; Z hop return
G1 E0.5 F1500 ; Un-retract
SET_PRESSURE_ADVANCE ADVANCE=0.045 ; Set pressure advance
M117 PA 0.045
G1 X131.4718 Y111.72 E1.0806 F1800 ; Print pattern wall
G1 X112.1509 Y131.0408 E1.0806 F1800 ; Print pattern wall
G1 E-0.5 F3300 ; Retract
G1 Z0.35 F18000 ; Z hop
G0 X112.7266 Y92.3992 F18000 ; Move to start next pattern wall
G1 Z0.25 F18000 ; Z hop return
G1 E0.5 F1500 ; Un-retract
G1 X132.0475 Y111.72 E1.0806 F1800 ; Print pattern wall
G1 X112.7266 Y131.0408 E1.0806 F1800 ; Print pattern wall
G1 E-0.5 F3300 ; Retract
G1 Z0.35 F18000 ; Z hop
G0 X113.3023 Y92.3992 F18000 ; Move to start next pattern wall
G1 Z0.25 F18000 ; Z hop return
G1 E0.5 F1500 ; Un-retract
G1 X132.6232 Y111.72 E1.0806 F1800 ; Print pattern wall
G1 X113.3023 Y131.0408 E1.0806 F1800 ; Print pattern wall
G1 E-0.5 F3300 ; Retract
G1 Z0.35 F18000 ; Z hop
G0 X115.7523 Y92.3992 F18000 ; Move to next pattern
G1 Z0.25 F18000 ; Z hop return
G1 E0.5 F1500 ; Un-retract
SET_PRESSURE_ADVANCE ADVANCE=0.05 ; Set pressure advance
M117 PA 0.05
G1 X135.0732 Y111.72 E1.0806 F1800 ; Print pattern wall
G1 X115.7523 Y131.0408 E1.0806 F1800 ; Print pattern wall
G1 E-0.5 F3300 ; Retract
G1 Z0.35 F18000 ; Z hop
G0 X116.328 Y92.3992 F18000 ; Move to start next pattern wall
G1 Z0.25 F18000 ; Z hop return
G1 E0.5 F1500 ; Un-retract
G1 X135.6489 Y111.72 E1.0806 F1800 ; Print pattern wall
G1 X116.328 Y131.0408 E1.0806 F1800 ; Print pattern wall
G1 E-0.5 F3300 ; Retract
G1 Z0.35 F18000 ; Z hop
G0 X116.9037 Y92.3992 F18000 ; Move to start next pattern wall
G1 Z0.25 F18000 ; Z hop return
G1 E0.5 F1500 ; Un-retract
G1 X136.2246 Y111.72 E1.0806 F1800 ; Print pattern wall
G1 X116.9037 Y131.0408 E1.0806 F1800 ; Print pattern wall
G1 E-0.5 F3300 ; Retract
G1 Z0.35 F18000 ; Z hop
G0 X119.3537 Y92.3992 F18000 ; Move to next pattern
G1 Z0.25 F18000 ; Z hop return
G1 E0.5 F1500 ; Un-retract
SET_PRESSURE_ADVANCE ADVANCE=0.055 ; Set pressure advance
M117 PA 0.055
G1 X138.6746 Y111.72 E1.0806 F1800 ; Print pattern wall
G1 X119.3537 Y131.0408 E1.0806 F1800 ; Print pattern wall
G1 E-0.5 F3300 ; Retract
G1 Z0.35 F18000 ; Z hop
G0 X119.9294 Y92.3992 F18000 ; Move to start next pattern wall
G1 Z0.25 F18000 ; Z hop return
G1 E0.5 F1500 ; Un-retract
G1 X139.2502 Y111.72 E1.0806 F1800 ; Print pattern wall
G1 X119.9294 Y131.0408 E1.0806 F1800 ; Print pattern wall
G1 E-0.5 F3300 ; Retract
G1 Z0.35 F18000 ; Z hop
G0 X120.5051 Y92.3992 F18000 ; Move to start next pattern wall
G1 Z0.25 F18000 ; Z hop return
G1 E0.5 F1500 ; Un-retract
G1 X139.8259 Y111.72 E1.0806 F1800 ; Print pattern wall
G1 X120.5051 Y131.0408 E1.0806 F1800 ; Print pattern wall
G1 E-0.5 F3300 ; Retract
G1 Z0.35 F18000 ; Z hop
G0 X122.9551 Y92.3992 F18000 ; Move to next pattern
G1 Z0.25 F18000 ; Z hop return
G1 E0.5 F1500 ; Un-retract
SET_PRESSURE_ADVANCE ADVANCE=0.06 ; Set pressure advance
M117 PA 0.06
G1 X142.2759 Y111.72 E1.0806 F1800 ; Print pattern wall
G1 X122.9551 Y131.0408 E1.0806 F1800 ; Print pattern wall
G1 E-0.5 F3300 ; Retract
G1 Z0.35 F18000 ; Z hop
G0 X123.5308 Y92.3992 F18000 ; Move to start next pattern wall
G1 Z0.25 F18000 ; Z hop return
G1 E0.5 F1500 ; Un-retract
G1 X142.8516 Y111.72 E1.0806 F1800 ; Print pattern wall
G1 X123.5308 Y131.0408 E1.0806 F1800 ; Print pattern wall
G1 E-0.5 F3300 ; Retract
G1 Z0.35 F18000 ; Z hop
G0 X124.1065 Y92.3992 F18000 ; Move to start next pattern wall
G1 Z0.25 F18000 ; Z hop return
G1 E0.5 F1500 ; Un-retract
G1 X143.4273 Y111.72 E1.0806 F1800 ; Print pattern wall
G1 X124.1065 Y131.0408 E1.0806 F1800 ; Print pattern wall
G1 E-0.5 F3300 ; Retract
G1 Z0.35 F18000 ; Z hop
G0 X126.5565 Y92.3992 F18000 ; Move to next pattern
G1 Z0.25 F18000 ; Z hop return
G1 E0.5 F1500 ; Un-retract
SET_PRESSURE_ADVANCE ADVANCE=0.065 ; Set pressure advance
M117 PA 0.065
G1 X145.8773 Y111.72 E1.0806 F1800 ; Print pattern wall
G1 X126.5565 Y131.0408 E1.0806 F1800 ; Print pattern wall
G1 E-0.5 F3300 ; Retract
G1 Z0.35 F18000 ; Z hop
G0 X127.1322 Y92.3992 F18000 ; Move to start next pattern wall
G1 Z0.25 F18000 ; Z hop return
G1 E0.5 F1500 ; Un-retract
G1 X146.453 Y111.72 E1.0806 F1800 ; Print pattern wall
G1 X127.1322 Y131.0408 E1.0806 F1800 ; Print pattern wall
G1 E-0.5 F3300 ; Retract
G1 Z0.35 F18000 ; Z hop
G0 X127.7079 Y92.3992 F18000 ; Move to start next pattern wall
G1 Z0.25 F18000 ; Z hop return
G1 E0.5 F1500 ; Un-retract
G1 X147.0287 Y111.72 E1.0806 F1800 ; Print pattern wall
G1 X127.7079 Y131.0408 E1.0806 F1800 ; Print pattern wall
G1 E-0.5 F3300 ; Retract
G1 Z0.35 F18000 ; Z hop
G0 X130.1579 Y92.3992 F18000 ; Move to next pattern
G1 Z0.25 F18000 ; Z hop return
G1 E0.5 F1500 ; Un-retract
SET_PRESSURE_ADVANCE ADVANCE=0.07 ; Set pressure advance
M117 PA 0.07
G1 X149.4787 Y111.72 E1.0806 F1800 ; Print pattern wall
G1 X130.1579 Y131.0408 E1.0806 F1800 ; Print pattern wall
G1 E-0.5 F3300 ; Retract
G1 Z0.35 F18000 ; Z hop
G0 X130.7336 Y92.3992 F18000 ; Move to start next pattern wall
G1 Z0.25 F18000 ; Z hop return
G1 E0.5 F1500 ; Un-retract
G1 X150.0544 Y111.72 E1.0806 F1800 ; Print pattern wall
G1 X130.7336 Y131.0408 E1.0806 F1800 ; Print pattern wall
G1 E-0.5 F3300 ; Retract
G1 Z0.35 F18000 ; Z hop
G0 X131.3093 Y92.3992 F18000 ; Move to start next pattern wall
G1 Z0.25 F18000 ; Z hop return
G1 E0.5 F1500 ; Un-retract
G1 X150.6301 Y111.72 E1.0806 F1800 ; Print pattern wall
G1 X131.3093 Y131.0408 E1.0806 F1800 ; Print pattern wall
G1 E-0.5 F3300 ; Retract
G1 Z0.35 F18000 ; Z hop
G0 X133.7593 Y92.3992 F18000 ; Move to next pattern
G1 Z0.25 F18000 ; Z hop return
G1 E0.5 F1500 ; Un-retract
SET_PRESSURE_ADVANCE ADVANCE=0.075 ; Set pressure advance
M117 PA 0.075
G1 X153.0801 Y111.72 E1.0806 F1800 ; Print pattern wall
G1 X133.7593 Y131.0408 E1.0806 F1800 ; Print pattern wall
G1 E-0.5 F3300 ; Retract
G1 Z0.35 F18000 ; Z hop
G0 X134.335 Y92.3992 F18000 ; Move to start next pattern wall
G1 Z0.25 F18000 ; Z hop return
G1 E0.5 F1500 ; Un-retract
G1 X153.6558 Y111.72 E1.0806 F1800 ; Print pattern wall
G1 X134.335 Y131.0408 E1.0806 F1800 ; Print pattern wall
G1 E-0.5 F3300 ; Retract
G1 Z0.35 F18000 ; Z hop
G0 X134.9107 Y92.3992 F18000 ; Move to start next pattern wall
G1 Z0.25 F18000 ; Z hop return
G1 E0.5 F1500 ; Un-retract
G1 X154.2315 Y111.72 E1.0806 F1800 ; Print pattern wall
G1 X134.9107 Y131.0408 E1.0806 F1800 ; Print pattern wall
G1 E-0.5 F3300 ; Retract
G1 Z0.35 F18000 ; Z hop
G0 X137.3607 Y92.3992 F18000 ; Move to next pattern
G1 Z0.25 F18000 ; Z hop return
G1 E0.5 F1500 ; Un-retract
SET_PRESSURE_ADVANCE ADVANCE=0.08 ; Set pressure advance
M117 PA 0.08
G1 X156.6815 Y111.72 E1.0806 F1800 ; Print pattern wall
G1 X137.3607 Y131.0408 E1.0806 F1800 ; Print pattern wall
G1 E-0.5 F3300 ; Retract
G1 Z0.35 F18000 ; Z hop
G0 X137.9364 Y92.3992 F18000 ; Move to start next pattern wall
G1 Z0.25 F18000 ; Z hop return
G1 E0.5 F1500 ; Un-retract
G1 X157.2572 Y111.72 E1.0806 F1800 ; Print pattern wall
G1 X137.9364 Y131.0408 E1.0806 F1800 ; Print pattern wall
G1 E-0.5 F3300 ; Retract
G1 Z0.35 F18000 ; Z hop
G0 X138.5121 Y92.3992 F18000 ; Move to start next pattern wall
G1 Z0.25 F18000 ; Z hop return
G1 E0.5 F1500 ; Un-retract
G1 X157.8329 Y111.72 E1.0806 F1800 ; Print pattern wall
G1 X138.5121 Y131.0408 E1.0806 F1800 ; Print pattern wall
G1 E-0.5 F3300 ; Retract
G1 Z0.35 F18000 ; Z hop
G0 X79.7384 Y92.3992 F18000 ; Move back to start position
G1 Z0.25 F18000 ; Z hop return
G1 E0.5 F1500 ; Un-retract
M106 S255 ; Set fan speed
G0 Z0.45 F18000 ; Move to layer height
SET_PRESSURE_ADVANCE ADVANCE=0 ; Set pressure advance to start value for numbering
M117 PA 0
G1 E-0.5 F3300 ; Retract
G1 Z0.55 F18000 ; Z hop
G0 X76.4217 Y134.3832 F18000 ; Move
G1 Z0.45 F18000 ; Z hop return
G1 E0.5 F1500 ; Un-retract
G1 X78.4217 Y134.3832 E0.06499 F1800 ; Glyph: 0
G1 X80.4217 Y134.3832 E0.06499 F1800 ; Glyph: 0
G1 X80.4217 Y136.3832 E0.06499 F1800 ; Glyph: 0
G1 X78.4217 Y136.3832 E0.06499 F1800 ; Glyph: 0
G1 X76.4217 Y136.3832 E0.06499 F1800 ; Glyph: 0
G1 X76.4217 Y134.3832 E0.06499 F1800 ; Glyph: 0
G1 E-0.5 F3300 ; Retract
G1 Z0.55 F18000 ; Z hop
G0 X83.6245 Y134.3832 F18000 ; Move
G1 Z0.45 F18000 ; Z hop return
G1 E0.5 F1500 ; Un-retract
G1 X85.6245 Y134.3832 E0.06499 F1800 ; Glyph: 0
G1 X87.6245 Y134.3832 E0.06499 F1800 ; Glyph: 0
G1 X87.6245 Y136.3832 E0.06499 F1800 ; Glyph: 0
G1 X85.6245 Y136.3832 E0.06499 F1800 ; Glyph: 0
G1 X83.6245 Y136.3832 E0.06499 F1800 ; Glyph: 0
G1 X83.6245 Y134.3832 E0.06499 F1800 ; Glyph: 0
G1 E-0.5 F3300 ; Retract
G1 Z0.55 F18000 ; Z hop
G0 X87.6245 Y137.3832 F18000 ; Move
G1 Z0.45 F18000 ; Z hop return
G1 E0.5 F1500 ; Un-retract
G1 X86.8745 Y137.3832 E0.02437 F1800 ; Glyph: .
G1 E-0.5 F3300 ; Retract
G1 Z0.55 F18000 ; Z hop
G0 X83.6245 Y138.3832 F18000 ; Move
G1 Z0.45 F18000 ; Z hop return
G1 E0.5 F1500 ; Un-retract
G1 X85.6245 Y138.3832 E0.06499 F1800 ; Glyph: 0
G1 X87.6245 Y138.3832 E0.06499 F1800 ; Glyph: 0
G1 X87.6245 Y140.3832 E0.06499 F1800 ; Glyph: 0
G1 X85.6245 Y140.3832 E0.06499 F1800 ; Glyph: 0
G1 X83.6245 Y140.3832 E0.06499 F1800 ; Glyph: 0
G1 X83.6245 Y138.3832 E0.06499 F1800 ; Glyph: 0
G1 E-0.5 F3300 ; Retract
G1 Z0.55 F18000 ; Z hop
G0 X83.6245 Y141.3832 F18000 ; Move
G1 Z0.45 F18000 ; Z hop return
G1 E0.5 F1500 ; Un-retract
G1 X85.6245 Y141.3832 E0.06499 F1800 ; Glyph: 1
G1 X87.6245 Y141.3832 E0.06499 F1800 ; Glyph: 1
G1 E-0.5 F3300 ; Retract
G1 Z0.55 F18000 ; Z hop
G0 X90.8273 Y134.3832 F18000 ; Move
G1 Z0.45 F18000 ; Z hop return
G1 E0.5 F1500 ; Un-retract
G1 X92.8273 Y134.3832 E0.06499 F1800 ; Glyph: 0
G1 X94.8273 Y134.3832 E0.06499 F1800 ; Glyph: 0
G1 X94.8273 Y136.3832 E0.06499 F1800 ; Glyph: 0
G1 X92.8273 Y136.3832 E0.06499 F1800 ; Glyph: 0
G1 X90.8273 Y136.3832 E0.06499 F1800 ; Glyph: 0
G1 X90.8273 Y134.3832 E0.06499 F1800 ; Glyph: 0
G1 E-0.5 F3300 ; Retract
G1 Z0.55 F18000 ; Z hop
G0 X94.8273 Y137.3832 F18000 ; Move
G1 Z0.45 F18000 ; Z hop return
G1 E0.5 F1500 ; Un-retract
G1 X94.0773 Y137.3832 E0.02437 F1800 ; Glyph: .
G1 E-0.5 F3300 ; Retract
G1 Z0.55 F18000 ; Z hop
G0 X90.8273 Y138.3832 F18000 ; Move
G1 Z0.45 F18000 ; Z hop return
G1 E0.5 F1500 ; Un-retract
G1 X92.8273 Y138.3832 E0.06499 F1800 ; Glyph: 0
G1 X94.8273 Y138.3832 E0.06499 F1800 ; Glyph: 0
G1 X94.8273 Y140.3832 E0.06499 F1800 ; Glyph: 0
G1 X92.8273 Y140.3832 E0.06499 F1800 ; Glyph: 0
G1 X90.8273 Y140.3832 E0.06499 F1800 ; Glyph: 0
G1 X90.8273 Y138.3832 E0.06499 F1800 ; Glyph: 0
G1 E-0.5 F3300 ; Retract
G1 Z0.55 F18000 ; Z hop
G0 X90.8273 Y141.3832 F18000 ; Move
G1 Z0.45 F18000 ; Z hop return
G1 E0.5 F1500 ; Un-retract
G1 X90.8273 Y143.3832 E0.06499 F1800 ; Glyph: 2
G1 X92.8273 Y143.3832 E0.06499 F1800 ; Glyph: 2
G1 X92.8273 Y141.3832 E0.06499 F1800 ; Glyph: 2
G1 X94.8273 Y141.3832 E0.06499 F1800 ; Glyph: 2
G1 X94.8273 Y143.3832 E0.06499 F1800 ; Glyph: 2
G1 E-0.5 F3300 ; Retract
G1 Z0.55 F18000 ; Z hop
G0 X98.0301 Y134.3832 F18000 ; Move
G1 Z0.45 F18000 ; Z hop return
G1 E0.5 F1500 ; Un-retract
G1 X100.0301 Y134.3832 E0.06499 F1800 ; Glyph: 0
G1 X102.0301 Y134.3832 E0.06499 F1800 ; Glyph: 0
G1 X102.0301 Y136.3832 E0.06499 F1800 ; Glyph: 0
G1 X100.0301 Y136.3832 E0.06499 F1800 ; Glyph: 0
G1 X98.0301 Y136.3832 E0.06499 F1800 ; Glyph: 0
G1 X98.0301 Y134.3832 E0.06499 F1800 ; Glyph: 0
G1 E-0.5 F3300 ; Retract
G1 Z0.55 F18000 ; Z hop
G0 X102.0301 Y137.3832 F18000 ; Move
G1 Z0.45 F18000 ; Z hop return
G1 E0.5 F1500 ; Un-retract
G1 X101.2801 Y137.3832 E0.02437 F1800 ; Glyph: .
G1 E-0.5 F3300 ; Retract
G1 Z0.55 F18000 ; Z hop
G0 X98.0301 Y138.3832 F18000 ; Move
G1 Z0.45 F18000 ; Z hop return
G1 E0.5 F1500 ; Un-retract
G1 X100.0301 Y138.3832 E0.06499 F1800 ; Glyph: 0
G1 X102.0301 Y138.3832 E0.06499 F1800 ; Glyph: 0
G1 X102.0301 Y140.3832 E0.06499 F1800 ; Glyph: 0
G1 X100.0301 Y140.3832 E0.06499 F1800 ; Glyph: 0
G1 X98.0301 Y140.3832 E0.06499 F1800 ; Glyph: 0
G1 X98.0301 Y138.3832 E0.06499 F1800 ; Glyph: 0
G1 E-0.5 F3300 ; Retract
G1 Z0.55 F18000 ; Z hop
G0 X98.0301 Y141.3832 F18000 ; Move
G1 Z0.45 F18000 ; Z hop return
G1 E0.5 F1500 ; Un-retract
G1 X98.0301 Y143.3832 E0.06499 F1800 ; Glyph: 3
G1 X100.0301 Y143.3832 E0.06499 F1800 ; Glyph: 3
G1 X100.0301 Y141.3832 E0.06499 F1800 ; Glyph: 3
G0 X100.0301 Y143.3832 F18000 ; Move
G1 X102.0301 Y143.3832 E0.06499 F1800 ; Glyph: 3
G1 X102.0301 Y141.3832 E0.06499 F1800 ; Glyph: 3
G1 E-0.5 F3300 ; Retract
G1 Z0.55 F18000 ; Z hop
G0 X105.2329 Y134.3832 F18000 ; Move
G1 Z0.45 F18000 ; Z hop return
G1 E0.5 F1500 ; Un-retract
G1 X107.2329 Y134.3832 E0.06499 F1800 ; Glyph: 0
G1 X109.2329 Y134.3832 E0.06499 F1800 ; Glyph: 0
G1 X109.2329 Y136.3832 E0.06499 F1800 ; Glyph: 0
G1 X107.2329 Y136.3832 E0.06499 F1800 ; Glyph: 0
G1 X105.2329 Y136.3832 E0.06499 F1800 ; Glyph: 0
G1 X105.2329 Y134.3832 E0.06499 F1800 ; Glyph: 0
G1 E-0.5 F3300 ; Retract
G1 Z0.55 F18000 ; Z hop
G0 X109.2329 Y137.3832 F18000 ; Move
G1 Z0.45 F18000 ; Z hop return
G1 E0.5 F1500 ; Un-retract
G1 X108.4829 Y137.3832 E0.02437 F1800 ; Glyph: .
G1 E-0.5 F3300 ; Retract
G1 Z0.55 F18000 ; Z hop
G0 X105.2329 Y138.3832 F18000 ; Move
G1 Z0.45 F18000 ; Z hop return
G1 E0.5 F1500 ; Un-retract
G1 X107.2329 Y138.3832 E0.06499 F1800 ; Glyph: 0
G1 X109.2329 Y138.3832 E0.06499 F1800 ; Glyph: 0
G1 X109.2329 Y140.3832 E0.06499 F1800 ; Glyph: 0
G1 X107.2329 Y140.3832 E0.06499 F1800 ; Glyph: 0
G1 X105.2329 Y140.3832 E0.06499 F1800 ; Glyph: 0
G1 X105.2329 Y138.3832 E0.06499 F1800 ; Glyph: 0
G1 E-0.5 F3300 ; Retract
G1 Z0.55 F18000 ; Z hop
G0 X105.2329 Y143.3832 F18000 ; Move
G1 Z0.45 F18000 ; Z hop return
G1 E0.5 F1500 ; Un-retract
G1 X107.2329 Y143.3832 E0.06499 F1800 ; Glyph: 4
G1 X109.2329 Y143.3832 E0.06499 F1800 ; Glyph: 4
G0 X107.2329 Y143.3832 F18000 ; Move
G1 X107.2329 Y141.3832 E0.06499 F1800 ; Glyph: 4
G1 X105.2329 Y141.3832 E0.06499 F1800 ; Glyph: 4
G1 E-0.5 F3300 ; Retract
G1 Z0.55 F18000 ; Z hop
G0 X112.4357 Y134.3832 F18000 ; Move
G1 Z0.45 F18000 ; Z hop return
G1 E0.5 F1500 ; Un-retract
G1 X114.4357 Y134.3832 E0.06499 F1800 ; Glyph: 0
G1 X116.4357 Y134.3832 E0.06499 F1800 ; Glyph: 0
G1 X116.4357 Y136.3832 E0.06499 F1800 ; Glyph: 0
G1 X114.4357 Y136.3832 E0.06499 F1800 ; Glyph: 0
G1 X112.4357 Y136.3832 E0.06499 F1800 ; Glyph: 0
G1 X112.4357 Y134.3832 E0.06499 F1800 ; Glyph: 0
G1 E-0.5 F3300 ; Retract
G1 Z0.55 F18000 ; Z hop
G0 X116.4357 Y137.3832 F18000 ; Move
G1 Z0.45 F18000 ; Z hop return
G1 E0.5 F1500 ; Un-retract
G1 X115.6857 Y137.3832 E0.02437 F1800 ; Glyph: .
G1 E-0.5 F3300 ; Retract
G1 Z0.55 F18000 ; Z hop
G0 X112.4357 Y138.3832 F18000 ; Move
G1 Z0.45 F18000 ; Z hop return
G1 E0.5 F1500 ; Un-retract
G1 X114.4357 Y138.3832 E0.06499 F1800 ; Glyph: 0
G1 X116.4357 Y138.3832 E0.06499 F1800 ; Glyph: 0
G1 X116.4357 Y140.3832 E0.06499 F1800 ; Glyph: 0
G1 X114.4357 Y140.3832 E0.06499 F1800 ; Glyph: 0
G1 X112.4357 Y140.3832 E0.06499 F1800 ; Glyph: 0
G1 X112.4357 Y138.3832 E0.06499 F1800 ; Glyph: 0
G1 E-0.5 F3300 ; Retract
G1 Z0.55 F18000 ; Z hop
G0 X112.4357 Y143.3832 F18000 ; Move
G1 Z0.45 F18000 ; Z hop return
G1 E0.5 F1500 ; Un-retract
G1 X112.4357 Y141.3832 E0.06499 F1800 ; Glyph: 5
G1 X114.4357 Y141.3832 E0.06499 F1800 ; Glyph: 5
G1 X114.4357 Y143.3832 E0.06499 F1800 ; Glyph: 5
G1 X116.4357 Y143.3832 E0.06499 F1800 ; Glyph: 5
G1 X116.4357 Y141.3832 E0.06499 F1800 ; Glyph: 5
G1 E-0.5 F3300 ; Retract
G1 Z0.55 F18000 ; Z hop
G0 X119.6384 Y134.3832 F18000 ; Move
G1 Z0.45 F18000 ; Z hop return
G1 E0.5 F1500 ; Un-retract
G1 X121.6384 Y134.3832 E0.06499 F1800 ; Glyph: 0
G1 X123.6384 Y134.3832 E0.06499 F1800 ; Glyph: 0
G1 X123.6384 Y136.3832 E0.06499 F1800 ; Glyph: 0
G1 X121.6384 Y136.3832 E0.06499 F1800 ; Glyph: 0
G1 X119.6384 Y136.3832 E0.06499 F1800 ; Glyph: 0
G1 X119.6384 Y134.3832 E0.06499 F1800 ; Glyph: 0
G1 E-0.5 F3300 ; Retract
G1 Z0.55 F18000 ; Z hop
G0 X123.6384 Y137.3832 F18000 ; Move
G1 Z0.45 F18000 ; Z hop return
G1 E0.5 F1500 ; Un-retract
G1 X122.8884 Y137.3832 E0.02437 F1800 ; Glyph: .
G1 E-0.5 F3300 ; Retract
G1 Z0.55 F18000 ; Z hop
G0 X119.6384 Y138.3832 F18000 ; Move
G1 Z0.45 F18000 ; Z hop return
G1 E0.5 F1500 ; Un-retract
G1 X121.6384 Y138.3832 E0.06499 F1800 ; Glyph: 0
G1 X123.6384 Y138.3832 E0.06499 F1800 ; Glyph: 0
G1 X123.6384 Y140.3832 E0.06499 F1800 ; Glyph: 0
G1 X121.6384 Y140.3832 E0.06499 F1800 ; Glyph: 0
G1 X119.6384 Y140.3832 E0.06499 F1800 ; Glyph: 0
G1 X119.6384 Y138.3832 E0.06499 F1800 ; Glyph: 0
G1 E-0.5 F3300 ; Retract
G1 Z0.55 F18000 ; Z hop
G0 X119.6384 Y143.3832 F18000 ; Move
G1 Z0.45 F18000 ; Z hop return
G1 E0.5 F1500 ; Un-retract
G1 X119.6384 Y141.3832 E0.06499 F1800 ; Glyph: 6
G1 X121.6384 Y141.3832 E0.06499 F1800 ; Glyph: 6
G1 X123.6384 Y141.3832 E0.06499 F1800 ; Glyph: 6
G1 X123.6384 Y143.3832 E0.06499 F1800 ; Glyph: 6
G1 X121.6384 Y143.3832 E0.06499 F1800 ; Glyph: 6
G1 X121.6384 Y141.3832 E0.06499 F1800 ; Glyph: 6
G1 E-0.5 F3300 ; Retract
G1 Z0.55 F18000 ; Z hop
G0 X126.8412 Y134.3832 F18000 ; Move
G1 Z0.45 F18000 ; Z hop return
G1 E0.5 F1500 ; Un-retract
G1 X128.8412 Y134.3832 E0.06499 F1800 ; Glyph: 0
G1 X130.8412 Y134.3832 E0.06499 F1800 ; Glyph: 0
G1 X130.8412 Y136.3832 E0.06499 F1800 ; Glyph: 0
G1 X128.8412 Y136.3832 E0.06499 F1800 ; Glyph: 0
G1 X126.8412 Y136.3832 E0.06499 F1800 ; Glyph: 0
G1 X126.8412 Y134.3832 E0.06499 F1800 ; Glyph: 0
G1 E-0.5 F3300 ; Retract
G1 Z0.55 F18000 ; Z hop
G0 X130.8412 Y137.3832 F18000 ; Move
G1 Z0.45 F18000 ; Z hop return
G1 E0.5 F1500 ; Un-retract
G1 X130.0912 Y137.3832 E0.02437 F1800 ; Glyph: .
G1 E-0.5 F3300 ; Retract
G1 Z0.55 F18000 ; Z hop
G0 X126.8412 Y138.3832 F18000 ; Move
G1 Z0.45 F18000 ; Z hop return
G1 E0.5 F1500 ; Un-retract
G1 X128.8412 Y138.3832 E0.06499 F1800 ; Glyph: 0
G1 X130.8412 Y138.3832 E0.06499 F1800 ; Glyph: 0
G1 X130.8412 Y140.3832 E0.06499 F1800 ; Glyph: 0
G1 X128.8412 Y140.3832 E0.06499 F1800 ; Glyph: 0
G1 X126.8412 Y140.3832 E0.06499 F1800 ; Glyph: 0
G1 X126.8412 Y138.3832 E0.06499 F1800 ; Glyph: 0
G1 E-0.5 F3300 ; Retract
G1 Z0.55 F18000 ; Z hop
G0 X126.8412 Y141.3832 F18000 ; Move
G1 Z0.45 F18000 ; Z hop return
G1 E0.5 F1500 ; Un-retract
G1 X126.8412 Y143.3832 E0.06499 F1800 ; Glyph: 7
G1 X128.8412 Y143.3832 E0.06499 F1800 ; Glyph: 7
G1 X130.8412 Y143.3832 E0.06499 F1800 ; Glyph: 7
G1 E-0.5 F3300 ; Retract
G1 Z0.55 F18000 ; Z hop
G0 X134.044 Y134.3832 F18000 ; Move
G1 Z0.45 F18000 ; Z hop return
G1 E0.5 F1500 ; Un-retract
G1 X136.044 Y134.3832 E0.06499 F1800 ; Glyph: 0
G1 X138.044 Y134.3832 E0.06499 F1800 ; Glyph: 0
G1 X138.044 Y136.3832 E0.06499 F1800 ; Glyph: 0
G1 X136.044 Y136.3832 E0.06499 F1800 ; Glyph: 0
G1 X134.044 Y136.3832 E0.06499 F1800 ; Glyph: 0
G1 X134.044 Y134.3832 E0.06499 F1800 ; Glyph: 0
G1 E-0.5 F3300 ; Retract
G1 Z0.55 F18000 ; Z hop
G0 X138.044 Y137.3832 F18000 ; Move
G1 Z0.45 F18000 ; Z hop return
G1 E0.5 F1500 ; Un-retract
G1 X137.294 Y137.3832 E0.02437 F1800 ; Glyph: .
G1 E-0.5 F3300 ; Retract
G1 Z0.55 F18000 ; Z hop
G0 X134.044 Y138.3832 F18000 ; Move
G1 Z0.45 F18000 ; Z hop return
G1 E0.5 F1500 ; Un-retract
G1 X136.044 Y138.3832 E0.06499 F1800 ; Glyph: 0
G1 X138.044 Y138.3832 E0.06499 F1800 ; Glyph: 0
G1 X138.044 Y140.3832 E0.06499 F1800 ; Glyph: 0
G1 X136.044 Y140.3832 E0.06499 F1800 ; Glyph: 0
G1 X134.044 Y140.3832 E0.06499 F1800 ; Glyph: 0
G1 X134.044 Y138.3832 E0.06499 F1800 ; Glyph: 0
G1 E-0.5 F3300 ; Retract
G1 Z0.55 F18000 ; Z hop
G0 X134.044 Y141.3832 F18000 ; Move
G1 Z0.45 F18000 ; Z hop return
G1 E0.5 F1500 ; Un-retract
G1 X136.044 Y141.3832 E0.06499 F1800 ; Glyph: 8
G1 X138.044 Y141.3832 E0.06499 F1800 ; Glyph: 8
G1 X138.044 Y143.3832 E0.06499 F1800 ; Glyph: 8
G1 X136.044 Y143.3832 E0.06499 F1800 ; Glyph: 8
G1 X134.044 Y143.3832 E0.06499 F1800 ; Glyph: 8
G1 X134.044 Y141.3832 E0.06499 F1800 ; Glyph: 8
G0 X136.044 Y141.3832 F18000 ; Move
G1 X136.044 Y143.3832 E0.06499 F1800 ; Glyph: 8
G1 E-0.5 F3300 ; Retract
G1 Z0.55 F18000 ; Z hop
G0 X77.846 Y90.5068 F18000 ; Move to pattern start

G1 Z0.45 F18000 ; Z hop return
G1 E0.5 F1500 ; Un-retract
SET_PRESSURE_ADVANCE ADVANCE=0 ; Set pressure advance
M117 PA 0
G1 X99.0592 Y111.72 E0.97485 F9000 ; Print pattern wall
G1 X77.846 Y132.9332 E0.97485 F9000 ; Print pattern wall
G1 E-0.5 F3300 ; Retract
G1 Z0.55 F18000 ; Z hop
G0 X78.4217 Y90.5068 F18000 ; Move to start next pattern wall
G1 Z0.45 F18000 ; Z hop return
G1 E0.5 F1500 ; Un-retract
G1 X99.6349 Y111.72 E0.97485 F9000 ; Print pattern wall
G1 X78.4217 Y132.9332 E0.97485 F9000 ; Print pattern wall
G1 E-0.5 F3300 ; Retract
G1 Z0.55 F18000 ; Z hop
G0 X78.9974 Y90.5068 F18000 ; Move to start next pattern wall
G1 Z0.45 F18000 ; Z hop return
G1 E0.5 F1500 ; Un-retract
G1 X100.2106 Y111.72 E0.97485 F9000 ; Print pattern wall
G1 X78.9974 Y132.9332 E0.97485 F9000 ; Print pattern wall
G1 E-0.5 F3300 ; Retract
G1 Z0.55 F18000 ; Z hop
G0 X81.4474 Y90.5068 F18000 ; Move to next pattern
G1 Z0.45 F18000 ; Z hop return
G1 E0.5 F1500 ; Un-retract
SET_PRESSURE_ADVANCE ADVANCE=0.005 ; Set pressure advance
M117 PA 0.005
G1 X102.6606 Y111.72 E0.97485 F9000 ; Print pattern wall
G1 X81.4474 Y132.9332 E0.97485 F9000 ; Print pattern wall
G1 E-0.5 F3300 ; Retract
G1 Z0.55 F18000 ; Z hop
G0 X82.0231 Y90.5068 F18000 ; Move to start next pattern wall
G1 Z0.45 F18000 ; Z hop return
G1 E0.5 F1500 ; Un-retract
G1 X103.2363 Y111.72 E0.97485 F9000 ; Print pattern wall
G1 X82.0231 Y132.9332 E0.97485 F9000 ; Print pattern wall
G1 E-0.5 F3300 ; Retract
G1 Z0.55 F18000 ; Z hop
G0 X82.5988 Y90.5068 F18000 ; Move to start next pattern wall
G1 Z0.45 F18000 ; Z hop return
G1 E0.5 F1500 ; Un-retract
G1 X103.812 Y111.72 E0.97485 F9000 ; Print pattern wall
G1 X82.5988 Y132.9332 E0.97485 F9000 ; Print pattern wall
G1 E-0.5 F3300 ; Retract
G1 Z0.55 F18000 ; Z hop
G0 X85.0488 Y90.5068 F18000 ; Move to next pattern
G1 Z0.45 F18000 ; Z hop return
G1 E0.5 F1500 ; Un-retract
SET_PRESSURE_ADVANCE ADVANCE=0.01 ; Set pressure advance
M117 PA 0.01
G1 X106.262 Y111.72 E0.97485 F9000 ; Print pattern wall
G1 X85.0488 Y132.9332 E0.97485 F9000 ; Print pattern wall
G1 E-0.5 F3300 ; Retract
G1 Z0.55 F18000 ; Z hop
G0 X85.6245 Y90.5068 F18000 ; Move to start next pattern wall
G1 Z0.45 F18000 ; Z hop return
G1 E0.5 F1500 ; Un-retract
G1 X106.8377 Y111.72 E0.97485 F9000 ; Print pattern wall
G1 X85.6245 Y132.9332 E0.97485 F9000 ; Print pattern wall
G1 E-0.5 F3300 ; Retract
G1 Z0.55 F18000 ; Z hop
G0 X86.2002 Y90.5068 F18000 ; Move to start next pattern wall
G1 Z0.45 F18000 ; Z hop return
G1 E0.5 F1500 ; Un-retract
G1 X107.4134 Y111.72 E0.97485 F9000 ; Print pattern wall
G1 X86.2002 Y132.9332 E0.97485 F9000 ; Print pattern wall
G1 E-0.5 F3300 ; Retract
G1 Z0.55 F18000 ; Z hop
G0 X88.6502 Y90.5068 F18000 ; Move to next pattern
G1 Z0.45 F18000 ; Z hop return
G1 E0.5 F1500 ; Un-retract
SET_PRESSURE_ADVANCE ADVANCE=0.015 ; Set pressure advance
M117 PA 0.015
G1 X109.8634 Y111.72 E0.97485 F9000 ; Print pattern wall
G1 X88.6502 Y132.9332 E0.97485 F9000 ; Print pattern wall
G1 E-0.5 F3300 ; Retract
G1 Z0.55 F18000 ; Z hop
G0 X89.2259 Y90.5068 F18000 ; Move to start next pattern wall
G1 Z0.45 F18000 ; Z hop return
G1 E0.5 F1500 ; Un-retract
G1 X110.4391 Y111.72 E0.97485 F9000 ; Print pattern wall
G1 X89.2259 Y132.9332 E0.97485 F9000 ; Print pattern wall
G1 E-0.5 F3300 ; Retract
G1 Z0.55 F18000 ; Z hop
G0 X89.8016 Y90.5068 F18000 ; Move to start next pattern wall
G1 Z0.45 F18000 ; Z hop return
G1 E0.5 F1500 ; Un-retract
G1 X111.0148 Y111.72 E0.97485 F9000 ; Print pattern wall
G1 X89.8016 Y132.9332 E0.97485 F9000 ; Print pattern wall
G1 E-0.5 F3300 ; Retract
G1 Z0.55 F18000 ; Z hop
G0 X92.2516 Y90.5068 F18000 ; Move to next pattern
G1 Z0.45 F18000 ; Z hop return
G1 E0.5 F1500 ; Un-retract
SET_PRESSURE_ADVANCE ADVANCE=0.02 ; Set pressure advance
M117 PA 0.02
G1 X113.4648 Y111.72 E0.97485 F9000 ; Print pattern wall
G1 X92.2516 Y132.9332 E0.97485 F9000 ; Print pattern wall
G1 E-0.5 F3300 ; Retract
G1 Z0.55 F18000 ; Z hop
G0 X92.8273 Y90.5068 F18000 ; Move to start next pattern wall
G1 Z0.45 F18000 ; Z hop return
G1 E0.5 F1500 ; Un-retract
G1 X114.0405 Y111.72 E0.97485 F9000 ; Print pattern wall
G1 X92.8273 Y132.9332 E0.97485 F9000 ; Print pattern wall
G1 E-0.5 F3300 ; Retract
G1 Z0.55 F18000 ; Z hop
G0 X93.403 Y90.5068 F18000 ; Move to start next pattern wall
G1 Z0.45 F18000 ; Z hop return
G1 E0.5 F1500 ; Un-retract
G1 X114.6162 Y111.72 E0.97485 F9000 ; Print pattern wall
G1 X93.403 Y132.9332 E0.97485 F9000 ; Print pattern wall
G1 E-0.5 F3300 ; Retract
G1 Z0.55 F18000 ; Z hop
G0 X95.853 Y90.5068 F18000 ; Move to next pattern
G1 Z0.45 F18000 ; Z hop return
G1 E0.5 F1500 ; Un-retract
SET_PRESSURE_ADVANCE ADVANCE=0.025 ; Set pressure advance
M117 PA 0.025
G1 X117.0662 Y111.72 E0.97485 F9000 ; Print pattern wall
G1 X95.853 Y132.9332 E0.97485 F9000 ; Print pattern wall
G1 E-0.5 F3300 ; Retract
G1 Z0.55 F18000 ; Z hop
G0 X96.4287 Y90.5068 F18000 ; Move to start next pattern wall
G1 Z0.45 F18000 ; Z hop return
G1 E0.5 F1500 ; Un-retract
G1 X117.6419 Y111.72 E0.97485 F9000 ; Print pattern wall
G1 X96.4287 Y132.9332 E0.97485 F9000 ; Print pattern wall
G1 E-0.5 F3300 ; Retract
G1 Z0.55 F18000 ; Z hop
G0 X97.0044 Y90.5068 F18000 ; Move to start next pattern wall
G1 Z0.45 F18000 ; Z hop return
G1 E0.5 F1500 ; Un-retract
G1 X118.2176 Y111.72 E0.97485 F9000 ; Print pattern wall
G1 X97.0044 Y132.9332 E0.97485 F9000 ; Print pattern wall
G1 E-0.5 F3300 ; Retract
G1 Z0.55 F18000 ; Z hop
G0 X99.4544 Y90.5068 F18000 ; Move to next pattern
G1 Z0.45 F18000 ; Z hop return
G1 E0.5 F1500 ; Un-retract
SET_PRESSURE_ADVANCE ADVANCE=0.03 ; Set pressure advance
M117 PA 0.03
G1 X120.6676 Y111.72 E0.97485 F9000 ; Print pattern wall
G1 X99.4544 Y132.9332 E0.97485 F9000 ; Print pattern wall
G1 E-0.5 F3300 ; Retract
G1 Z0.55 F18000 ; Z hop
G0 X100.0301 Y90.5068 F18000 ; Move to start next pattern wall
G1 Z0.45 F18000 ; Z hop return
G1 E0.5 F1500 ; Un-retract
G1 X121.2433 Y111.72 E0.97485 F9000 ; Print pattern wall
G1 X100.0301 Y132.9332 E0.97485 F9000 ; Print pattern wall
G1 E-0.5 F3300 ; Retract
G1 Z0.55 F18000 ; Z hop
G0 X100.6058 Y90.5068 F18000 ; Move to start next pattern wall
G1 Z0.45 F18000 ; Z hop return
G1 E0.5 F1500 ; Un-retract
G1 X121.819 Y111.72 E0.97485 F9000 ; Print pattern wall
G1 X100.6058 Y132.9332 E0.97485 F9000 ; Print pattern wall
G1 E-0.5 F3300 ; Retract
G1 Z0.55 F18000 ; Z hop
G0 X103.0558 Y90.5068 F18000 ; Move to next pattern
G1 Z0.45 F18000 ; Z hop return
G1 E0.5 F1500 ; Un-retract
SET_PRESSURE_ADVANCE ADVANCE=0.035 ; Set pressure advance
M117 PA 0.035
G1 X124.269 Y111.72 E0.97485 F9000 ; Print pattern wall
G1 X103.0558 Y132.9332 E0.97485 F9000 ; Print pattern wall
G1 E-0.5 F3300 ; Retract
G1 Z0.55 F18000 ; Z hop
G0 X103.6315 Y90.5068 F18000 ; Move to start next pattern wall
G1 Z0.45 F18000 ; Z hop return
G1 E0.5 F1500 ; Un-retract
G1 X124.8447 Y111.72 E0.97485 F9000 ; Print pattern wall
G1 X103.6315 Y132.9332 E0.97485 F9000 ; Print pattern wall
G1 E-0.5 F3300 ; Retract
G1 Z0.55 F18000 ; Z hop
G0 X104.2072 Y90.5068 F18000 ; Move to start next pattern wall
G1 Z0.45 F18000 ; Z hop return
G1 E0.5 F1500 ; Un-retract
G1 X125.4204 Y111.72 E0.97485 F9000 ; Print pattern wall
G1 X104.2072 Y132.9332 E0.97485 F9000 ; Print pattern wall
G1 E-0.5 F3300 ; Retract
G1 Z0.55 F18000 ; Z hop
G0 X106.6572 Y90.5068 F18000 ; Move to next pattern
G1 Z0.45 F18000 ; Z hop return
G1 E0.5 F1500 ; Un-retract
SET_PRESSURE_ADVANCE ADVANCE=0.04 ; Set pressure advance
M117 PA 0.04
G1 X127.8704 Y111.72 E0.97485 F9000 ; Print pattern wall
G1 X106.6572 Y132.9332 E0.97485 F9000 ; Print pattern wall
G1 E-0.5 F3300 ; Retract
G1 Z0.55 F18000 ; Z hop
G0 X107.2329 Y90.5068 F18000 ; Move to start next pattern wall
G1 Z0.45 F18000 ; Z hop return
G1 E0.5 F1500 ; Un-retract
G1 X128.4461 Y111.72 E0.97485 F9000 ; Print pattern wall
G1 X107.2329 Y132.9332 E0.97485 F9000 ; Print pattern wall
G1 E-0.5 F3300 ; Retract
G1 Z0.55 F18000 ; Z hop
G0 X107.8086 Y90.5068 F18000 ; Move to start next pattern wall
G1 Z0.45 F18000 ; Z hop return
G1 E0.5 F1500 ; Un-retract
G1 X129.0218 Y111.72 E0.97485 F9000 ; Print pattern wall
G1 X107.8086 Y132.9332 E0.97485 F9000 ; Print pattern wall
G1 E-0.5 F3300 ; Retract
G1 Z0.55 F18000 ; Z hop
G0 X110.2586 Y90.5068 F18000 ; Move to next pattern
G1 Z0.45 F18000 ; Z hop return
G1 E0.5 F1500 ; Un-retract
SET_PRESSURE_ADVANCE ADVANCE=0.045 ; Set pressure advance
M117 PA 0.045
G1 X131.4718 Y111.72 E0.97485 F9000 ; Print pattern wall
G1 X110.2586 Y132.9332 E0.97485 F9000 ; Print pattern wall
G1 E-0.5 F3300 ; Retract
G1 Z0.55 F18000 ; Z hop
G0 X110.8343 Y90.5068 F18000 ; Move to start next pattern wall
G1 Z0.45 F18000 ; Z hop return
G1 E0.5 F1500 ; Un-retract
G1 X132.0475 Y111.72 E0.97485 F9000 ; Print pattern wall
G1 X110.8343 Y132.9332 E0.97485 F9000 ; Print pattern wall
G1 E-0.5 F3300 ; Retract
G1 Z0.55 F18000 ; Z hop
G0 X111.41 Y90.5068 F18000 ; Move to start next pattern wall
G1 Z0.45 F18000 ; Z hop return
G1 E0.5 F1500 ; Un-retract
G1 X132.6232 Y111.72 E0.97485 F9000 ; Print pattern wall
G1 X111.41 Y132.9332 E0.97485 F9000 ; Print pattern wall
G1 E-0.5 F3300 ; Retract
G1 Z0.55 F18000 ; Z hop
G0 X113.86 Y90.5068 F18000 ; Move to next pattern
G1 Z0.45 F18000 ; Z hop return
G1 E0.5 F1500 ; Un-retract
SET_PRESSURE_ADVANCE ADVANCE=0.05 ; Set pressure advance
M117 PA 0.05
G1 X135.0732 Y111.72 E0.97485 F9000 ; Print pattern wall
G1 X113.86 Y132.9332 E0.97485 F9000 ; Print pattern wall
G1 E-0.5 F3300 ; Retract
G1 Z0.55 F18000 ; Z hop
G0 X114.4357 Y90.5068 F18000 ; Move to start next pattern wall
G1 Z0.45 F18000 ; Z hop return
G1 E0.5 F1500 ; Un-retract
G1 X135.6489 Y111.72 E0.97485 F9000 ; Print pattern wall
G1 X114.4357 Y132.9332 E0.97485 F9000 ; Print pattern wall
G1 E-0.5 F3300 ; Retract
G1 Z0.55 F18000 ; Z hop
G0 X115.0113 Y90.5068 F18000 ; Move to start next pattern wall
G1 Z0.45 F18000 ; Z hop return
G1 E0.5 F1500 ; Un-retract
G1 X136.2246 Y111.72 E0.97485 F9000 ; Print pattern wall
G1 X115.0113 Y132.9332 E0.97485 F9000 ; Print pattern wall
G1 E-0.5 F3300 ; Retract
G1 Z0.55 F18000 ; Z hop
G0 X117.4613 Y90.5068 F18000 ; Move to next pattern
G1 Z0.45 F18000 ; Z hop return
G1 E0.5 F1500 ; Un-retract
SET_PRESSURE_ADVANCE ADVANCE=0.055 ; Set pressure advance
M117 PA 0.055
G1 X138.6746 Y111.72 E0.97485 F9000 ; Print pattern wall
G1 X117.4613 Y132.9332 E0.97485 F9000 ; Print pattern wall
G1 E-0.5 F3300 ; Retract
G1 Z0.55 F18000 ; Z hop
G0 X118.037 Y90.5068 F18000 ; Move to start next pattern wall
G1 Z0.45 F18000 ; Z hop return
G1 E0.5 F1500 ; Un-retract
G1 X139.2502 Y111.72 E0.97485 F9000 ; Print pattern wall
G1 X118.037 Y132.9332 E0.97485 F9000 ; Print pattern wall
G1 E-0.5 F3300 ; Retract
G1 Z0.55 F18000 ; Z hop
G0 X118.6127 Y90.5068 F18000 ; Move to start next pattern wall
G1 Z0.45 F18000 ; Z hop return
G1 E0.5 F1500 ; Un-retract
G1 X139.8259 Y111.72 E0.97485 F9000 ; Print pattern wall
G1 X118.6127 Y132.9332 E0.97485 F9000 ; Print pattern wall
G1 E-0.5 F3300 ; Retract
G1 Z0.55 F18000 ; Z hop
G0 X121.0627 Y90.5068 F18000 ; Move to next pattern
G1 Z0.45 F18000 ; Z hop return
G1 E0.5 F1500 ; Un-retract
SET_PRESSURE_ADVANCE ADVANCE=0.06 ; Set pressure advance
M117 PA 0.06
G1 X142.2759 Y111.72 E0.97485 F9000 ; Print pattern wall
G1 X121.0627 Y132.9332 E0.97485 F9000 ; Print pattern wall
G1 E-0.5 F3300 ; Retract
G1 Z0.55 F18000 ; Z hop
G0 X121.6384 Y90.5068 F18000 ; Move to start next pattern wall
G1 Z0.45 F18000 ; Z hop return
G1 E0.5 F1500 ; Un-retract
G1 X142.8516 Y111.72 E0.97485 F9000 ; Print pattern wall
G1 X121.6384 Y132.9332 E0.97485 F9000 ; Print pattern wall
G1 E-0.5 F3300 ; Retract
G1 Z0.55 F18000 ; Z hop
G0 X122.2141 Y90.5068 F18000 ; Move to start next pattern wall
G1 Z0.45 F18000 ; Z hop return
G1 E0.5 F1500 ; Un-retract
G1 X143.4273 Y111.72 E0.97485 F9000 ; Print pattern wall
G1 X122.2141 Y132.9332 E0.97485 F9000 ; Print pattern wall
G1 E-0.5 F3300 ; Retract
G1 Z0.55 F18000 ; Z hop
G0 X124.6641 Y90.5068 F18000 ; Move to next pattern
G1 Z0.45 F18000 ; Z hop return
G1 E0.5 F1500 ; Un-retract
SET_PRESSURE_ADVANCE ADVANCE=0.065 ; Set pressure advance
M117 PA 0.065
G1 X145.8773 Y111.72 E0.97485 F9000 ; Print pattern wall
G1 X124.6641 Y132.9332 E0.97485 F9000 ; Print pattern wall
G1 E-0.5 F3300 ; Retract
G1 Z0.55 F18000 ; Z hop
G0 X125.2398 Y90.5068 F18000 ; Move to start next pattern wall
G1 Z0.45 F18000 ; Z hop return
G1 E0.5 F1500 ; Un-retract
G1 X146.453 Y111.72 E0.97485 F9000 ; Print pattern wall
G1 X125.2398 Y132.9332 E0.97485 F9000 ; Print pattern wall
G1 E-0.5 F3300 ; Retract
G1 Z0.55 F18000 ; Z hop
G0 X125.8155 Y90.5068 F18000 ; Move to start next pattern wall
G1 Z0.45 F18000 ; Z hop return
G1 E0.5 F1500 ; Un-retract
G1 X147.0287 Y111.72 E0.97485 F9000 ; Print pattern wall
G1 X125.8155 Y132.9332 E0.97485 F9000 ; Print pattern wall
G1 E-0.5 F3300 ; Retract
G1 Z0.55 F18000 ; Z hop
G0 X128.2655 Y90.5068 F18000 ; Move to next pattern
G1 Z0.45 F18000 ; Z hop return
G1 E0.5 F1500 ; Un-retract
SET_PRESSURE_ADVANCE ADVANCE=0.07 ; Set pressure advance
M117 PA 0.07
G1 X149.4787 Y111.72 E0.97485 F9000 ; Print pattern wall
G1 X128.2655 Y132.9332 E0.97485 F9000 ; Print pattern wall
G1 E-0.5 F3300 ; Retract
G1 Z0.55 F18000 ; Z hop
G0 X128.8412 Y90.5068 F18000 ; Move to start next pattern wall
G1 Z0.45 F18000 ; Z hop return
G1 E0.5 F1500 ; Un-retract
G1 X150.0544 Y111.72 E0.97485 F9000 ; Print pattern wall
G1 X128.8412 Y132.9332 E0.97485 F9000 ; Print pattern wall
G1 E-0.5 F3300 ; Retract
G1 Z0.55 F18000 ; Z hop
G0 X129.4169 Y90.5068 F18000 ; Move to start next pattern wall
G1 Z0.45 F18000 ; Z hop return
G1 E0.5 F1500 ; Un-retract
G1 X150.6301 Y111.72 E0.97485 F9000 ; Print pattern wall
G1 X129.4169 Y132.9332 E0.97485 F9000 ; Print pattern wall
G1 E-0.5 F3300 ; Retract
G1 Z0.55 F18000 ; Z hop
G0 X131.8669 Y90.5068 F18000 ; Move to next pattern
G1 Z0.45 F18000 ; Z hop return
G1 E0.5 F1500 ; Un-retract
SET_PRESSURE_ADVANCE ADVANCE=0.075 ; Set pressure advance
M117 PA 0.075
G1 X153.0801 Y111.72 E0.97485 F9000 ; Print pattern wall
G1 X131.8669 Y132.9332 E0.97485 F9000 ; Print pattern wall
G1 E-0.5 F3300 ; Retract
G1 Z0.55 F18000 ; Z hop
G0 X132.4426 Y90.5068 F18000 ; Move to start next pattern wall
G1 Z0.45 F18000 ; Z hop return
G1 E0.5 F1500 ; Un-retract
G1 X153.6558 Y111.72 E0.97485 F9000 ; Print pattern wall
G1 X132.4426 Y132.9332 E0.97485 F9000 ; Print pattern wall
G1 E-0.5 F3300 ; Retract
G1 Z0.55 F18000 ; Z hop
G0 X133.0183 Y90.5068 F18000 ; Move to start next pattern wall
G1 Z0.45 F18000 ; Z hop return
G1 E0.5 F1500 ; Un-retract
G1 X154.2315 Y111.72 E0.97485 F9000 ; Print pattern wall
G1 X133.0183 Y132.9332 E0.97485 F9000 ; Print pattern wall
G1 E-0.5 F3300 ; Retract
G1 Z0.55 F18000 ; Z hop
G0 X135.4683 Y90.5068 F18000 ; Move to next pattern
G1 Z0.45 F18000 ; Z hop return
G1 E0.5 F1500 ; Un-retract
SET_PRESSURE_ADVANCE ADVANCE=0.08 ; Set pressure advance
M117 PA 0.08
G1 X156.6815 Y111.72 E0.97485 F9000 ; Print pattern wall
G1 X135.4683 Y132.9332 E0.97485 F9000 ; Print pattern wall
G1 E-0.5 F3300 ; Retract
G1 Z0.55 F18000 ; Z hop
G0 X136.044 Y90.5068 F18000 ; Move to start next pattern wall
G1 Z0.45 F18000 ; Z hop return
G1 E0.5 F1500 ; Un-retract
G1 X157.2572 Y111.72 E0.97485 F9000 ; Print pattern wall
G1 X136.044 Y132.9332 E0.97485 F9000 ; Print pattern wall
G1 E-0.5 F3300 ; Retract
G1 Z0.55 F18000 ; Z hop
G0 X136.6197 Y90.5068 F18000 ; Move to start next pattern wall
G1 Z0.45 F18000 ; Z hop return
G1 E0.5 F1500 ; Un-retract
G1 X157.8329 Y111.72 E0.97485 F9000 ; Print pattern wall
G1 X136.6197 Y132.9332 E0.97485 F9000 ; Print pattern wall
G1 E-0.5 F3300 ; Retract
G1 Z0.55 F18000 ; Z hop
G0 X77.846 Y90.5068 F18000 ; Move back to start position
G1 Z0.45 F18000 ; Z hop return
G1 E0.5 F1500 ; Un-retract
G0 Z0.65 F18000 ; Move to layer height
SET_PRESSURE_ADVANCE ADVANCE=0 ; Set pressure advance
M117 PA 0
G1 X99.0592 Y111.72 E0.97485 F9000 ; Print pattern wall
G1 X77.846 Y132.9332 E0.97485 F9000 ; Print pattern wall
G1 E-0.5 F3300 ; Retract
G1 Z0.75 F18000 ; Z hop
G0 X78.4217 Y90.5068 F18000 ; Move to start next pattern wall
G1 Z0.65 F18000 ; Z hop return
G1 E0.5 F1500 ; Un-retract
G1 X99.6349 Y111.72 E0.97485 F9000 ; Print pattern wall
G1 X78.4217 Y132.9332 E0.97485 F9000 ; Print pattern wall
G1 E-0.5 F3300 ; Retract
G1 Z0.75 F18000 ; Z hop
G0 X78.9974 Y90.5068 F18000 ; Move to start next pattern wall
G1 Z0.65 F18000 ; Z hop return
G1 E0.5 F1500 ; Un-retract
G1 X100.2106 Y111.72 E0.97485 F9000 ; Print pattern wall
G1 X78.9974 Y132.9332 E0.97485 F9000 ; Print pattern wall
G1 E-0.5 F3300 ; Retract
G1 Z0.75 F18000 ; Z hop
G0 X81.4474 Y90.5068 F18000 ; Move to next pattern
G1 Z0.65 F18000 ; Z hop return
G1 E0.5 F1500 ; Un-retract
SET_PRESSURE_ADVANCE ADVANCE=0.005 ; Set pressure advance
M117 PA 0.005
G1 X102.6606 Y111.72 E0.97485 F9000 ; Print pattern wall
G1 X81.4474 Y132.9332 E0.97485 F9000 ; Print pattern wall
G1 E-0.5 F3300 ; Retract
G1 Z0.75 F18000 ; Z hop
G0 X82.0231 Y90.5068 F18000 ; Move to start next pattern wall
G1 Z0.65 F18000 ; Z hop return
G1 E0.5 F1500 ; Un-retract
G1 X103.2363 Y111.72 E0.97485 F9000 ; Print pattern wall
G1 X82.0231 Y132.9332 E0.97485 F9000 ; Print pattern wall
G1 E-0.5 F3300 ; Retract
G1 Z0.75 F18000 ; Z hop
G0 X82.5988 Y90.5068 F18000 ; Move to start next pattern wall
G1 Z0.65 F18000 ; Z hop return
G1 E0.5 F1500 ; Un-retract
G1 X103.812 Y111.72 E0.97485 F9000 ; Print pattern wall
G1 X82.5988 Y132.9332 E0.97485 F9000 ; Print pattern wall
G1 E-0.5 F3300 ; Retract
G1 Z0.75 F18000 ; Z hop
G0 X85.0488 Y90.5068 F18000 ; Move to next pattern
G1 Z0.65 F18000 ; Z hop return
G1 E0.5 F1500 ; Un-retract
SET_PRESSURE_ADVANCE ADVANCE=0.01 ; Set pressure advance
M117 PA 0.01
G1 X106.262 Y111.72 E0.97485 F9000 ; Print pattern wall
G1 X85.0488 Y132.9332 E0.97485 F9000 ; Print pattern wall
G1 E-0.5 F3300 ; Retract
G1 Z0.75 F18000 ; Z hop
G0 X85.6245 Y90.5068 F18000 ; Move to start next pattern wall
G1 Z0.65 F18000 ; Z hop return
G1 E0.5 F1500 ; Un-retract
G1 X106.8377 Y111.72 E0.97485 F9000 ; Print pattern wall
G1 X85.6245 Y132.9332 E0.97485 F9000 ; Print pattern wall
G1 E-0.5 F3300 ; Retract
G1 Z0.75 F18000 ; Z hop
G0 X86.2002 Y90.5068 F18000 ; Move to start next pattern wall
G1 Z0.65 F18000 ; Z hop return
G1 E0.5 F1500 ; Un-retract
G1 X107.4134 Y111.72 E0.97485 F9000 ; Print pattern wall
G1 X86.2002 Y132.9332 E0.97485 F9000 ; Print pattern wall
G1 E-0.5 F3300 ; Retract
G1 Z0.75 F18000 ; Z hop
G0 X88.6502 Y90.5068 F18000 ; Move to next pattern
G1 Z0.65 F18000 ; Z hop return
G1 E0.5 F1500 ; Un-retract
SET_PRESSURE_ADVANCE ADVANCE=0.015 ; Set pressure advance
M117 PA 0.015
G1 X109.8634 Y111.72 E0.97485 F9000 ; Print pattern wall
G1 X88.6502 Y132.9332 E0.97485 F9000 ; Print pattern wall
G1 E-0.5 F3300 ; Retract
G1 Z0.75 F18000 ; Z hop
G0 X89.2259 Y90.5068 F18000 ; Move to start next pattern wall
G1 Z0.65 F18000 ; Z hop return
G1 E0.5 F1500 ; Un-retract
G1 X110.4391 Y111.72 E0.97485 F9000 ; Print pattern wall
G1 X89.2259 Y132.9332 E0.97485 F9000 ; Print pattern wall
G1 E-0.5 F3300 ; Retract
G1 Z0.75 F18000 ; Z hop
G0 X89.8016 Y90.5068 F18000 ; Move to start next pattern wall
G1 Z0.65 F18000 ; Z hop return
G1 E0.5 F1500 ; Un-retract
G1 X111.0148 Y111.72 E0.97485 F9000 ; Print pattern wall
G1 X89.8016 Y132.9332 E0.97485 F9000 ; Print pattern wall
G1 E-0.5 F3300 ; Retract
G1 Z0.75 F18000 ; Z hop
G0 X92.2516 Y90.5068 F18000 ; Move to next pattern
G1 Z0.65 F18000 ; Z hop return
G1 E0.5 F1500 ; Un-retract
SET_PRESSURE_ADVANCE ADVANCE=0.02 ; Set pressure advance
M117 PA 0.02
G1 X113.4648 Y111.72 E0.97485 F9000 ; Print pattern wall
G1 X92.2516 Y132.9332 E0.97485 F9000 ; Print pattern wall
G1 E-0.5 F3300 ; Retract
G1 Z0.75 F18000 ; Z hop
G0 X92.8273 Y90.5068 F18000 ; Move to start next pattern wall
G1 Z0.65 F18000 ; Z hop return
G1 E0.5 F1500 ; Un-retract
G1 X114.0405 Y111.72 E0.97485 F9000 ; Print pattern wall
G1 X92.8273 Y132.9332 E0.97485 F9000 ; Print pattern wall
G1 E-0.5 F3300 ; Retract
G1 Z0.75 F18000 ; Z hop
G0 X93.403 Y90.5068 F18000 ; Move to start next pattern wall
G1 Z0.65 F18000 ; Z hop return
G1 E0.5 F1500 ; Un-retract
G1 X114.6162 Y111.72 E0.97485 F9000 ; Print pattern wall
G1 X93.403 Y132.9332 E0.97485 F9000 ; Print pattern wall
G1 E-0.5 F3300 ; Retract
G1 Z0.75 F18000 ; Z hop
G0 X95.853 Y90.5068 F18000 ; Move to next pattern
G1 Z0.65 F18000 ; Z hop return
G1 E0.5 F1500 ; Un-retract
SET_PRESSURE_ADVANCE ADVANCE=0.025 ; Set pressure advance
M117 PA 0.025
G1 X117.0662 Y111.72 E0.97485 F9000 ; Print pattern wall
G1 X95.853 Y132.9332 E0.97485 F9000 ; Print pattern wall
G1 E-0.5 F3300 ; Retract
G1 Z0.75 F18000 ; Z hop
G0 X96.4287 Y90.5068 F18000 ; Move to start next pattern wall
G1 Z0.65 F18000 ; Z hop return
G1 E0.5 F1500 ; Un-retract
G1 X117.6419 Y111.72 E0.97485 F9000 ; Print pattern wall
G1 X96.4287 Y132.9332 E0.97485 F9000 ; Print pattern wall
G1 E-0.5 F3300 ; Retract
G1 Z0.75 F18000 ; Z hop
G0 X97.0044 Y90.5068 F18000 ; Move to start next pattern wall
G1 Z0.65 F18000 ; Z hop return
G1 E0.5 F1500 ; Un-retract
G1 X118.2176 Y111.72 E0.97485 F9000 ; Print pattern wall
G1 X97.0044 Y132.9332 E0.97485 F9000 ; Print pattern wall
G1 E-0.5 F3300 ; Retract
G1 Z0.75 F18000 ; Z hop
G0 X99.4544 Y90.5068 F18000 ; Move to next pattern
G1 Z0.65 F18000 ; Z hop return
G1 E0.5 F1500 ; Un-retract
SET_PRESSURE_ADVANCE ADVANCE=0.03 ; Set pressure advance
M117 PA 0.03
G1 X120.6676 Y111.72 E0.97485 F9000 ; Print pattern wall
G1 X99.4544 Y132.9332 E0.97485 F9000 ; Print pattern wall
G1 E-0.5 F3300 ; Retract
G1 Z0.75 F18000 ; Z hop
G0 X100.0301 Y90.5068 F18000 ; Move to start next pattern wall
G1 Z0.65 F18000 ; Z hop return
G1 E0.5 F1500 ; Un-retract
G1 X121.2433 Y111.72 E0.97485 F9000 ; Print pattern wall
G1 X100.0301 Y132.9332 E0.97485 F9000 ; Print pattern wall
G1 E-0.5 F3300 ; Retract
G1 Z0.75 F18000 ; Z hop
G0 X100.6058 Y90.5068 F18000 ; Move to start next pattern wall
G1 Z0.65 F18000 ; Z hop return
G1 E0.5 F1500 ; Un-retract
G1 X121.819 Y111.72 E0.97485 F9000 ; Print pattern wall
G1 X100.6058 Y132.9332 E0.97485 F9000 ; Print pattern wall
G1 E-0.5 F3300 ; Retract
G1 Z0.75 F18000 ; Z hop
G0 X103.0558 Y90.5068 F18000 ; Move to next pattern
G1 Z0.65 F18000 ; Z hop return
G1 E0.5 F1500 ; Un-retract
SET_PRESSURE_ADVANCE ADVANCE=0.035 ; Set pressure advance
M117 PA 0.035
G1 X124.269 Y111.72 E0.97485 F9000 ; Print pattern wall
G1 X103.0558 Y132.9332 E0.97485 F9000 ; Print pattern wall
G1 E-0.5 F3300 ; Retract
G1 Z0.75 F18000 ; Z hop
G0 X103.6315 Y90.5068 F18000 ; Move to start next pattern wall
G1 Z0.65 F18000 ; Z hop return
G1 E0.5 F1500 ; Un-retract
G1 X124.8447 Y111.72 E0.97485 F9000 ; Print pattern wall
G1 X103.6315 Y132.9332 E0.97485 F9000 ; Print pattern wall
G1 E-0.5 F3300 ; Retract
G1 Z0.75 F18000 ; Z hop
G0 X104.2072 Y90.5068 F18000 ; Move to start next pattern wall
G1 Z0.65 F18000 ; Z hop return
G1 E0.5 F1500 ; Un-retract
G1 X125.4204 Y111.72 E0.97485 F9000 ; Print pattern wall
G1 X104.2072 Y132.9332 E0.97485 F9000 ; Print pattern wall
G1 E-0.5 F3300 ; Retract
G1 Z0.75 F18000 ; Z hop
G0 X106.6572 Y90.5068 F18000 ; Move to next pattern
G1 Z0.65 F18000 ; Z hop return
G1 E0.5 F1500 ; Un-retract
SET_PRESSURE_ADVANCE ADVANCE=0.04 ; Set pressure advance
M117 PA 0.04
G1 X127.8704 Y111.72 E0.97485 F9000 ; Print pattern wall
G1 X106.6572 Y132.9332 E0.97485 F9000 ; Print pattern wall
G1 E-0.5 F3300 ; Retract
G1 Z0.75 F18000 ; Z hop
G0 X107.2329 Y90.5068 F18000 ; Move to start next pattern wall
G1 Z0.65 F18000 ; Z hop return
G1 E0.5 F1500 ; Un-retract
G1 X128.4461 Y111.72 E0.97485 F9000 ; Print pattern wall
G1 X107.2329 Y132.9332 E0.97485 F9000 ; Print pattern wall
G1 E-0.5 F3300 ; Retract
G1 Z0.75 F18000 ; Z hop
G0 X107.8086 Y90.5068 F18000 ; Move to start next pattern wall
G1 Z0.65 F18000 ; Z hop return
G1 E0.5 F1500 ; Un-retract
G1 X129.0218 Y111.72 E0.97485 F9000 ; Print pattern wall
G1 X107.8086 Y132.9332 E0.97485 F9000 ; Print pattern wall
G1 E-0.5 F3300 ; Retract
G1 Z0.75 F18000 ; Z hop
G0 X110.2586 Y90.5068 F18000 ; Move to next pattern
G1 Z0.65 F18000 ; Z hop return
G1 E0.5 F1500 ; Un-retract
SET_PRESSURE_ADVANCE ADVANCE=0.045 ; Set pressure advance
M117 PA 0.045
G1 X131.4718 Y111.72 E0.97485 F9000 ; Print pattern wall
G1 X110.2586 Y132.9332 E0.97485 F9000 ; Print pattern wall
G1 E-0.5 F3300 ; Retract
G1 Z0.75 F18000 ; Z hop
G0 X110.8343 Y90.5068 F18000 ; Move to start next pattern wall
G1 Z0.65 F18000 ; Z hop return
G1 E0.5 F1500 ; Un-retract
G1 X132.0475 Y111.72 E0.97485 F9000 ; Print pattern wall
G1 X110.8343 Y132.9332 E0.97485 F9000 ; Print pattern wall
G1 E-0.5 F3300 ; Retract
G1 Z0.75 F18000 ; Z hop
G0 X111.41 Y90.5068 F18000 ; Move to start next pattern wall
G1 Z0.65 F18000 ; Z hop return
G1 E0.5 F1500 ; Un-retract
G1 X132.6232 Y111.72 E0.97485 F9000 ; Print pattern wall
G1 X111.41 Y132.9332 E0.97485 F9000 ; Print pattern wall
G1 E-0.5 F3300 ; Retract
G1 Z0.75 F18000 ; Z hop
G0 X113.86 Y90.5068 F18000 ; Move to next pattern
G1 Z0.65 F18000 ; Z hop return
G1 E0.5 F1500 ; Un-retract
SET_PRESSURE_ADVANCE ADVANCE=0.05 ; Set pressure advance
M117 PA 0.05
G1 X135.0732 Y111.72 E0.97485 F9000 ; Print pattern wall
G1 X113.86 Y132.9332 E0.97485 F9000 ; Print pattern wall
G1 E-0.5 F3300 ; Retract
G1 Z0.75 F18000 ; Z hop
G0 X114.4357 Y90.5068 F18000 ; Move to start next pattern wall
G1 Z0.65 F18000 ; Z hop return
G1 E0.5 F1500 ; Un-retract
G1 X135.6489 Y111.72 E0.97485 F9000 ; Print pattern wall
G1 X114.4357 Y132.9332 E0.97485 F9000 ; Print pattern wall
G1 E-0.5 F3300 ; Retract
G1 Z0.75 F18000 ; Z hop
G0 X115.0113 Y90.5068 F18000 ; Move to start next pattern wall
G1 Z0.65 F18000 ; Z hop return
G1 E0.5 F1500 ; Un-retract
G1 X136.2246 Y111.72 E0.97485 F9000 ; Print pattern wall
G1 X115.0113 Y132.9332 E0.97485 F9000 ; Print pattern wall
G1 E-0.5 F3300 ; Retract
G1 Z0.75 F18000 ; Z hop
G0 X117.4613 Y90.5068 F18000 ; Move to next pattern
G1 Z0.65 F18000 ; Z hop return
G1 E0.5 F1500 ; Un-retract
SET_PRESSURE_ADVANCE ADVANCE=0.055 ; Set pressure advance
M117 PA 0.055
G1 X138.6746 Y111.72 E0.97485 F9000 ; Print pattern wall
G1 X117.4613 Y132.9332 E0.97485 F9000 ; Print pattern wall
G1 E-0.5 F3300 ; Retract
G1 Z0.75 F18000 ; Z hop
G0 X118.037 Y90.5068 F18000 ; Move to start next pattern wall
G1 Z0.65 F18000 ; Z hop return
G1 E0.5 F1500 ; Un-retract
G1 X139.2502 Y111.72 E0.97485 F9000 ; Print pattern wall
G1 X118.037 Y132.9332 E0.97485 F9000 ; Print pattern wall
G1 E-0.5 F3300 ; Retract
G1 Z0.75 F18000 ; Z hop
G0 X118.6127 Y90.5068 F18000 ; Move to start next pattern wall
G1 Z0.65 F18000 ; Z hop return
G1 E0.5 F1500 ; Un-retract
G1 X139.8259 Y111.72 E0.97485 F9000 ; Print pattern wall
G1 X118.6127 Y132.9332 E0.97485 F9000 ; Print pattern wall
G1 E-0.5 F3300 ; Retract
G1 Z0.75 F18000 ; Z hop
G0 X121.0627 Y90.5068 F18000 ; Move to next pattern
G1 Z0.65 F18000 ; Z hop return
G1 E0.5 F1500 ; Un-retract
SET_PRESSURE_ADVANCE ADVANCE=0.06 ; Set pressure advance
M117 PA 0.06
G1 X142.2759 Y111.72 E0.97485 F9000 ; Print pattern wall
G1 X121.0627 Y132.9332 E0.97485 F9000 ; Print pattern wall
G1 E-0.5 F3300 ; Retract
G1 Z0.75 F18000 ; Z hop
G0 X121.6384 Y90.5068 F18000 ; Move to start next pattern wall
G1 Z0.65 F18000 ; Z hop return
G1 E0.5 F1500 ; Un-retract
G1 X142.8516 Y111.72 E0.97485 F9000 ; Print pattern wall
G1 X121.6384 Y132.9332 E0.97485 F9000 ; Print pattern wall
G1 E-0.5 F3300 ; Retract
G1 Z0.75 F18000 ; Z hop
G0 X122.2141 Y90.5068 F18000 ; Move to start next pattern wall
G1 Z0.65 F18000 ; Z hop return
G1 E0.5 F1500 ; Un-retract
G1 X143.4273 Y111.72 E0.97485 F9000 ; Print pattern wall
G1 X122.2141 Y132.9332 E0.97485 F9000 ; Print pattern wall
G1 E-0.5 F3300 ; Retract
G1 Z0.75 F18000 ; Z hop
G0 X124.6641 Y90.5068 F18000 ; Move to next pattern
G1 Z0.65 F18000 ; Z hop return
G1 E0.5 F1500 ; Un-retract
SET_PRESSURE_ADVANCE ADVANCE=0.065 ; Set pressure advance
M117 PA 0.065
G1 X145.8773 Y111.72 E0.97485 F9000 ; Print pattern wall
G1 X124.6641 Y132.9332 E0.97485 F9000 ; Print pattern wall
G1 E-0.5 F3300 ; Retract
G1 Z0.75 F18000 ; Z hop
G0 X125.2398 Y90.5068 F18000 ; Move to start next pattern wall
G1 Z0.65 F18000 ; Z hop return
G1 E0.5 F1500 ; Un-retract
G1 X146.453 Y111.72 E0.97485 F9000 ; Print pattern wall
G1 X125.2398 Y132.9332 E0.97485 F9000 ; Print pattern wall
G1 E-0.5 F3300 ; Retract
G1 Z0.75 F18000 ; Z hop
G0 X125.8155 Y90.5068 F18000 ; Move to start next pattern wall
G1 Z0.65 F18000 ; Z hop return
G1 E0.5 F1500 ; Un-retract
G1 X147.0287 Y111.72 E0.97485 F9000 ; Print pattern wall
G1 X125.8155 Y132.9332 E0.97485 F9000 ; Print pattern wall
G1 E-0.5 F3300 ; Retract
G1 Z0.75 F18000 ; Z hop
G0 X128.2655 Y90.5068 F18000 ; Move to next pattern
G1 Z0.65 F18000 ; Z hop return
G1 E0.5 F1500 ; Un-retract
SET_PRESSURE_ADVANCE ADVANCE=0.07 ; Set pressure advance
M117 PA 0.07
G1 X149.4787 Y111.72 E0.97485 F9000 ; Print pattern wall
G1 X128.2655 Y132.9332 E0.97485 F9000 ; Print pattern wall
G1 E-0.5 F3300 ; Retract
G1 Z0.75 F18000 ; Z hop
G0 X128.8412 Y90.5068 F18000 ; Move to start next pattern wall
G1 Z0.65 F18000 ; Z hop return
G1 E0.5 F1500 ; Un-retract
G1 X150.0544 Y111.72 E0.97485 F9000 ; Print pattern wall
G1 X128.8412 Y132.9332 E0.97485 F9000 ; Print pattern wall
G1 E-0.5 F3300 ; Retract
G1 Z0.75 F18000 ; Z hop
G0 X129.4169 Y90.5068 F18000 ; Move to start next pattern wall
G1 Z0.65 F18000 ; Z hop return
G1 E0.5 F1500 ; Un-retract
G1 X150.6301 Y111.72 E0.97485 F9000 ; Print pattern wall
G1 X129.4169 Y132.9332 E0.97485 F9000 ; Print pattern wall
G1 E-0.5 F3300 ; Retract
G1 Z0.75 F18000 ; Z hop
G0 X131.8669 Y90.5068 F18000 ; Move to next pattern
G1 Z0.65 F18000 ; Z hop return
G1 E0.5 F1500 ; Un-retract
SET_PRESSURE_ADVANCE ADVANCE=0.075 ; Set pressure advance
M117 PA 0.075
G1 X153.0801 Y111.72 E0.97485 F9000 ; Print pattern wall
G1 X131.8669 Y132.9332 E0.97485 F9000 ; Print pattern wall
G1 E-0.5 F3300 ; Retract
G1 Z0.75 F18000 ; Z hop
G0 X132.4426 Y90.5068 F18000 ; Move to start next pattern wall
G1 Z0.65 F18000 ; Z hop return
G1 E0.5 F1500 ; Un-retract
G1 X153.6558 Y111.72 E0.97485 F9000 ; Print pattern wall
G1 X132.4426 Y132.9332 E0.97485 F9000 ; Print pattern wall
G1 E-0.5 F3300 ; Retract
G1 Z0.75 F18000 ; Z hop
G0 X133.0183 Y90.5068 F18000 ; Move to start next pattern wall
G1 Z0.65 F18000 ; Z hop return
G1 E0.5 F1500 ; Un-retract
G1 X154.2315 Y111.72 E0.97485 F9000 ; Print pattern wall
G1 X133.0183 Y132.9332 E0.97485 F9000 ; Print pattern wall
G1 E-0.5 F3300 ; Retract
G1 Z0.75 F18000 ; Z hop
G0 X135.4683 Y90.5068 F18000 ; Move to next pattern
G1 Z0.65 F18000 ; Z hop return
G1 E0.5 F1500 ; Un-retract
SET_PRESSURE_ADVANCE ADVANCE=0.08 ; Set pressure advance
M117 PA 0.08
G1 X156.6815 Y111.72 E0.97485 F9000 ; Print pattern wall
G1 X135.4683 Y132.9332 E0.97485 F9000 ; Print pattern wall
G1 E-0.5 F3300 ; Retract
G1 Z0.75 F18000 ; Z hop
G0 X136.044 Y90.5068 F18000 ; Move to start next pattern wall
G1 Z0.65 F18000 ; Z hop return
G1 E0.5 F1500 ; Un-retract
G1 X157.2572 Y111.72 E0.97485 F9000 ; Print pattern wall
G1 X136.044 Y132.9332 E0.97485 F9000 ; Print pattern wall
G1 E-0.5 F3300 ; Retract
G1 Z0.75 F18000 ; Z hop
G0 X136.6197 Y90.5068 F18000 ; Move to start next pattern wall
G1 Z0.65 F18000 ; Z hop return
G1 E0.5 F1500 ; Un-retract
G1 X157.8329 Y111.72 E0.97485 F9000 ; Print pattern wall
G1 X136.6197 Y132.9332 E0.97485 F9000 ; Print pattern wall
G1 E-0.5 F3300 ; Retract
G1 Z0.75 F18000 ; Z hop
G0 X77.846 Y90.5068 F18000 ; Move back to start position
G1 Z0.65 F18000 ; Z hop return
G1 E0.5 F1500 ; Un-retract
G0 Z0.85 F18000 ; Move to layer height
SET_PRESSURE_ADVANCE ADVANCE=0 ; Set pressure advance
M117 PA 0
G1 X99.0592 Y111.72 E0.97485 F9000 ; Print pattern wall
G1 X77.846 Y132.9332 E0.97485 F9000 ; Print pattern wall
G1 E-0.5 F3300 ; Retract
G1 Z0.95 F18000 ; Z hop
G0 X78.4217 Y90.5068 F18000 ; Move to start next pattern wall
G1 Z0.85 F18000 ; Z hop return
G1 E0.5 F1500 ; Un-retract
G1 X99.6349 Y111.72 E0.97485 F9000 ; Print pattern wall
G1 X78.4217 Y132.9332 E0.97485 F9000 ; Print pattern wall
G1 E-0.5 F3300 ; Retract
G1 Z0.95 F18000 ; Z hop
G0 X78.9974 Y90.5068 F18000 ; Move to start next pattern wall
G1 Z0.85 F18000 ; Z hop return
G1 E0.5 F1500 ; Un-retract
G1 X100.2106 Y111.72 E0.97485 F9000 ; Print pattern wall
G1 X78.9974 Y132.9332 E0.97485 F9000 ; Print pattern wall
G1 E-0.5 F3300 ; Retract
G1 Z0.95 F18000 ; Z hop
G0 X81.4474 Y90.5068 F18000 ; Move to next pattern
G1 Z0.85 F18000 ; Z hop return
G1 E0.5 F1500 ; Un-retract
SET_PRESSURE_ADVANCE ADVANCE=0.005 ; Set pressure advance
M117 PA 0.005
G1 X102.6606 Y111.72 E0.97485 F9000 ; Print pattern wall
G1 X81.4474 Y132.9332 E0.97485 F9000 ; Print pattern wall
G1 E-0.5 F3300 ; Retract
G1 Z0.95 F18000 ; Z hop
G0 X82.0231 Y90.5068 F18000 ; Move to start next pattern wall
G1 Z0.85 F18000 ; Z hop return
G1 E0.5 F1500 ; Un-retract
G1 X103.2363 Y111.72 E0.97485 F9000 ; Print pattern wall
G1 X82.0231 Y132.9332 E0.97485 F9000 ; Print pattern wall
G1 E-0.5 F3300 ; Retract
G1 Z0.95 F18000 ; Z hop
G0 X82.5988 Y90.5068 F18000 ; Move to start next pattern wall
G1 Z0.85 F18000 ; Z hop return
G1 E0.5 F1500 ; Un-retract
G1 X103.812 Y111.72 E0.97485 F9000 ; Print pattern wall
G1 X82.5988 Y132.9332 E0.97485 F9000 ; Print pattern wall
G1 E-0.5 F3300 ; Retract
G1 Z0.95 F18000 ; Z hop
G0 X85.0488 Y90.5068 F18000 ; Move to next pattern
G1 Z0.85 F18000 ; Z hop return
G1 E0.5 F1500 ; Un-retract
SET_PRESSURE_ADVANCE ADVANCE=0.01 ; Set pressure advance
M117 PA 0.01
G1 X106.262 Y111.72 E0.97485 F9000 ; Print pattern wall
G1 X85.0488 Y132.9332 E0.97485 F9000 ; Print pattern wall
G1 E-0.5 F3300 ; Retract
G1 Z0.95 F18000 ; Z hop
G0 X85.6245 Y90.5068 F18000 ; Move to start next pattern wall
G1 Z0.85 F18000 ; Z hop return
G1 E0.5 F1500 ; Un-retract
G1 X106.8377 Y111.72 E0.97485 F9000 ; Print pattern wall
G1 X85.6245 Y132.9332 E0.97485 F9000 ; Print pattern wall
G1 E-0.5 F3300 ; Retract
G1 Z0.95 F18000 ; Z hop
G0 X86.2002 Y90.5068 F18000 ; Move to start next pattern wall
G1 Z0.85 F18000 ; Z hop return
G1 E0.5 F1500 ; Un-retract
G1 X107.4134 Y111.72 E0.97485 F9000 ; Print pattern wall
G1 X86.2002 Y132.9332 E0.97485 F9000 ; Print pattern wall
G1 E-0.5 F3300 ; Retract
G1 Z0.95 F18000 ; Z hop
G0 X88.6502 Y90.5068 F18000 ; Move to next pattern
G1 Z0.85 F18000 ; Z hop return
G1 E0.5 F1500 ; Un-retract
SET_PRESSURE_ADVANCE ADVANCE=0.015 ; Set pressure advance
M117 PA 0.015
G1 X109.8634 Y111.72 E0.97485 F9000 ; Print pattern wall
G1 X88.6502 Y132.9332 E0.97485 F9000 ; Print pattern wall
G1 E-0.5 F3300 ; Retract
G1 Z0.95 F18000 ; Z hop
G0 X89.2259 Y90.5068 F18000 ; Move to start next pattern wall
G1 Z0.85 F18000 ; Z hop return
G1 E0.5 F1500 ; Un-retract
G1 X110.4391 Y111.72 E0.97485 F9000 ; Print pattern wall
G1 X89.2259 Y132.9332 E0.97485 F9000 ; Print pattern wall
G1 E-0.5 F3300 ; Retract
G1 Z0.95 F18000 ; Z hop
G0 X89.8016 Y90.5068 F18000 ; Move to start next pattern wall
G1 Z0.85 F18000 ; Z hop return
G1 E0.5 F1500 ; Un-retract
G1 X111.0148 Y111.72 E0.97485 F9000 ; Print pattern wall
G1 X89.8016 Y132.9332 E0.97485 F9000 ; Print pattern wall
G1 E-0.5 F3300 ; Retract
G1 Z0.95 F18000 ; Z hop
G0 X92.2516 Y90.5068 F18000 ; Move to next pattern
G1 Z0.85 F18000 ; Z hop return
G1 E0.5 F1500 ; Un-retract
SET_PRESSURE_ADVANCE ADVANCE=0.02 ; Set pressure advance
M117 PA 0.02
G1 X113.4648 Y111.72 E0.97485 F9000 ; Print pattern wall
G1 X92.2516 Y132.9332 E0.97485 F9000 ; Print pattern wall
G1 E-0.5 F3300 ; Retract
G1 Z0.95 F18000 ; Z hop
G0 X92.8273 Y90.5068 F18000 ; Move to start next pattern wall
G1 Z0.85 F18000 ; Z hop return
G1 E0.5 F1500 ; Un-retract
G1 X114.0405 Y111.72 E0.97485 F9000 ; Print pattern wall
G1 X92.8273 Y132.9332 E0.97485 F9000 ; Print pattern wall
G1 E-0.5 F3300 ; Retract
G1 Z0.95 F18000 ; Z hop
G0 X93.403 Y90.5068 F18000 ; Move to start next pattern wall
G1 Z0.85 F18000 ; Z hop return
G1 E0.5 F1500 ; Un-retract
G1 X114.6162 Y111.72 E0.97485 F9000 ; Print pattern wall
G1 X93.403 Y132.9332 E0.97485 F9000 ; Print pattern wall
G1 E-0.5 F3300 ; Retract
G1 Z0.95 F18000 ; Z hop
G0 X95.853 Y90.5068 F18000 ; Move to next pattern
G1 Z0.85 F18000 ; Z hop return
G1 E0.5 F1500 ; Un-retract
SET_PRESSURE_ADVANCE ADVANCE=0.025 ; Set pressure advance
M117 PA 0.025
G1 X117.0662 Y111.72 E0.97485 F9000 ; Print pattern wall
G1 X95.853 Y132.9332 E0.97485 F9000 ; Print pattern wall
G1 E-0.5 F3300 ; Retract
G1 Z0.95 F18000 ; Z hop
G0 X96.4287 Y90.5068 F18000 ; Move to start next pattern wall
G1 Z0.85 F18000 ; Z hop return
G1 E0.5 F1500 ; Un-retract
G1 X117.6419 Y111.72 E0.97485 F9000 ; Print pattern wall
G1 X96.4287 Y132.9332 E0.97485 F9000 ; Print pattern wall
G1 E-0.5 F3300 ; Retract
G1 Z0.95 F18000 ; Z hop
G0 X97.0044 Y90.5068 F18000 ; Move to start next pattern wall
G1 Z0.85 F18000 ; Z hop return
G1 E0.5 F1500 ; Un-retract
G1 X118.2176 Y111.72 E0.97485 F9000 ; Print pattern wall
G1 X97.0044 Y132.9332 E0.97485 F9000 ; Print pattern wall
G1 E-0.5 F3300 ; Retract
G1 Z0.95 F18000 ; Z hop
G0 X99.4544 Y90.5068 F18000 ; Move to next pattern
G1 Z0.85 F18000 ; Z hop return
G1 E0.5 F1500 ; Un-retract
SET_PRESSURE_ADVANCE ADVANCE=0.03 ; Set pressure advance
M117 PA 0.03
G1 X120.6676 Y111.72 E0.97485 F9000 ; Print pattern wall
G1 X99.4544 Y132.9332 E0.97485 F9000 ; Print pattern wall
G1 E-0.5 F3300 ; Retract
G1 Z0.95 F18000 ; Z hop
G0 X100.0301 Y90.5068 F18000 ; Move to start next pattern wall
G1 Z0.85 F18000 ; Z hop return
G1 E0.5 F1500 ; Un-retract
G1 X121.2433 Y111.72 E0.97485 F9000 ; Print pattern wall
G1 X100.0301 Y132.9332 E0.97485 F9000 ; Print pattern wall
G1 E-0.5 F3300 ; Retract
G1 Z0.95 F18000 ; Z hop
G0 X100.6058 Y90.5068 F18000 ; Move to start next pattern wall
G1 Z0.85 F18000 ; Z hop return
G1 E0.5 F1500 ; Un-retract
G1 X121.819 Y111.72 E0.97485 F9000 ; Print pattern wall
G1 X100.6058 Y132.9332 E0.97485 F9000 ; Print pattern wall
G1 E-0.5 F3300 ; Retract
G1 Z0.95 F18000 ; Z hop
G0 X103.0558 Y90.5068 F18000 ; Move to next pattern
G1 Z0.85 F18000 ; Z hop return
G1 E0.5 F1500 ; Un-retract
SET_PRESSURE_ADVANCE ADVANCE=0.035 ; Set pressure advance
M117 PA 0.035
G1 X124.269 Y111.72 E0.97485 F9000 ; Print pattern wall
G1 X103.0558 Y132.9332 E0.97485 F9000 ; Print pattern wall
G1 E-0.5 F3300 ; Retract
G1 Z0.95 F18000 ; Z hop
G0 X103.6315 Y90.5068 F18000 ; Move to start next pattern wall
G1 Z0.85 F18000 ; Z hop return
G1 E0.5 F1500 ; Un-retract
G1 X124.8447 Y111.72 E0.97485 F9000 ; Print pattern wall
G1 X103.6315 Y132.9332 E0.97485 F9000 ; Print pattern wall
G1 E-0.5 F3300 ; Retract
G1 Z0.95 F18000 ; Z hop
G0 X104.2072 Y90.5068 F18000 ; Move to start next pattern wall
G1 Z0.85 F18000 ; Z hop return
G1 E0.5 F1500 ; Un-retract
G1 X125.4204 Y111.72 E0.97485 F9000 ; Print pattern wall
G1 X104.2072 Y132.9332 E0.97485 F9000 ; Print pattern wall
G1 E-0.5 F3300 ; Retract
G1 Z0.95 F18000 ; Z hop
G0 X106.6572 Y90.5068 F18000 ; Move to next pattern
G1 Z0.85 F18000 ; Z hop return
G1 E0.5 F1500 ; Un-retract
SET_PRESSURE_ADVANCE ADVANCE=0.04 ; Set pressure advance
M117 PA 0.04
G1 X127.8704 Y111.72 E0.97485 F9000 ; Print pattern wall
G1 X106.6572 Y132.9332 E0.97485 F9000 ; Print pattern wall
G1 E-0.5 F3300 ; Retract
G1 Z0.95 F18000 ; Z hop
G0 X107.2329 Y90.5068 F18000 ; Move to start next pattern wall
G1 Z0.85 F18000 ; Z hop return
G1 E0.5 F1500 ; Un-retract
G1 X128.4461 Y111.72 E0.97485 F9000 ; Print pattern wall
G1 X107.2329 Y132.9332 E0.97485 F9000 ; Print pattern wall
G1 E-0.5 F3300 ; Retract
G1 Z0.95 F18000 ; Z hop
G0 X107.8086 Y90.5068 F18000 ; Move to start next pattern wall
G1 Z0.85 F18000 ; Z hop return
G1 E0.5 F1500 ; Un-retract
G1 X129.0218 Y111.72 E0.97485 F9000 ; Print pattern wall
G1 X107.8086 Y132.9332 E0.97485 F9000 ; Print pattern wall
G1 E-0.5 F3300 ; Retract
G1 Z0.95 F18000 ; Z hop
G0 X110.2586 Y90.5068 F18000 ; Move to next pattern
G1 Z0.85 F18000 ; Z hop return
G1 E0.5 F1500 ; Un-retract
SET_PRESSURE_ADVANCE ADVANCE=0.045 ; Set pressure advance
M117 PA 0.045
G1 X131.4718 Y111.72 E0.97485 F9000 ; Print pattern wall
G1 X110.2586 Y132.9332 E0.97485 F9000 ; Print pattern wall
G1 E-0.5 F3300 ; Retract
G1 Z0.95 F18000 ; Z hop
G0 X110.8343 Y90.5068 F18000 ; Move to start next pattern wall
G1 Z0.85 F18000 ; Z hop return
G1 E0.5 F1500 ; Un-retract
G1 X132.0475 Y111.72 E0.97485 F9000 ; Print pattern wall
G1 X110.8343 Y132.9332 E0.97485 F9000 ; Print pattern wall
G1 E-0.5 F3300 ; Retract
G1 Z0.95 F18000 ; Z hop
G0 X111.41 Y90.5068 F18000 ; Move to start next pattern wall
G1 Z0.85 F18000 ; Z hop return
G1 E0.5 F1500 ; Un-retract
G1 X132.6232 Y111.72 E0.97485 F9000 ; Print pattern wall
G1 X111.41 Y132.9332 E0.97485 F9000 ; Print pattern wall
G1 E-0.5 F3300 ; Retract
G1 Z0.95 F18000 ; Z hop
G0 X113.86 Y90.5068 F18000 ; Move to next pattern
G1 Z0.85 F18000 ; Z hop return
G1 E0.5 F1500 ; Un-retract
SET_PRESSURE_ADVANCE ADVANCE=0.05 ; Set pressure advance
M117 PA 0.05
G1 X135.0732 Y111.72 E0.97485 F9000 ; Print pattern wall
G1 X113.86 Y132.9332 E0.97485 F9000 ; Print pattern wall
G1 E-0.5 F3300 ; Retract
G1 Z0.95 F18000 ; Z hop
G0 X114.4357 Y90.5068 F18000 ; Move to start next pattern wall
G1 Z0.85 F18000 ; Z hop return
G1 E0.5 F1500 ; Un-retract
G1 X135.6489 Y111.72 E0.97485 F9000 ; Print pattern wall
G1 X114.4357 Y132.9332 E0.97485 F9000 ; Print pattern wall
G1 E-0.5 F3300 ; Retract
G1 Z0.95 F18000 ; Z hop
G0 X115.0113 Y90.5068 F18000 ; Move to start next pattern wall
G1 Z0.85 F18000 ; Z hop return
G1 E0.5 F1500 ; Un-retract
G1 X136.2246 Y111.72 E0.97485 F9000 ; Print pattern wall
G1 X115.0113 Y132.9332 E0.97485 F9000 ; Print pattern wall
G1 E-0.5 F3300 ; Retract
G1 Z0.95 F18000 ; Z hop
G0 X117.4613 Y90.5068 F18000 ; Move to next pattern
G1 Z0.85 F18000 ; Z hop return
G1 E0.5 F1500 ; Un-retract
SET_PRESSURE_ADVANCE ADVANCE=0.055 ; Set pressure advance
M117 PA 0.055
G1 X138.6746 Y111.72 E0.97485 F9000 ; Print pattern wall
G1 X117.4613 Y132.9332 E0.97485 F9000 ; Print pattern wall
G1 E-0.5 F3300 ; Retract
G1 Z0.95 F18000 ; Z hop
G0 X118.037 Y90.5068 F18000 ; Move to start next pattern wall
G1 Z0.85 F18000 ; Z hop return
G1 E0.5 F1500 ; Un-retract
G1 X139.2502 Y111.72 E0.97485 F9000 ; Print pattern wall
G1 X118.037 Y132.9332 E0.97485 F9000 ; Print pattern wall
G1 E-0.5 F3300 ; Retract
G1 Z0.95 F18000 ; Z hop
G0 X118.6127 Y90.5068 F18000 ; Move to start next pattern wall
G1 Z0.85 F18000 ; Z hop return
G1 E0.5 F1500 ; Un-retract
G1 X139.8259 Y111.72 E0.97485 F9000 ; Print pattern wall
G1 X118.6127 Y132.9332 E0.97485 F9000 ; Print pattern wall
G1 E-0.5 F3300 ; Retract
G1 Z0.95 F18000 ; Z hop
G0 X121.0627 Y90.5068 F18000 ; Move to next pattern
G1 Z0.85 F18000 ; Z hop return
G1 E0.5 F1500 ; Un-retract
SET_PRESSURE_ADVANCE ADVANCE=0.06 ; Set pressure advance
M117 PA 0.06
G1 X142.2759 Y111.72 E0.97485 F9000 ; Print pattern wall
G1 X121.0627 Y132.9332 E0.97485 F9000 ; Print pattern wall
G1 E-0.5 F3300 ; Retract
G1 Z0.95 F18000 ; Z hop
G0 X121.6384 Y90.5068 F18000 ; Move to start next pattern wall
G1 Z0.85 F18000 ; Z hop return
G1 E0.5 F1500 ; Un-retract
G1 X142.8516 Y111.72 E0.97485 F9000 ; Print pattern wall
G1 X121.6384 Y132.9332 E0.97485 F9000 ; Print pattern wall
G1 E-0.5 F3300 ; Retract
G1 Z0.95 F18000 ; Z hop
G0 X122.2141 Y90.5068 F18000 ; Move to start next pattern wall
G1 Z0.85 F18000 ; Z hop return
G1 E0.5 F1500 ; Un-retract
G1 X143.4273 Y111.72 E0.97485 F9000 ; Print pattern wall
G1 X122.2141 Y132.9332 E0.97485 F9000 ; Print pattern wall
G1 E-0.5 F3300 ; Retract
G1 Z0.95 F18000 ; Z hop
G0 X124.6641 Y90.5068 F18000 ; Move to next pattern
G1 Z0.85 F18000 ; Z hop return
G1 E0.5 F1500 ; Un-retract
SET_PRESSURE_ADVANCE ADVANCE=0.065 ; Set pressure advance
M117 PA 0.065
G1 X145.8773 Y111.72 E0.97485 F9000 ; Print pattern wall
G1 X124.6641 Y132.9332 E0.97485 F9000 ; Print pattern wall
G1 E-0.5 F3300 ; Retract
G1 Z0.95 F18000 ; Z hop
G0 X125.2398 Y90.5068 F18000 ; Move to start next pattern wall
G1 Z0.85 F18000 ; Z hop return
G1 E0.5 F1500 ; Un-retract
G1 X146.453 Y111.72 E0.97485 F9000 ; Print pattern wall
G1 X125.2398 Y132.9332 E0.97485 F9000 ; Print pattern wall
G1 E-0.5 F3300 ; Retract
G1 Z0.95 F18000 ; Z hop
G0 X125.8155 Y90.5068 F18000 ; Move to start next pattern wall
G1 Z0.85 F18000 ; Z hop return
G1 E0.5 F1500 ; Un-retract
G1 X147.0287 Y111.72 E0.97485 F9000 ; Print pattern wall
G1 X125.8155 Y132.9332 E0.97485 F9000 ; Print pattern wall
G1 E-0.5 F3300 ; Retract
G1 Z0.95 F18000 ; Z hop
G0 X128.2655 Y90.5068 F18000 ; Move to next pattern
G1 Z0.85 F18000 ; Z hop return
G1 E0.5 F1500 ; Un-retract
SET_PRESSURE_ADVANCE ADVANCE=0.07 ; Set pressure advance
M117 PA 0.07
G1 X149.4787 Y111.72 E0.97485 F9000 ; Print pattern wall
G1 X128.2655 Y132.9332 E0.97485 F9000 ; Print pattern wall
G1 E-0.5 F3300 ; Retract
G1 Z0.95 F18000 ; Z hop
G0 X128.8412 Y90.5068 F18000 ; Move to start next pattern wall
G1 Z0.85 F18000 ; Z hop return
G1 E0.5 F1500 ; Un-retract
G1 X150.0544 Y111.72 E0.97485 F9000 ; Print pattern wall
G1 X128.8412 Y132.9332 E0.97485 F9000 ; Print pattern wall
G1 E-0.5 F3300 ; Retract
G1 Z0.95 F18000 ; Z hop
G0 X129.4169 Y90.5068 F18000 ; Move to start next pattern wall
G1 Z0.85 F18000 ; Z hop return
G1 E0.5 F1500 ; Un-retract
G1 X150.6301 Y111.72 E0.97485 F9000 ; Print pattern wall
G1 X129.4169 Y132.9332 E0.97485 F9000 ; Print pattern wall
G1 E-0.5 F3300 ; Retract
G1 Z0.95 F18000 ; Z hop
G0 X131.8669 Y90.5068 F18000 ; Move to next pattern
G1 Z0.85 F18000 ; Z hop return
G1 E0.5 F1500 ; Un-retract
SET_PRESSURE_ADVANCE ADVANCE=0.075 ; Set pressure advance
M117 PA 0.075
G1 X153.0801 Y111.72 E0.97485 F9000 ; Print pattern wall
G1 X131.8669 Y132.9332 E0.97485 F9000 ; Print pattern wall
G1 E-0.5 F3300 ; Retract
G1 Z0.95 F18000 ; Z hop
G0 X132.4426 Y90.5068 F18000 ; Move to start next pattern wall
G1 Z0.85 F18000 ; Z hop return
G1 E0.5 F1500 ; Un-retract
G1 X153.6558 Y111.72 E0.97485 F9000 ; Print pattern wall
G1 X132.4426 Y132.9332 E0.97485 F9000 ; Print pattern wall
G1 E-0.5 F3300 ; Retract
G1 Z0.95 F18000 ; Z hop
G0 X133.0183 Y90.5068 F18000 ; Move to start next pattern wall
G1 Z0.85 F18000 ; Z hop return
G1 E0.5 F1500 ; Un-retract
G1 X154.2315 Y111.72 E0.97485 F9000 ; Print pattern wall
G1 X133.0183 Y132.9332 E0.97485 F9000 ; Print pattern wall
G1 E-0.5 F3300 ; Retract
G1 Z0.95 F18000 ; Z hop
G0 X135.4683 Y90.5068 F18000 ; Move to next pattern
G1 Z0.85 F18000 ; Z hop return
G1 E0.5 F1500 ; Un-retract
SET_PRESSURE_ADVANCE ADVANCE=0.08 ; Set pressure advance
M117 PA 0.08
G1 X156.6815 Y111.72 E0.97485 F9000 ; Print pattern wall
G1 X135.4683 Y132.9332 E0.97485 F9000 ; Print pattern wall
G1 E-0.5 F3300 ; Retract
G1 Z0.95 F18000 ; Z hop
G0 X136.044 Y90.5068 F18000 ; Move to start next pattern wall
G1 Z0.85 F18000 ; Z hop return
G1 E0.5 F1500 ; Un-retract
G1 X157.2572 Y111.72 E0.97485 F9000 ; Print pattern wall
G1 X136.044 Y132.9332 E0.97485 F9000 ; Print pattern wall
G1 E-0.5 F3300 ; Retract
G1 Z0.95 F18000 ; Z hop
G0 X136.6197 Y90.5068 F18000 ; Move to start next pattern wall
G1 Z0.85 F18000 ; Z hop return
G1 E0.5 F1500 ; Un-retract
G1 X157.8329 Y111.72 E0.97485 F9000 ; Print pattern wall
G1 X136.6197 Y132.9332 E0.97485 F9000 ; Print pattern wall
SET_PRESSURE_ADVANCE ADVANCE=0 ; Set pressure advance back to start value
M117 PA 0
G1 E-0.5 F3300 ; Retract
G1 Z0.95 F18000 ; Z hop
G0 Z5.85 F18000 ; Z raise
M104 S0 ; Turn off hotend
M140 S0 ; Turn off bed
M107    ; Turn off fan
;
; End G-code
;
G91 ;Relative positionning
G1 E-2 F2700 ;Retract a bit
G1 E-2 Z0.2 F2400 ;Retract and raise Z
G1 X5 Y5 F3000 ;Wipe out
G1 Z2 ;Raise Z more
G90 ;Absolute positionning
G1 X0 Y230 ;Present print
M106 S0 ;Turn-off fan
M104 S0 ;Turn-off hotend
M140 S0 ;Turn-off bed
M84 X Y E ;Disable all steppers but Z
;
; FINISH
;
